; generated by PrusaSlicer 2.7.3+MacOS-arm64 on 2024-05-25 at 14:46:27 UTC


;
;

;
;

;
;
; 

; external perimeters extrusion width = 0.45mm
; perimeters extrusion width = 0.45mm
; infill extrusion width = 0.45mm
; solid infill extrusion width = 0.45mm
; top infill extrusion width = 0.40mm
; support material extrusion width = 0.35mm
; first layer extrusion width = 0.42mm

M73 P0 R62
M201 X2500 Y2500 Z400 E5000 ; sets maximum accelerations, mm/sec^2
M203 X180 Y180 Z12 E80 ; sets maximum feedrates, mm / sec
M204 P2000 R1250 T2500 ; sets acceleration (P, T) and retract acceleration (R), mm/sec^2
M205 X8.00 Y8.00 Z2.00 E10.00 ; sets the jerk limits, mm/sec
M205 S0 T0 ; sets the minimum extruding and travel feed rate, mm/sec

; printing object battery_bracket_v1.0.stl id:0 copy 0
; stop printing object battery_bracket_v1.0.stl id:0 copy 0

;TYPE:Custom
M862.3 P "MINI" ; printer model check
G90 ; use absolute coordinates
M83 ; extruder relative mode
M104 S170 ; set extruder temp for bed leveling
M140 S60 ; set bed temp
M109 R170 ; wait for bed leveling temp
M190 S60 ; wait for bed temp
M204 T1250 ; set travel acceleration
G28 ; home all without mesh bed level
G29 ; mesh bed leveling 
M204 T2500 ; restore travel acceleration
M104 S215 ; set extruder temp
G92 E0
G1 Y-2 X179 F2400
G1 Z3 F720
M109 S215 ; wait for extruder temp

; intro line
G1 X170 F1000
G1 Z0.2 F720
G1 X110 E8 F900
G1 X40 E10 F700
G92 E0

M221 S95 ; set flow
G21 ; set units to millimeters
G90 ; use absolute coordinates
M83 ; use relative distances for extrusion
M900 K0.2 ; Filament gcode LA 1.5
; ; Filament gcode LA 1.0

M107
;LAYER_CHANGE
;Z:0.2
;HEIGHT:0.2
G1 E-3.2 F4200
M73 P0 R61
G1 Z.4 F720
G1 X49.412 Y107.507 F9000
G1 Z.2 F720
G1 E3.2 F2400
M204 P600
;TYPE:Skirt/Brim
;WIDTH:0.42
G1 F1200
G1 X50.885 Y106.931 E.04959
G1 X52.833 Y106.601 E.06195
G1 X128.422 Y106.77 E2.37005
G1 X129.425 Y106.842 E.03153
G1 X130.514 Y107.063 E.03484
G1 X132.381 Y107.816 E.06312
G1 X133.666 Y108.675 E.04846
G1 X134.572 Y109.519 E.03882
G1 X135.737 Y111.095 E.06145
G1 X136.304 Y112.26 E.04062
G1 X138.489 Y117.534 E.17899
G1 X138.892 Y118.907 E.04487
G1 X141.024 Y132.322 E.4259
G1 X141.152 Y133.985 E.0523
G1 X140.125 Y149.721 E.49444
G1 X139.937 Y151.357 E.05163
G1 X139.471 Y152.867 E.04955
G1 X138.738 Y154.268 E.04958
G1 X137.763 Y155.514 E.04961
G1 X136.921 Y156.296 E.03603
G1 X135.633 Y157.161 E.04865
G1 X134.108 Y157.821 E.0521
G1 X132.238 Y158.204 E.05985
G1 X56.739 Y161.218 E2.3691
G1 X55.173 Y160.997 E.04959
G1 X53.674 Y160.496 E.04956
G1 X46.715 Y156.632 E.24957
G1 X45.724 Y156.051 E.03602
G1 X44.502 Y155.047 E.04959
G1 X43.244 Y153.477 E.06308
G1 X42.734 Y152.525 E.03386
G1 X42.347 Y151.532 E.03342
G1 X42.121 Y150.696 E.02715
G1 X41.943 Y149.355 E.04241
G1 X41.242 Y126.554 E.71525
G1 X41.309 Y125.119 E.04504
G1 X41.67 Y123.522 E.05134
G1 X45.059 Y112.556 E.35988
G1 X45.431 Y111.614 E.03176
G1 X46.18 Y110.3 E.04742
G1 X47.129 Y109.162 E.04646
G1 X48.189 Y108.252 E.0438
G1 X49.361 Y107.538 E.04303
M204 P1000
G1 E-2.24 F4200
;WIPE_START
G1 F7200
G1 X49.412 Y107.507 E-.03307
G1 X50.885 Y106.931 E-.87648
G1 X50.975 Y106.916 E-.05045
;WIPE_END
G1 Z.4 F720
; printing object battery_bracket_v1.0.stl id:0 copy 0
G1 X128.417 Y109.148 F9000
G1 Z.2 F720
G1 E3.2 F2400
M204 P600
;TYPE:Support material
G1 F1200
G1 X128.951 Y109.172 E.01676
G1 X130.04 Y109.393 E.03484
G1 X131.106 Y109.823 E.03604
G1 X132.064 Y110.432 E.03559
G1 X132.929 Y111.237 E.03705
G1 X133.603 Y112.143 E.03541
G1 X134.108 Y113.17 E.03588
G1 X134.421 Y114.287 E.03637
G1 X134.526 Y115.425 E.03583
G1 X134.481 Y115.914 E.0154
G1 X135.093 Y116.483 E.0262
G1 X135.793 Y117.426 E.03682
G1 X136.293 Y118.444 E.03556
G1 X136.604 Y119.55 E.03602
G1 X136.709 Y120.694 E.03602
G1 X136.605 Y121.832 E.03583
G1 X136.291 Y122.949 E.03638
G1 X135.786 Y123.976 E.03588
G1 X135.354 Y124.558 E.02273
G1 X135.82 Y125.98 E.04692
G1 X135.925 Y127.124 E.03602
G1 X135.76 Y128.482 E.04289
G1 X136.33 Y128.844 E.02117
G1 X137.172 Y129.626 E.03603
G1 X137.858 Y130.548 E.03603
G1 X138.362 Y131.575 E.03587
G1 X138.539 Y132.196 E.02025
G1 X138.676 Y132.692 E.01613
G1 X138.78 Y133.83 E.03583
G1 X138.675 Y134.974 E.03602
G1 X138.367 Y136.07 E.0357
G1 X137.853 Y137.118 E.0366
G1 X137.172 Y138.034 E.03579
G1 X136.449 Y138.706 E.03095
G1 X136.531 Y139.6 E.02815
G1 X136.426 Y140.744 E.03602
G1 X136.115 Y141.85 E.03602
G1 X135.608 Y142.882 E.03605
G1 X134.922 Y143.804 E.03603
G1 X134.58 Y144.122 E.01464
G1 X135.321 Y144.599 E.02763
G1 X136.145 Y145.364 E.03525
G1 X136.831 Y146.286 E.03603
G1 X137.338 Y147.318 E.03605
G1 X137.649 Y148.424 E.03602
G1 X137.753 Y149.566 E.03595
G1 X137.648 Y150.714 E.03614
G1 X137.338 Y151.819 E.03598
G1 X136.831 Y152.85 E.03602
G1 X136.145 Y153.772 E.03603
G1 X135.303 Y154.554 E.03603
G1 X134.358 Y155.155 E.03511
G1 X133.871 Y155.363 E.0166
G1 X133.249 Y155.604 E.02092
G1 X132.142 Y155.829 E.03542
G1 X130.993 Y155.85 E.03603
G1 X129.906 Y155.669 E.03455
G1 X128.753 Y155.254 E.03842
G1 X127.789 Y154.689 E.03503
G1 X127.259 Y154.231 E.02196
G1 X125.843 Y154.017 E.0449
G1 X124.964 Y153.671 E.02962
G1 X124.472 Y153.407 E.01751
G1 X123.555 Y152.674 E.03681
G1 X122.738 Y151.704 E.03976
G1 X122.345 Y151.022 E.02468
G1 X121.639 Y150.662 E.02485
G1 X120.767 Y149.121 E.05552
G1 X120.767 Y148.764 E.01119
G1 X122.703 Y148.764 E.0607
G1 X122.984 Y148.485 E.01242
G1 X123.023 Y137.689 E.3385
G1 X122.755 Y137.411 E.01211
G1 X121.887 Y137.354 E.02727
G1 X120.604 Y136.959 E.04209
G1 X120.018 Y136.623 E.02118
G1 X119.489 Y136.202 E.0212
G1 X119.029 Y135.708 E.02116
G1 X118.64 Y135.138 E.02164
G1 X118.153 Y133.897 E.0418
G1 X118.051 Y133.229 E.02119
G1 X118.051 Y132.54 E.0216
G1 X118.348 Y131.24 E.04181
G1 X118.647 Y130.619 E.02161
G1 X119.479 Y129.576 E.04183
G1 X120.006 Y129.154 E.02117
G1 X120.604 Y128.809 E.02165
G1 X121.886 Y128.415 E.04205
G1 X122.755 Y128.357 E.02731
G1 X123.023 Y128.08 E.01208
G1 X122.984 Y117.284 E.3385
G1 X122.703 Y117.004 E.01244
G1 X120.734 Y117.004 E.06174
G1 X120.716 Y116.738 E.00836
G1 X121.525 Y115.309 E.05149
G1 X121.961 Y114.992 E.0169
M73 P1 R61
G1 X122.095 Y114.033 E.03036
G1 X122.463 Y112.903 E.03726
G1 X122.974 Y111.952 E.03385
G1 X123.692 Y111.055 E.03603
G1 X124.561 Y110.304 E.03601
G1 X125.552 Y109.723 E.03602
G1 X126.632 Y109.332 E.03601
G1 X127.741 Y109.147 E.03525
G1 X128.36 Y109.148 E.01941
M204 P1000
G1 X128.36 Y109.148 F9000
G1 X138.033 Y136.374
M204 P600
G1 F1200
G1 X138.033 Y131.674 E.14737
G1 X137.614 Y130.821 E.0298
G1 X137.614 Y136.837 E.18863
G1 X137.195 Y137.435 E.02289
G1 X137.195 Y130.225 E.22606
G1 X136.776 Y129.721 E.02055
G1 X136.776 Y137.939 E.25767
G1 X136.357 Y138.328 E.01793
G1 X136.357 Y129.332 E.28206
G1 X135.938 Y128.997 E.01682
G1 X135.938 Y141.226 E.38343
G1 X135.797 Y141.729 E.01638
G1 X135.519 Y142.294 E.01974
G1 X135.519 Y125.535 E.52547
M204 P1000
G1 E-2.24 F4200
;WIPE_START
G1 F7200
G1 X135.519 Y127.267 E-.96
;WIPE_END
G1 Z.4 F720
G1 X137.195 Y151.7 F9000
G1 Z.2 F720
G1 E3.2 F2400
M204 P600
G1 F1200
G1 X137.195 Y148.063 E.11404
G1 X137.019 Y147.439 E.02033
G1 X136.776 Y146.944 E.01729
G1 X136.776 Y152.193 E.16458
G1 X136.357 Y152.919 E.02628
G1 X136.357 Y146.217 E.21014
G1 X135.938 Y145.654 E.022
G1 X135.938 Y153.482 E.24544
G1 X135.519 Y153.891 E.01836
G1 X135.519 Y145.245 E.27109
G1 X135.1 Y144.859 E.01786
G1 X135.1 Y154.28 E.29539
G1 X134.681 Y154.548 E.01559
G1 X134.681 Y144.384 E.31869
M204 P1000
G1 E-2.24 F4200
;WIPE_START
G1 F7200
G1 X134.681 Y146.116 E-.96
;WIPE_END
G1 Z.4 F720
G1 X136.357 Y122.093 F9000
G1 Z.2 F720
G1 E3.2 F2400
M204 P600
G1 F1200
G1 X136.357 Y120.569 E.04778
G1 X136.269 Y119.612 E.03013
G1 X135.938 Y118.49 E.03668
G1 X135.938 Y122.898 E.13821
G1 X135.519 Y123.751 E.0298
G1 X135.519 Y117.637 E.1917
G1 X135.1 Y117.055 E.02249
G1 X135.1 Y142.996 E.81336
G1 X134.681 Y143.56 E.02203
G1 X134.681 Y116.563 E.84647
G1 X134.262 Y116.174 E.01793
G1 X134.262 Y154.814 E1.21153
G1 X133.843 Y155.006 E.01445
G1 X133.843 Y113.479 E1.30205
G1 X133.424 Y112.548 E.03201
G1 X133.424 Y155.172 E1.33645
G1 X133.005 Y155.307 E.0138
G1 X133.005 Y111.907 E1.36078
G1 X132.586 Y111.378 E.02116
G1 X132.586 Y155.392 E1.38003
G1 X132.167 Y155.478 E.01341
G1 X132.167 Y110.984 E1.39508
G1 X131.748 Y110.633 E.01714
G1 X131.748 Y155.497 E1.40668
G1 X131.329 Y155.504 E.01314
G1 X131.329 Y110.366 E1.41527
G1 X130.91 Y110.11 E.0154
G1 X130.91 Y155.492 E1.42292
G1 X130.491 Y155.422 E.01332
G1 X130.491 Y109.941 E1.42602
G1 X130.072 Y109.772 E.01417
G1 X130.072 Y155.352 E1.42913
G1 X129.987 Y155.338 E.0027
M73 P1 R60
G1 X129.653 Y155.23 E.01101
G1 X129.653 Y109.661 E1.42878
G1 X129.234 Y109.575 E.01341
M73 P2 R60
G1 X129.234 Y155.077 E1.42668
G1 X128.815 Y154.897 E.0143
G1 X128.815 Y109.505 E1.42323
G1 X128.396 Y109.487 E.01315
G1 X128.396 Y154.652 E1.41612
G1 X127.977 Y154.404 E.01527
G1 X127.977 Y109.487 E1.40834
G1 X127.558 Y109.522 E.01318
G1 X127.558 Y154.041 E1.39586
G1 X127.385 Y153.891 E.00718
G1 X127.139 Y153.893 E.00771
G1 X127.139 Y109.592 E1.38903
G1 X126.72 Y109.661 E.01331
G1 X126.72 Y153.836 E1.38508
G1 X126.301 Y153.758 E.01336
G1 X126.301 Y109.813 E1.37786
G1 X125.882 Y109.964 E.01396
G1 X125.882 Y153.668 E1.37031
G1 X125.463 Y153.503 E.01412
G1 X125.463 Y110.168 E1.35874
G1 X125.044 Y110.414 E.01523
G1 X125.044 Y153.329 E1.34557
G1 X124.625 Y153.095 E.01505
G1 X124.625 Y110.697 E1.32936
G1 X124.206 Y111.059 E.01736
G1 X124.206 Y152.76 E1.30751
G1 X123.787 Y152.425 E.01682
G1 X123.787 Y111.479 E1.28383
G1 X123.368 Y112.002 E.02101
G1 X123.368 Y151.962 E1.25292
G1 X122.949 Y151.4 E.02198
G1 X122.949 Y148.998 E.07531
G1 X122.843 Y149.104 E.0047
G1 X122.53 Y149.104 E.00981
G1 X122.53 Y150.736 E.05117
G1 X122.111 Y150.522 E.01475
G1 X122.111 Y149.104 E.04446
G1 X121.692 Y149.104 E.01314
G1 X121.692 Y150.067 E.03019
G1 X121.274 Y149.327 E.02665
G1 X121.274 Y148.934 E.01232
M204 P1000
G1 E-2.24 F4200
;WIPE_START
G1 F7200
G1 X121.274 Y149.327 E-.21779
G1 X121.692 Y150.067 E-.47098
G1 X121.692 Y149.577 E-.27123
;WIPE_END
G1 Z.4 F720
G1 X122.949 Y137.369 F9000
G1 Z.2 F720
G1 E3.2 F2400
M204 P600
G1 F1200
G1 X122.949 Y128.644 E.27357
G1 X122.53 Y128.705 E.01328
G1 X122.53 Y137.063 E.26206
G1 X122.111 Y137.038 E.01316
G1 X122.111 Y128.731 E.26046
G1 X121.692 Y128.807 E.01335
G1 X121.692 Y136.962 E.25569
G1 X121.274 Y136.858 E.01351
M73 P3 R60
G1 X121.274 Y128.911 E.24917
G1 X120.855 Y129.076 E.01412
G1 X120.855 Y136.693 E.23883
G1 X120.436 Y136.472 E.01485
G1 X120.436 Y129.297 E.22497
G1 X120.017 Y129.58 E.01585
G1 X120.017 Y136.189 E.20722
G1 X119.598 Y135.822 E.01746
G1 X119.598 Y129.947 E.18421
G1 X119.179 Y130.442 E.02033
G1 X119.179 Y135.327 E.15317
G1 X118.76 Y134.604 E.0262
G1 X118.76 Y130.774 E.12009
M204 P1000
G1 E-2.24 F4200
;WIPE_START
G1 F7200
G1 X118.76 Y132.506 E-.96
;WIPE_END
G1 Z.4 F720
G1 X122.949 Y117.011 F9000
G1 Z.2 F720
G1 E3.2 F2400
M204 P600
G1 F1200
G1 X122.949 Y112.715 E.1347
G1 X122.53 Y113.741 E.03475
G1 X122.53 Y116.665 E.09168
G1 X122.111 Y116.665 E.01314
G1 X122.111 Y115.302 E.04274
G1 X121.784 Y115.54 E.01268
G1 X121.693 Y115.701 E.0058
G1 X121.692 Y116.665 E.03023
G1 X121.274 Y116.665 E.01311
G1 X121.274 Y116.097 E.01781
M204 P1000
G1 E-2.24 F4200
;WIPE_START
G1 F7200
G1 X121.274 Y116.665 E-.31477
G1 X121.692 Y116.665 E-.23164
G1 X121.692 Y115.919 E-.41359
;WIPE_END
G1 Z.4 F720
G1 X53.976 Y108.998 F9000
G1 Z.2 F720
G1 E3.2 F2400
M204 P600
G1 F1200
G1 X55.102 Y109.227 E.03603
G1 X56.168 Y109.657 E.03604
G1 X57.138 Y110.273 E.03603
G1 X57.98 Y111.055 E.03603
G1 X58.665 Y111.977 E.03601
G1 X59.172 Y113.009 E.03605
G1 X59.508 Y114.385 E.04441
G1 X61.016 Y115.643 E.06157
G1 X61.442 Y117.004 E.04471
G1 X59.512 Y117.004 E.06051
G1 X59.231 Y117.284 E.01244
G1 X59.191 Y128.08 E.3385
G1 X59.46 Y128.357 E.01211
G1 X60.328 Y128.415 E.02728
G1 X60.982 Y128.564 E.02103
G1 X61.623 Y128.816 E.0216
G1 X62.208 Y129.154 E.02118
G1 X62.736 Y129.576 E.02119
G1 X63.567 Y130.619 E.04181
G1 X63.866 Y131.24 E.02161
G1 X64.078 Y131.973 E.02392
G1 X63.953 Y132.232 E.00902
G1 X64.134 Y133.424 E.0378
G1 X64.061 Y133.897 E.01501
G1 X63.574 Y135.138 E.0418
G1 X63.186 Y135.708 E.02162
G1 X62.725 Y136.202 E.02119
G1 X61.623 Y136.953 E.04181
G1 X60.995 Y137.201 E.02117
G1 X60.327 Y137.354 E.02149
G1 X59.46 Y137.411 E.02724
G1 X59.191 Y137.689 E.01213
G1 X59.231 Y148.485 E.3385
G1 X59.512 Y148.764 E.01242
G1 X62.153 Y148.764 E.08281
G1 X62.534 Y149.278 E.02006
G1 X63.041 Y150.309 E.03602
G1 X63.352 Y151.415 E.03602
G1 X63.457 Y152.557 E.03596
G1 X63.352 Y153.705 E.03614
G1 X63.041 Y154.81 E.03599
G1 X62.534 Y155.841 E.03602
G1 X61.848 Y156.763 E.03603
G1 X61.007 Y157.545 E.03601
G1 X60.037 Y158.162 E.03605
G1 X58.971 Y158.591 E.03603
G1 X57.845 Y158.82 E.03603
G1 X56.697 Y158.841 E.036
G1 X55.563 Y158.652 E.03605
G1 X54.483 Y158.261 E.03601
G1 X53.492 Y157.68 E.03602
G1 X52.623 Y156.929 E.03601
G1 X51.905 Y156.032 E.03603
G1 X51.425 Y155.138 E.03182
G1 X50.131 Y155.161 E.04058
G1 X48.997 Y154.973 E.03604
G1 X47.917 Y154.581 E.03602
G1 X46.926 Y154 E.03602
G1 X46.057 Y153.249 E.03601
G1 X45.339 Y152.353 E.036
G1 X44.633 Y150.881 E.05119
G1 X44.46 Y150.272 E.01985
G1 X44.31 Y149.136 E.03593
G1 X44.46 Y147.488 E.05189
G1 X44.828 Y146.358 E.03726
G1 X45.339 Y145.407 E.03385
G1 X46.057 Y144.51 E.03603
G1 X46.926 Y143.759 E.03601
G1 X48.188 Y143.019 E.04587
G1 X47.28 Y142.486 E.03301
G1 X46.456 Y141.774 E.03414
G1 X46.095 Y141.361 E.0172
G1 X45.674 Y140.803 E.02192
G1 X45.182 Y139.887 E.0326
G1 X44.814 Y138.758 E.03723
G1 X44.664 Y137.622 E.03593
G1 X44.722 Y136.478 E.03592
G1 X45.182 Y134.844 E.05322
G1 X45.693 Y133.893 E.03385
G1 X46.388 Y133.025 E.03486
G1 X47.494 Y132.085 E.04551
G1 X46.282 Y131.375 E.04404
G1 X45.342 Y130.566 E.03889
G1 X44.647 Y129.698 E.03486
G1 X44.136 Y128.747 E.03385
G1 X43.676 Y127.113 E.05322
G1 X43.618 Y125.969 E.03592
G1 X43.768 Y124.834 E.0359
G1 X44.121 Y123.744 E.03592
G1 X44.404 Y123.176 E.0199
G1 X44.667 Y122.736 E.01607
G1 X45.411 Y121.817 E.03707
G1 X46.234 Y121.105 E.03412
G1 X47.198 Y120.539 E.03505
G1 X48.352 Y120.125 E.03844
G1 X49.17 Y119.989 E.026
G1 X48.754 Y119.629 E.01725
G1 X48.036 Y118.732 E.03603
G1 X47.525 Y117.781 E.03385
G1 X47.065 Y116.147 E.05322
G1 X47.007 Y115.003 E.03592
G1 X47.157 Y113.867 E.03593
G1 X47.525 Y112.738 E.03723
G1 X48.036 Y111.786 E.03388
G1 X48.731 Y110.919 E.03484
G1 X49.244 Y110.451 E.02177
G1 X49.671 Y110.11 E.01713
G1 X50.614 Y109.558 E.03426
G1 X51.694 Y109.166 E.03602
G1 X52.828 Y108.978 E.03604
G1 X53.92 Y108.997 E.03424
M204 P1000
G1 E-2.24 F4200
;WIPE_START
G1 F7200
G1 X52.828 Y108.978 E-.60524
G1 X52.197 Y109.083 E-.35476
;WIPE_END
G1 Z.4 F720
G1 X63.455 Y134.995 F9000
G1 Z.2 F720
G1 E3.2 F2400
M204 P600
G1 F1200
G1 X63.455 Y131.165 E.12009
G1 X63.036 Y130.442 E.0262
G1 X63.036 Y135.327 E.15317
G1 X62.617 Y135.822 E.02033
G1 X62.617 Y129.947 E.18421
G1 X62.198 Y129.58 E.01746
G1 X62.198 Y136.189 E.20722
G1 X61.779 Y136.472 E.01585
G1 X61.779 Y129.297 E.22497
G1 X61.36 Y129.076 E.01485
G1 X61.36 Y136.693 E.23883
G1 X60.941 Y136.858 E.01412
G1 X60.941 Y128.911 E.24917
G1 X60.522 Y128.807 E.01354
G1 X60.522 Y136.962 E.25569
G1 X60.103 Y137.038 E.01335
G1 X60.103 Y128.731 E.26046
G1 X59.684 Y128.705 E.01316
G1 X59.684 Y137.063 E.26206
G1 X59.265 Y137.125 E.01328
G1 X59.265 Y128.644 E.26592
G1 X58.852 Y128.217 E.01863
G1 X58.849 Y127.304 E.02863
G1 X58.892 Y117.143 E.31859
G1 X59.265 Y116.771 E.01652
G1 X59.265 Y114.624 E.06732
G1 X59.684 Y114.973 E.0171
G1 X59.684 Y116.665 E.05305
G1 X60.103 Y116.665 E.01314
G1 X60.103 Y115.323 E.04208
G1 X60.522 Y115.672 E.0171
G1 X60.522 Y116.665 E.03113
G1 X60.941 Y116.665 E.01314
G1 X60.941 Y115.96 E.0221
M204 P1000
G1 E-2.24 F4200
;WIPE_START
G1 F7200
G1 X60.941 Y116.665 E-.39069
G1 X60.522 Y116.665 E-.2322
G1 X60.522 Y116.057 E-.33711
;WIPE_END
G1 Z.4 F720
G1 X63.036 Y154.202 F9000
G1 Z.2 F720
G1 E3.2 F2400
M204 P600
G1 F1200
G1 X63.017 Y151.477 E.08544
G1 X62.617 Y150.215 E.04151
G1 X62.617 Y154.904 E.14702
G1 X62.198 Y155.725 E.0289
G1 X62.198 Y149.394 E.1985
G1 X61.982 Y149.104 E.01134
G1 X61.779 Y149.104 E.00636
G1 X61.779 Y156.288 E.22525
