; generated by PrusaSlicer 2.7.3+MacOS-arm64 on 2024-05-25 at 14:34:17 UTC


;
;

;
;

;
;
; 

; external perimeters extrusion width = 0.45mm
; perimeters extrusion width = 0.45mm
; infill extrusion width = 0.45mm
; solid infill extrusion width = 0.45mm
; top infill extrusion width = 0.40mm
; first layer extrusion width = 0.42mm

M73 P0 R20
M201 X2500 Y2500 Z400 E5000 ; sets maximum accelerations, mm/sec^2
M203 X180 Y180 Z12 E80 ; sets maximum feedrates, mm / sec
M204 P2000 R1250 T2500 ; sets acceleration (P, T) and retract acceleration (R), mm/sec^2
M205 X8.00 Y8.00 Z2.00 E10.00 ; sets the jerk limits, mm/sec
M205 S0 T0 ; sets the minimum extruding and travel feed rate, mm/sec

; printing object cover_v1.0.stl id:0 copy 0
; stop printing object cover_v1.0.stl id:0 copy 0

;TYPE:Custom
M862.3 P "MINI" ; printer model check
G90 ; use absolute coordinates
M83 ; extruder relative mode
M104 S170 ; set extruder temp for bed leveling
M140 S60 ; set bed temp
M109 R170 ; wait for bed leveling temp
M190 S60 ; wait for bed temp
M204 T1250 ; set travel acceleration
G28 ; home all without mesh bed level
G29 ; mesh bed leveling 
M204 T2500 ; restore travel acceleration
M104 S215 ; set extruder temp
G92 E0
G1 Y-2 X179 F2400
G1 Z3 F720
M109 S215 ; wait for extruder temp

; intro line
G1 X170 F1000
G1 Z0.2 F720
G1 X110 E8 F900
G1 X40 E10 F700
G92 E0

M221 S95 ; set flow
G21 ; set units to millimeters
G90 ; use absolute coordinates
M83 ; use relative distances for extrusion
M900 K0.2 ; Filament gcode LA 1.5
; ; Filament gcode LA 1.0

M107
;LAYER_CHANGE
;Z:0.2
;HEIGHT:0.2
G1 E-3.2 F4200
M73 P1 R20
G1 Z.4 F720
G1 X53.164 Y29.934 F9000
G1 Z.2 F720
G1 E3.2 F2400
M204 P600
;TYPE:Skirt/Brim
;WIDTH:0.42
G1 F1200
G1 X53.77 Y29.083 E.03276
G1 X54.492 Y28.327 E.03278
G1 X55.599 Y27.499 E.04334
G1 X56.527 Y27.019 E.03276
G1 X57.515 Y26.677 E.03278
G1 X58.54 Y26.479 E.03273
G1 X59.414 Y26.422 E.02746
G1 X119.584 Y26.428 E1.88659
G1 X120.288 Y26.479 E.02213
G1 X121.314 Y26.677 E.03276
G1 X122.301 Y27.019 E.03275
G1 X123.23 Y27.499 E.03279
G1 X124.337 Y28.327 E.04334
G1 X125.058 Y29.083 E.03276
G1 X125.482 Y29.648 E.02215
G1 X126.003 Y30.554 E.03277
G1 X126.391 Y31.524 E.03276
G1 X126.682 Y32.836 E.04214
G1 X128.232 Y50.441 E.55413
G1 X128.221 Y50.959 E.01625
G1 X126.666 Y61.599 E.33715
G1 X126.391 Y62.774 E.03784
G1 X126.144 Y63.436 E.02215
G1 X125.665 Y64.365 E.03277
G1 X125.058 Y65.215 E.03275
G1 X124.337 Y65.971 E.03276
G1 X123.23 Y66.8 E.04336
G1 X122.301 Y67.279 E.03277
G1 X121.314 Y67.621 E.03275
G1 X120.288 Y67.82 E.03277
G1 X119.414 Y67.876 E.02746
G1 X59.414 Y67.876 E1.88126
G1 X58.54 Y67.82 E.02746
M73 P2 R20
G1 X57.515 Y67.621 E.03274
G1 X56.527 Y67.279 E.03278
G1 X55.599 Y66.8 E.03274
G1 X54.748 Y66.193 E.03277
G1 X53.993 Y65.472 E.03273
G1 X53.164 Y64.365 E.04336
G1 X52.825 Y63.745 E.02216
G1 X52.438 Y62.774 E.03277
G1 X52.147 Y61.462 E.04214
G1 X50.596 Y43.858 E.5541
G1 X50.608 Y43.339 E.01628
G1 X52.163 Y32.7 E.33712
G1 X52.438 Y31.524 E.03787
G1 X52.685 Y30.862 E.02215
G1 X53.136 Y29.987 E.03086
M204 P1000
G1 E-2.24 F4200
;WIPE_START
G1 F7200
G1 X53.164 Y29.934 E-.03322
G1 X53.77 Y29.083 E-.57895
G1 X54.203 Y28.629 E-.34783
;WIPE_END
G1 Z.4 F720
; printing object cover_v1.0.stl id:0 copy 0
G1 X55 Y43.535 F9000
G1 Z.2 F720
G1 E3.2 F2400
M204 P600
;TYPE:Perimeter
;WIDTH:0.457441
G1 F1200
G1 X55.037 Y43.533 E.00128
;WIDTH:0.419999
G1 X55.431 Y43.418 E.01287
G1 X55.589 Y43.227 E.00777
G1 X55.651 Y42.97 E.00829
G1 X55.651 Y33.777 E.28824
G1 X55.692 Y33.214 E.0177
G1 X55.806 Y32.69 E.01681
G1 X55.993 Y32.187 E.01683
G1 X56.251 Y31.716 E.01684
G1 X56.572 Y31.286 E.01682
G1 X56.952 Y30.907 E.01683
G1 X57.381 Y30.585 E.01682
G1 X57.852 Y30.328 E.01682
G1 X58.355 Y30.141 E.01683
G1 X58.879 Y30.027 E.01681
G1 X59.442 Y29.986 E.0177
G1 X119.385 Y29.996 E1.87947
G1 X119.95 Y30.027 E.01774
G1 X120.474 Y30.141 E.01681
G1 X120.977 Y30.328 E.01683
G1 X121.448 Y30.585 E.01682
G1 X121.877 Y30.907 E.01682
G1 X122.257 Y31.286 E.01683
G1 X122.578 Y31.716 E.01682
G1 X122.835 Y32.187 E.01682
G1 X123.023 Y32.69 E.01684
G1 X123.137 Y33.214 E.01681
G1 X123.177 Y33.777 E.0177
G1 X123.177 Y49.97 E.50772
G1 X123.204 Y50.141 E.00543
G1 X123.398 Y50.418 E.0106
;WIDTH:0.466529
G1 X123.455 Y50.464 E.00258
;WIDTH:0.513058
G1 X123.512 Y50.51 E.00286
;WIDTH:0.559588
G1 X123.569 Y50.557 E.00317
;WIDTH:0.606117
G1 X123.626 Y50.603 E.00343
;WIDTH:0.652646
G1 X123.683 Y50.649 E.00371
G1 X123.626 Y50.695 E.00371
;WIDTH:0.606117
G1 X123.569 Y50.742 E.00346
;WIDTH:0.559588
G1 X123.512 Y50.788 E.00315
;WIDTH:0.513058
G1 X123.455 Y50.834 E.00286
;WIDTH:0.466529
G1 X123.398 Y50.881 E.0026
;WIDTH:0.419999
G1 X123.239 Y51.071 E.00777
G1 X123.177 Y51.329 E.00832
G1 X123.177 Y60.521 E.28821
G1 X123.137 Y61.084 E.0177
G1 X123.023 Y61.609 E.01684
G1 X122.835 Y62.111 E.01681
G1 X122.578 Y62.582 E.01682
G1 X122.257 Y63.012 E.01682
G1 X121.877 Y63.391 E.01683
G1 X121.448 Y63.713 E.01682
G1 X120.977 Y63.97 E.01682
G1 X120.474 Y64.158 E.01684
G1 X119.95 Y64.272 E.01681
G1 X119.386 Y64.312 E.01773
G1 X59.442 Y64.312 E1.8795
G1 X58.879 Y64.272 E.0177
G1 X58.355 Y64.158 E.01681
G1 X57.852 Y63.97 E.01684
G1 X57.381 Y63.713 E.01682
G1 X56.952 Y63.391 E.01682
G1 X56.572 Y63.012 E.01683
G1 X56.251 Y62.582 E.01682
G1 X55.993 Y62.111 E.01684
G1 X55.806 Y61.609 E.0168
G1 X55.692 Y61.084 E.01684
G1 X55.651 Y60.521 E.0177
G1 X55.651 Y44.329 E.50769
G1 X55.625 Y44.157 E.00545
M73 P3 R20
G1 X55.431 Y43.881 E.01058
G1 X55.037 Y43.765 E.01288
;WIDTH:0.457441
G1 X54.974 Y43.761 E.00218
;WIDTH:0.494883
G1 X54.911 Y43.758 E.00237
;WIDTH:0.532324
G1 X54.848 Y43.754 E.00257
G1 X54.47 Y43.899 E.01648
G1 X54.288 Y43.826 E.00798
G1 X54.215 Y43.649 E.00779
G1 X54.288 Y43.473 E.00775
G1 X54.451 Y43.401 E.00725
G1 X54.848 Y43.544 E.01717
G1 X54.911 Y43.541 E.00257
;WIDTH:0.494883
G1 X54.94 Y43.539 E.00109
M204 P1000
G1 E-2.24 F4200
;WIPE_START
G1 F7200
G1 X55 Y43.535 E-.03332
G1 X55.037 Y43.533 E-.02053
G1 X55.431 Y43.418 E-.22745
G1 X55.589 Y43.227 E-.13737
G1 X55.651 Y42.97 E-.14651
G1 X55.651 Y42.258 E-.39482
;WIPE_END
G1 Z.4 F720
G1 X123.802 Y50.649 F9000
G1 Z.2 F720
G1 E3.2 F2400
M204 P600
;WIDTH:0.652646
G1 F1200
G1 X123.959 Y50.574 E.00882
;WIDTH:0.612539
G1 X124.116 Y50.498 E.00826
;WIDTH:0.572431
G1 X124.273 Y50.423 E.00766
;WIDTH:0.532323
G1 X124.429 Y50.408 E.00638
G1 X124.58 Y50.524 E.00775
G1 X124.61 Y50.681 E.0065
G1 X124.58 Y50.774 E.00398
G1 X124.429 Y50.89 E.00775
G1 X124.273 Y50.875 E.00638
;WIDTH:0.572431
G1 X124.116 Y50.8 E.00766
;WIDTH:0.612539
G1 X123.959 Y50.725 E.00824
;WIDTH:0.652646
G1 X123.856 Y50.675 E.0058
M204 P1000
G1 E-2.24 F4200
;WIPE_START
G1 F7200
G1 X123.802 Y50.649 E-.03321
G1 X123.959 Y50.574 E-.09642
G1 X124.116 Y50.498 E-.09666
G1 X124.273 Y50.423 E-.09642
G1 X124.429 Y50.408 E-.08685
G1 X124.58 Y50.524 E-.10552
G1 X124.61 Y50.681 E-.08858
G1 X124.58 Y50.774 E-.05415
G1 X124.429 Y50.89 E-.10552
G1 X124.273 Y50.875 E-.08685
G1 X124.116 Y50.8 E-.09642
G1 X124.094 Y50.79 E-.0134
;WIPE_END
G1 Z.4 F720
G1 X55.014 Y43.144 F9000
G1 Z.2 F720
G1 E3.2 F2400
M204 P600
;TYPE:External perimeter
;WIDTH:0.419999
G1 F1200
G1 X55.201 Y43.119 E.00592
G1 X55.274 Y42.97 E.0052
G1 X55.274 Y33.764 E.28865
G1 X55.318 Y33.16 E.01899
G1 X55.443 Y32.583 E.01851
G1 X55.649 Y32.03 E.0185
G1 X55.932 Y31.511 E.01853
G1 X56.286 Y31.039 E.0185
G1 X56.704 Y30.621 E.01853
G1 X57.177 Y30.267 E.01852
G1 X57.695 Y29.984 E.01851
G1 X58.248 Y29.778 E.0185
G1 X58.825 Y29.652 E.01852
G1 X59.429 Y29.609 E.01899
G1 X119.385 Y29.619 E1.87988
G1 X120.003 Y29.652 E.0194
M73 P3 R19
G1 X120.58 Y29.778 E.01852
G1 X121.134 Y29.984 E.01853
G1 X121.652 Y30.267 E.01851
G1 X122.125 Y30.621 E.01852
G1 X122.542 Y31.039 E.01851
G1 X122.896 Y31.511 E.0185
G1 X123.179 Y32.03 E.01853
G1 X123.386 Y32.583 E.01851
G1 X123.511 Y33.16 E.01851
G1 X123.554 Y33.764 E.01899
G1 X123.554 Y49.97 E.50813
G1 X123.575 Y50.056 E.00278
G1 X123.726 Y50.158 E.00571
G1 X124.209 Y49.981 E.01613
G1 X124.542 Y49.986 E.01044
G1 X124.85 Y50.164 E.01115
G1 X125.027 Y50.471 E.01111
G1 X125.039 Y50.738 E.00838
G1 X125.027 Y50.827 E.00282
G1 X124.85 Y51.135 E.01114
G1 X124.542 Y51.312 E.01114
G1 X124.288 Y51.327 E.00798
G1 X123.759 Y51.141 E.01758
G1 X123.628 Y51.179 E.00428
G1 X123.554 Y51.329 E.00524
G1 X123.554 Y60.535 E.28865
G1 X123.511 Y61.138 E.01895
G1 X123.386 Y61.715 E.01851
G1 X123.179 Y62.269 E.01854
G1 X122.896 Y62.787 E.01851
G1 X122.542 Y63.26 E.01852
G1 X122.125 Y63.677 E.01849
G1 X121.652 Y64.031 E.01852
G1 X121.134 Y64.314 E.01851
G1 X120.58 Y64.52 E.01853
G1 X120.003 Y64.646 E.01852
G1 X119.4 Y64.689 E.01895
G1 X59.429 Y64.689 E1.88035
G1 X58.825 Y64.646 E.01899
G1 X58.248 Y64.52 E.01852
G1 X57.695 Y64.314 E.0185
G1 X57.177 Y64.031 E.01851
G1 X56.704 Y63.677 E.01852
G1 X56.286 Y63.26 E.01851
G1 X55.932 Y62.787 E.01852
G1 X55.649 Y62.269 E.01851
G1 X55.443 Y61.715 E.01853
G1 X55.318 Y61.138 E.01851
G1 X55.274 Y60.535 E.01896
G1 X55.274 Y44.329 E.50813
G1 X55.201 Y44.179 E.00523
G1 X55.069 Y44.141 E.00431
G1 X54.62 Y44.317 E.01512
G1 X54.287 Y44.312 E.01044
G1 X53.979 Y44.135 E.01114
G1 X53.801 Y43.827 E.01115
G1 X53.801 Y43.471 E.01116
G1 X53.979 Y43.164 E.01113
G1 X54.287 Y42.986 E.01115
G1 X54.541 Y42.971 E.00798
G1 X54.957 Y43.123 E.01389
M204 P1000
G1 E-2.24 F4200
;WIPE_START
G1 F7200
M73 P4 R19
G1 X55.014 Y43.144 E-.03366
G1 X55.201 Y43.119 E-.10455
G1 X55.274 Y42.97 E-.09195
G1 X55.274 Y41.653 E-.72984
;WIPE_END
G1 Z.4 F720
G1 X121.051 Y30.562 F9000
G1 Z.2 F720
G1 E3.2 F2400
M204 P600
;TYPE:Solid infill
;WIDTH:0.421803
G1 F1200
G1 X122.004 Y31.514 E.04244
G1 X122.292 Y31.9 E.01517
G1 X122.526 Y32.328 E.01537
G1 X122.671 Y32.718 E.01311
G1 X120.445 Y30.492 E.09918
G1 X119.901 Y30.363 E.01761
G1 X119.772 Y30.354 E.00407
G1 X122.81 Y33.392 E.13535
G1 X122.838 Y33.956 E.01779
G1 X119.217 Y30.335 E.16133
G1 X118.681 Y30.335 E.01689
G1 X122.838 Y34.492 E.18521
G1 X122.838 Y35.028 E.01689
G1 X118.145 Y30.335 E.20909
G1 X117.609 Y30.335 E.01689
G1 X122.838 Y35.564 E.23297
G1 X122.838 Y36.1 E.01689
G1 X117.073 Y30.335 E.25685
G1 X116.537 Y30.335 E.01689
G1 X122.838 Y36.636 E.28073
G1 X122.838 Y37.171 E.01685
G1 X116.001 Y30.335 E.30459
G1 X115.465 Y30.335 E.01689
G1 X122.838 Y37.707 E.32847
G1 X122.838 Y38.243 E.01689
G1 X114.93 Y30.334 E.35235
G1 X114.394 Y30.334 E.01689
G1 X122.838 Y38.779 E.37623
G1 X122.838 Y39.315 E.01689
G1 X113.858 Y30.334 E.40011
G1 X113.322 Y30.334 E.01689
G1 X122.838 Y39.851 E.424
G1 X122.838 Y40.386 E.01685
G1 X112.786 Y30.334 E.44785
G1 X112.25 Y30.334 E.01689
G1 X122.838 Y40.922 E.47174
G1 X122.838 Y41.458 E.01689
G1 X111.714 Y30.334 E.49562
G1 X111.178 Y30.334 E.01689
G1 X122.838 Y41.994 E.5195
G1 X122.838 Y42.53 E.01689
G1 X110.642 Y30.334 E.54338
G1 X110.106 Y30.334 E.01689
G1 X122.838 Y43.066 E.56726
G1 X122.838 Y43.602 E.01689
M73 P5 R19
G1 X109.57 Y30.334 E.59114
G1 X109.035 Y30.333 E.01685
G1 X122.838 Y44.137 E.615
G1 X122.839 Y44.673 E.01689
G1 X108.499 Y30.333 E.6389
G1 X107.963 Y30.333 E.01689
G1 X122.839 Y45.209 E.66278
G1 X122.839 Y45.745 E.01689
G1 X107.427 Y30.333 E.68666
G1 X106.891 Y30.333 E.01689
G1 X122.839 Y46.281 E.71054
G1 X122.839 Y46.817 E.01689
G1 X106.355 Y30.333 E.73442
G1 X105.819 Y30.333 E.01689
G1 X122.839 Y47.353 E.7583
G1 X122.839 Y47.888 E.01685
G1 X105.283 Y30.333 E.78216
G1 X104.747 Y30.333 E.01689
G1 X122.839 Y48.424 E.80604
G1 X122.839 Y48.96 E.01689
G1 X104.211 Y30.333 E.82992
G1 X103.675 Y30.333 E.01689
M73 P6 R19
G1 X122.839 Y49.496 E.85381
G1 X122.841 Y50.034 E.01695
G1 X103.14 Y30.333 E.87775
G1 X102.604 Y30.332 E.01689
G1 X123.048 Y50.777 E.91088
G1 X122.941 Y50.907 E.0053
G1 X122.865 Y51.13 E.00742
G1 X102.068 Y30.332 E.92661
G1 X101.532 Y30.332 E.01689
G1 X122.84 Y51.64 E.94935
G1 X122.84 Y52.176 E.01689
G1 X100.996 Y30.332 E.97323
G1 X100.46 Y30.332 E.01689
G1 X122.84 Y52.712 E.99711
G1 X122.839 Y53.247 E.01685
G1 X99.924 Y30.332 E1.02095
G1 X99.388 Y30.332 E.01689
M73 P7 R19
G1 X122.839 Y53.783 E1.04483
G1 X122.839 Y54.319 E.01689
G1 X98.852 Y30.332 E1.06871
G1 X98.316 Y30.332 E.01689
G1 X122.839 Y54.855 E1.09259
G1 X122.839 Y55.39 E.01685
G1 X97.781 Y30.332 E1.11643
G1 X97.245 Y30.332 E.01689
G1 X122.839 Y55.926 E1.14031
G1 X122.839 Y56.462 E.01689
G1 X96.709 Y30.332 E1.16419
G1 X96.173 Y30.331 E.01689
G1 X122.839 Y56.997 E1.18807
G1 X122.839 Y57.533 E.01689
M73 P8 R19
G1 X95.637 Y30.331 E1.21195
G1 X95.101 Y30.331 E.01689
M73 P8 R18
G1 X122.838 Y58.069 E1.23581
G1 X122.838 Y58.604 E.01685
G1 X94.565 Y30.331 E1.25967
G1 X94.029 Y30.331 E.01689
G1 X122.838 Y59.14 E1.28355
G1 X122.838 Y59.676 E.01689
G1 X93.493 Y30.331 E1.30743
G1 X92.957 Y30.331 E.01689
G1 X122.838 Y60.212 E1.33131
G1 X122.822 Y60.731 E.01636
M73 P9 R18
G1 X92.421 Y30.331 E1.35446
G1 X91.886 Y30.331 E.01685
G1 X122.763 Y61.208 E1.37569
G1 X122.697 Y61.513 E.00983
G1 X122.652 Y61.633 E.00404
G1 X91.35 Y30.331 E1.39462
G1 X90.814 Y30.331 E.01689
G1 X122.5 Y62.017 E1.41173
G1 X122.311 Y62.364 E.01245
G1 X90.278 Y30.331 E1.42719
G1 X89.742 Y30.33 E.01689
G1 X122.086 Y62.674 E1.44105
G1 X122 Y62.789 E.00452
M73 P10 R18
G1 X121.832 Y62.957 E.00749
G1 X89.206 Y30.33 E1.45363
G1 X88.67 Y30.33 E.01689
G1 X121.551 Y63.212 E1.46499
G1 X121.242 Y63.438 E.01206
G1 X88.134 Y30.33 E1.47509
G1 X87.598 Y30.33 E.01689
G1 X120.896 Y63.628 E1.48355
G1 X120.835 Y63.661 E.00218
G1 X120.513 Y63.781 E.01083
G1 X87.062 Y30.33 E1.49037
G1 X86.526 Y30.33 E.01689
M73 P11 R18
G1 X120.09 Y63.894 E1.4954
G1 X119.901 Y63.935 E.00609
G1 X119.616 Y63.955 E.009
G1 X85.991 Y30.33 E1.49812
G1 X85.455 Y30.33 E.01689
G1 X119.098 Y63.973 E1.49892
G1 X118.562 Y63.973 E.01689
G1 X84.919 Y30.33 E1.49892
G1 X84.383 Y30.33 E.01689
G1 X118.026 Y63.973 E1.49892
G1 X117.49 Y63.973 E.01689
M73 P12 R18
G1 X83.847 Y30.329 E1.49894
G1 X83.311 Y30.329 E.01689
G1 X116.954 Y63.973 E1.49894
G1 X116.419 Y63.973 E.01685
G1 X82.775 Y30.329 E1.49897
G1 X82.239 Y30.329 E.01689
G1 X115.883 Y63.973 E1.49897
G1 X115.347 Y63.973 E.01689
G1 X81.703 Y30.329 E1.49897
G1 X81.167 Y30.329 E.01689
M73 P13 R17
G1 X114.811 Y63.973 E1.49897
G1 X114.275 Y63.973 E.01689
G1 X80.631 Y30.329 E1.49897
G1 X80.096 Y30.329 E.01685
G1 X113.739 Y63.973 E1.49894
G1 X113.204 Y63.973 E.01685
G1 X79.56 Y30.329 E1.49897
G1 X79.024 Y30.329 E.01689
G1 X112.668 Y63.973 E1.49897
G1 X112.132 Y63.973 E.01689
M73 P14 R17
G1 X78.488 Y30.329 E1.49897
G1 X77.952 Y30.329 E.01689
G1 X111.596 Y63.973 E1.49897
G1 X111.06 Y63.973 E.01689
G1 X77.416 Y30.328 E1.49899
G1 X76.88 Y30.328 E.01689
G1 X110.524 Y63.973 E1.49899
G1 X109.989 Y63.973 E.01685
G1 X76.344 Y30.328 E1.49901
G1 X75.808 Y30.328 E.01689
M73 P15 R17
G1 X109.453 Y63.973 E1.49901
G1 X108.917 Y63.973 E.01689
G1 X75.272 Y30.328 E1.49901
G1 X74.737 Y30.328 E.01685
G1 X108.381 Y63.973 E1.49899
G1 X107.845 Y63.973 E.01689
G1 X74.201 Y30.328 E1.49899
G1 X73.665 Y30.328 E.01689
G1 X107.31 Y63.973 E1.49901
G1 X106.774 Y63.973 E.01689
M73 P16 R17
G1 X73.129 Y30.328 E1.49901
G1 X72.593 Y30.328 E.01689
G1 X106.238 Y63.973 E1.49901
G1 X105.702 Y63.973 E.01689
G1 X72.057 Y30.328 E1.49901
G1 X71.521 Y30.328 E.01689
G1 X105.166 Y63.973 E1.49901
G1 X104.63 Y63.973 E.01689
G1 X70.985 Y30.327 E1.49903
G1 X70.449 Y30.327 E.01689
G1 X104.095 Y63.973 E1.49906
G1 X103.559 Y63.973 E.01689
M73 P17 R17
G1 X69.913 Y30.327 E1.49906
G1 X69.377 Y30.327 E.01689
G1 X103.023 Y63.973 E1.49906
G1 X102.487 Y63.973 E.01689
G1 X68.842 Y30.327 E1.49903
G1 X68.306 Y30.327 E.01689
G1 X101.951 Y63.973 E1.49903
G1 X101.416 Y63.973 E.01685
M73 P17 R16
G1 X67.77 Y30.327 E1.49906
G1 X67.234 Y30.327 E.01689
M73 P18 R16
G1 X100.88 Y63.973 E1.49906
G1 X100.344 Y63.973 E.01689
G1 X66.698 Y30.327 E1.49906
G1 X66.162 Y30.327 E.01689
G1 X99.808 Y63.973 E1.49906
G1 X99.272 Y63.973 E.01689
G1 X65.626 Y30.327 E1.49906
G1 X65.09 Y30.327 E.01689
G1 X98.736 Y63.973 E1.49906
G1 X98.201 Y63.973 E.01685
M73 P19 R16
G1 X64.554 Y30.326 E1.4991
G1 X64.018 Y30.326 E.01689
G1 X97.665 Y63.973 E1.4991
G1 X97.129 Y63.973 E.01689
G1 X63.482 Y30.326 E1.4991
G1 X62.947 Y30.326 E.01685
G1 X96.593 Y63.973 E1.49908
G1 X96.057 Y63.973 E.01689
G1 X62.411 Y30.326 E1.49908
G1 X61.875 Y30.326 E.01689
