; generated by PrusaSlicer 2.7.3+MacOS-arm64 on 2024-05-25 at 14:36:00 UTC


;
;

;
;

;
;
; 

; external perimeters extrusion width = 0.45mm
; perimeters extrusion width = 0.45mm
; infill extrusion width = 0.45mm
; solid infill extrusion width = 0.45mm
; top infill extrusion width = 0.40mm
; first layer extrusion width = 0.42mm

M73 P0 R59
M201 X2500 Y2500 Z400 E5000 ; sets maximum accelerations, mm/sec^2
M203 X180 Y180 Z12 E80 ; sets maximum feedrates, mm / sec
M204 P2000 R1250 T2500 ; sets acceleration (P, T) and retract acceleration (R), mm/sec^2
M205 X8.00 Y8.00 Z2.00 E10.00 ; sets the jerk limits, mm/sec
M205 S0 T0 ; sets the minimum extruding and travel feed rate, mm/sec

; printing object lid_v1.0.stl id:0 copy 0
; stop printing object lid_v1.0.stl id:0 copy 0

;TYPE:Custom
M862.3 P "MINI" ; printer model check
G90 ; use absolute coordinates
M83 ; extruder relative mode
M104 S170 ; set extruder temp for bed leveling
M140 S60 ; set bed temp
M109 R170 ; wait for bed leveling temp
M190 S60 ; wait for bed temp
M204 T1250 ; set travel acceleration
G28 ; home all without mesh bed level
G29 ; mesh bed leveling 
M204 T2500 ; restore travel acceleration
M104 S215 ; set extruder temp
G92 E0
G1 Y-2 X179 F2400
G1 Z3 F720
M109 S215 ; wait for extruder temp

; intro line
G1 X170 F1000
G1 Z0.2 F720
G1 X110 E8 F900
G1 X40 E10 F700
G92 E0

M221 S95 ; set flow
G21 ; set units to millimeters
G90 ; use absolute coordinates
M83 ; use relative distances for extrusion
M900 K0.2 ; Filament gcode LA 1.5
; ; Filament gcode LA 1.0

M107
;LAYER_CHANGE
;Z:0.2
;HEIGHT:0.2
G1 E-3.2 F4200
G1 Z.4 F720
G1 X35.967 Y83.789 F9000
G1 Z.2 F720
G1 E3.2 F2400
M204 P600
;TYPE:Skirt/Brim
;WIDTH:0.42
G1 F1200
G1 X36.837 Y83.429 E.02952
G1 X38.107 Y83.094 E.04118
G1 X39.601 Y82.954 E.04705
G1 X145.587 Y82.961 E3.32312
G1 X146.993 Y83.117 E.04435
G1 X148.164 Y83.429 E.038
G1 X149.034 Y83.789 E.02952
G1 X150.471 Y84.669 E.05283
G1 X151.451 Y85.545 E.04121
G1 X152.281 Y86.562 E.04116
G1 X152.943 Y87.698 E.04123
G1 X153.418 Y88.922 E.04117
G1 X153.696 Y90.206 E.04119
G1 X153.77 Y91.145 E.02953
G1 X153.778 Y129.131 E1.19102
G1 X153.696 Y130.256 E.03537
G1 X153.303 Y131.895 E.05285
G1 X152.773 Y133.097 E.04119
G1 X152.281 Y133.9 E.02953
G1 X151.187 Y135.181 E.05282
G1 X150.169 Y136.012 E.0412
G1 X149.034 Y136.673 E.04118
G1 X148.164 Y137.034 E.02953
G1 X146.894 Y137.369 E.04118
G1 X145.401 Y137.508 E.04701
G1 X39.601 Y137.508 E3.31728
G1 X38.475 Y137.427 E.0354
M73 P0 R58
G1 X37.192 Y137.149 E.04116
G1 X35.967 Y136.673 E.04121
G1 X34.832 Y136.012 E.04118
G1 X33.55 Y134.918 E.05284
G1 X32.72 Y133.9 E.04118
G1 X32.058 Y132.765 E.0412
G1 X31.698 Y131.895 E.02952
G1 X31.363 Y130.625 E.04118
G1 X31.224 Y129.131 E.04705
G1 X31.224 Y91.331 E1.18519
G1 X31.305 Y90.206 E.03536
G1 X31.698 Y88.567 E.05285
G1 X32.228 Y87.365 E.04119
G1 X32.72 Y86.562 E.02953
G1 X33.814 Y85.281 E.05282
G1 X34.832 Y84.45 E.0412
G1 X35.915 Y83.819 E.0393
M204 P1000
G1 E-2.24 F4200
;WIPE_START
G1 F7200
G1 X35.967 Y83.789 E-.03327
G1 X36.837 Y83.429 E-.52177
G1 X37.544 Y83.242 E-.40496
;WIPE_END
G1 Z.4 F720
; printing object lid_v1.0.stl id:0 copy 0
G1 X58.286 Y109.291 F9000
G1 Z.2 F720
G1 E3.2 F2400
M204 P600
;TYPE:External perimeter
;WIDTH:0.420014
G1 F1200
G1 X58.528 Y109.195 E.00816
M204 P1000
G1 X58.528 Y109.195 F9000
G1 X59.664 Y109.65
M204 P600
;WIDTH:0.420032
G1 F1200
G1 X59.511 Y109.458 E.0077
M204 P1000
G1 X59.511 Y109.458 F9000
G1 X59.626 Y110.841
M204 P600
;WIDTH:0.415732
G1 F1200
G1 X59.71 Y110.724 E.00446
M204 P1000
G1 E-2.24 F4200
;WIPE_START
G1 F7200
G1 X59.626 Y110.841 E-.07982
;WIPE_END
G1 E-.88018 F4200
G1 Z.4 F720
G1 X57.739 Y110.349 F9000
G1 Z.2 F720
G1 E3.2 F2400
M204 P600
;WIDTH:0.415004
G1 F1200
G1 X57.724 Y110.2 E.00463
M204 P1000
G1 E-2.24 F4200
;WIPE_START
G1 F7200
G1 X57.739 Y110.349 E-.08299
;WIPE_END
G1 E-.87701 F4200
G1 Z.4 F720
G1 X53.945 Y110.341 F9000
G1 Z.2 F720
G1 E3.2 F2400
M204 P600
;TYPE:Perimeter
;WIDTH:0.419999
G1 F1200
G1 X53.87 Y110.384 E.00271
G1 X53.66 Y110.593 E.00929
;WIDTH:0.46555
G1 X53.568 Y110.767 E.00692
;WIDTH:0.5111
G1 X53.476 Y110.941 E.00766
;WIDTH:0.55665
G1 X53.384 Y111.115 E.00841
G1 X53.304 Y110.952 E.00776
;WIDTH:0.5111
G1 X53.223 Y110.79 E.00705
;WIDTH:0.46555
G1 X53.142 Y110.628 E.00636
;WIDTH:0.419999
G1 X52.827 Y110.334 E.01351
G1 X53.067 Y110.147 E.00954
G1 X53.232 Y109.872 E.01006
;WIDTH:0.463682
G1 X53.283 Y109.76 E.00431
;WIDTH:0.507365
G1 X53.335 Y109.648 E.00477
;WIDTH:0.551048
G1 X53.386 Y109.537 E.00516
G1 X53.393 Y109.563 E.00114
;WIDTH:0.54194
G1 X53.471 Y109.726 E.0075
;WIDTH:0.501293
G1 X53.549 Y109.888 E.00685
;WIDTH:0.460646
G1 X53.627 Y110.05 E.00625
;WIDTH:0.419999
G1 X53.9 Y110.301 E.01163
M204 P1000
G1 E-2.24 F4200
;WIPE_START
G1 F7200
G1 X53.945 Y110.341 E-.03337
G1 X53.87 Y110.384 E-.04791
G1 X53.66 Y110.593 E-.16419
G1 X53.568 Y110.767 E-.10907
G1 X53.476 Y110.941 E-.10907
G1 X53.384 Y111.115 E-.10907
G1 X53.304 Y110.952 E-.10062
G1 X53.223 Y110.79 E-.10037
G1 X53.142 Y110.628 E-.10037
G1 X53.029 Y110.522 E-.08596
;WIPE_END
G1 Z.4 F720
G1 X53.396 Y103.614 F9000
G1 Z.2 F720
G1 E3.2 F2400
M204 P600
G1 F1200
G1 X53.116 Y103.221 E.01513
G1 X52.659 Y102.828 E.0189
G1 X52.115 Y102.567 E.01892
G1 X51.826 Y102.498 E.00932
G1 X50.797 Y102.401 E.03241
G1 X50.464 Y102.284 E.01107
G1 X50.165 Y102.095 E.01109
G1 X49.915 Y101.845 E.01109
M73 P1 R58
G1 X49.728 Y101.545 E.01108
G1 X49.612 Y101.212 E.01106
G1 X49.566 Y100.795 E.01315
G1 X49.573 Y96.524 E.13391
G1 X49.621 Y96.009 E.01622
G1 X49.739 Y95.676 E.01108
G1 X49.927 Y95.377 E.01107
G1 X50.178 Y95.127 E.01111
G1 X50.477 Y94.94 E.01106
G1 X50.811 Y94.824 E.01109
G1 X51.228 Y94.777 E.01316
G1 X55.499 Y94.785 E.13391
G1 X56.014 Y94.833 E.01622
G1 X56.347 Y94.95 E.01107
G1 X56.646 Y95.139 E.01109
G1 X56.895 Y95.389 E.01106
G1 X57.083 Y95.689 E.0111
G1 X57.199 Y96.023 E.01109
G1 X57.245 Y96.439 E.01312
G1 X57.237 Y100.71 E.13391
G1 X57.19 Y101.225 E.01621
G1 X57.072 Y101.559 E.01111
G1 X56.884 Y101.858 E.01107
G1 X56.633 Y102.107 E.01109
G1 X56.334 Y102.295 E.01107
G1 X56 Y102.411 E.01109
G1 X54.718 Y102.558 E.04046
G1 X54.264 Y102.749 E.01544
G1 X53.771 Y103.118 E.01931
G1 X53.433 Y103.567 E.01762
M204 P1000
G1 X53.433 Y103.567 F9000
G1 X53.394 Y104.669
M204 P600
;WIDTH:0.556688
G1 F1200
G1 X53.344 Y104.511 E.00708
;WIDTH:0.511125
G1 X53.294 Y104.352 E.00649
;WIDTH:0.465562
G1 X53.244 Y104.194 E.00582
;WIDTH:0.419999
G1 X53.034 Y103.735 E.01583
G1 X52.713 Y103.346 E.01581
G1 X52.301 Y103.053 E.01585
G1 X51.797 Y102.874 E.01677
G1 X50.712 Y102.771 E.03417
G1 X50.299 Y102.626 E.01372
G1 X49.928 Y102.392 E.01375
G1 X49.618 Y102.081 E.01377
G1 X49.386 Y101.709 E.01375
G1 X49.242 Y101.295 E.01374
G1 X49.188 Y100.815 E.01514
G1 X49.196 Y96.523 E.13457
G1 X49.251 Y95.924 E.01886
G1 X49.397 Y95.51 E.01376
G1 X49.631 Y95.14 E.01373
G1 X49.941 Y94.83 E.01375
G1 X50.313 Y94.597 E.01376
G1 X50.727 Y94.453 E.01374
G1 X51.207 Y94.4 E.01514
G1 X55.499 Y94.408 E.13457
G1 X56.099 Y94.463 E.01889
G1 X56.512 Y94.609 E.01373
G1 X56.883 Y94.843 E.01375
G1 X57.192 Y95.153 E.01372
G1 X57.425 Y95.525 E.01376
G1 X57.569 Y95.939 E.01374
G1 X57.622 Y96.419 E.01514
G1 X57.615 Y100.711 E.13457
G1 X57.559 Y101.31 E.01886
G1 X57.414 Y101.724 E.01375
G1 X57.18 Y102.095 E.01375
G1 X56.869 Y102.404 E.01375
G1 X56.498 Y102.637 E.01374
G1 X56.084 Y102.781 E.01374
G1 X54.825 Y102.921 E.03972
G1 X54.366 Y103.131 E.01583
G1 X53.976 Y103.452 E.01584
G1 X53.684 Y103.864 E.01583
;WIDTH:0.465562
G1 X53.587 Y104.132 E.01002
;WIDTH:0.511125
G1 X53.491 Y104.401 E.01112
;WIDTH:0.556688
G1 X53.415 Y104.612 E.00958
M204 P1000
G1 E-2.24 F4200
;WIPE_START
G1 F7200
G1 X53.394 Y104.669 E-.03366
G1 X53.344 Y104.511 E-.09184
G1 X53.294 Y104.352 E-.09237
G1 X53.244 Y104.194 E-.09184
G1 X53.034 Y103.735 E-.27972
G1 X52.713 Y103.346 E-.27949
G1 X52.579 Y103.251 E-.09108
;WIPE_END
G1 Z.4 F720
G1 X55.976 Y112.156 F9000
G1 Z.2 F720
G1 E3.2 F2400
M204 P600
;WIDTH:0.38589
G1 F1200
G1 X55.981 Y112.713 E.01589
;WIDTH:0.419999
G1 X55.998 Y115.317 E.08165
G1 X56.498 Y115.366 E.01575
G1 X57.113 Y115.534 E.01999
G1 X57.503 Y115.671 E.01296
G1 X58.105 Y115.993 E.02141
G1 X58.585 Y116.363 E.019
G1 X58.916 Y116.659 E.01392
G1 X59.349 Y117.186 E.02139
G1 X59.718 Y117.837 E.02346
G1 X59.915 Y118.346 E.01711
G1 X60.068 Y118.871 E.01715
G1 X60.126 Y119.434 E.01775
G1 X60.148 Y120.687 E.03929
G1 X60.148 Y124.414 E.11686
G1 X60.078 Y125.174 E.02393
G1 X59.844 Y126.008 E.02716
G1 X59.452 Y126.781 E.02718
G1 X58.916 Y127.462 E.02717
G1 X58.258 Y128.025 E.02715
G1 X57.503 Y128.449 E.02715
G1 X56.68 Y128.718 E.02715
G1 X55.738 Y128.824 E.02972
G1 X51.03 Y128.824 E.14762
G1 X50.27 Y128.754 E.02393
G1 X49.436 Y128.52 E.02716
G1 X48.664 Y128.128 E.02715
G1 X47.983 Y127.592 E.02717
G1 X47.419 Y126.934 E.02717
G1 X47.126 Y126.424 E.01844
G1 X46.924 Y126.008 E.0145
G1 X46.726 Y125.356 E.02136
G1 X46.63 Y124.564 E.02501
G1 X46.62 Y119.706 E.15232
G1 X46.69 Y118.946 E.02393
G1 X46.924 Y118.112 E.02716
G1 X47.317 Y117.34 E.02716
G1 X47.852 Y116.659 E.02715
G1 X48.416 Y116.172 E.02336
G1 X48.664 Y115.993 E.00959
G1 X49.265 Y115.671 E.02138
G1 X50.089 Y115.402 E.02718
G1 X50.77 Y115.332 E.02146
G1 X50.77 Y111.196 E.12968
G1 X50.866 Y110.722 E.01516
G1 X51.087 Y110.337 E.01392
G1 X50.866 Y109.951 E.01395
G1 X50.772 Y109.477 E.01515
G1 X50.779 Y105.355 E.12924
G1 X50.279 Y105.305 E.01576
G1 X49.446 Y105.07 E.02714
G1 X48.674 Y104.676 E.02718
G1 X47.994 Y104.139 E.02717
G1 X47.432 Y103.481 E.02713
G1 X47.009 Y102.725 E.02716
G1 X46.742 Y101.901 E.02716
G1 X46.637 Y100.959 E.02972
G1 X46.646 Y96.251 E.14762
G1 X46.717 Y95.491 E.02393
G1 X46.855 Y94.978 E.01666
G1 X47.029 Y94.477 E.01663
G1 X47.378 Y93.845 E.02264
G1 X47.476 Y93.7 E.00549
G1 X47.883 Y93.206 E.02007
G1 X48.542 Y92.643 E.02718
G1 X49.298 Y92.221 E.02715
G1 X50.122 Y91.953 E.02717
G1 X51.032 Y91.852 E.02871
G1 X55.771 Y91.857 E.14859
G1 X56.532 Y91.929 E.02397
G1 X57.365 Y92.165 E.02715
G1 X58.137 Y92.558 E.02716
G1 X58.817 Y93.095 E.02717
G1 X59.379 Y93.754 E.02716
G1 X59.802 Y94.51 E.02716
G1 X60.069 Y95.334 E.02716
G1 X60.169 Y96.183 E.0268
G1 X60.165 Y100.983 E.1505
G1 X60.094 Y101.743 E.02393
G1 X59.934 Y102.329 E.01905
G1 X59.756 Y102.804 E.0159
G1 X59.433 Y103.39 E.02098
G1 X59.103 Y103.816 E.0169
G1 X58.797 Y104.159 E.01441
G1 X58.269 Y104.591 E.02139
G1 X57.826 Y104.847 E.01604
G1 X57.356 Y105.08 E.01645
G1 X56.698 Y105.278 E.02154
G1 X56.007 Y105.35 E.02178
G1 X56.004 Y107.384 E.06377
;WIDTH:0.44915
G1 X56.018 Y107.667 E.00957
;WIDTH:0.4783
G1 X56.032 Y107.95 E.01026
G1 X56.119 Y107.685 E.0101
;WIDTH:0.44915
G1 X56.206 Y107.419 E.00945
;WIDTH:0.419999
G1 X56.507 Y106.946 E.01758
G1 X56.904 Y106.593 E.01666
G1 X57.381 Y106.359 E.01666
G1 X57.892 Y106.261 E.01631
G1 X58.404 Y106.298 E.0161
G1 X58.693 Y106.38 E.00942
G1 X59.141 Y106.618 E.01591
G1 X59.466 Y106.921 E.01393
G1 X59.599 Y107.12 E.0075
G1 X59.927 Y106.979 E.01119
G1 X60.342 Y106.902 E.01323
G1 X60.854 Y106.938 E.01609
G1 X61.401 Y107.145 E.01834
G1 X61.835 Y107.474 E.01708
G1 X62.16 Y107.901 E.01683
G1 X62.355 Y108.388 E.01645
G1 X62.416 Y108.911 E.01651
G1 X62.318 Y109.465 E.01764
G1 X62.094 Y109.916 E.01579
G1 X61.987 Y110.045 E.00525
G1 X62.284 Y110.411 E.01478
G1 X62.491 Y110.884 E.01619
G1 X62.555 Y111.419 E.01689
G1 X62.47 Y111.952 E.01692
G1 X62.256 Y112.424 E.01625
G1 X61.935 Y112.82 E.01598
G1 X61.452 Y113.155 E.01843
G1 X60.923 Y113.329 E.01746
G1 X60.454 Y113.348 E.01472
G1 X59.944 Y113.228 E.01643
G1 X59.667 Y113.643 E.01564
G1 X59.237 Y114 E.01752
G1 X58.717 Y114.21 E.01758
G1 X58.121 Y114.262 E.01876
G1 X57.605 Y114.162 E.01648
G1 X57.125 Y113.925 E.01678
G1 X56.73 Y113.573 E.01659
G1 X56.425 Y113.082 E.01812
G1 X56.312 Y112.555 E.0169
;WIDTH:0.377961
G1 X56.307 Y112.242 E.00872
;WIDTH:0.37489
G1 X56.034 Y112.171 E.00779
M204 P1000
G1 X56.034 Y112.171 F9000
G1 X55.621 Y111.568
M204 P600
;WIDTH:0.419999
G1 F1200
G1 X55.621 Y115.67 E.12862
G1 X56.461 Y115.742 E.02643
G1 X57.004 Y115.895 E.01769
G1 X57.466 Y116.079 E.01559
G1 X57.927 Y116.325 E.01638
G1 X58.625 Y116.898 E.02832
G1 X59.058 Y117.425 E.02139
G1 X59.385 Y118.015 E.02115
G1 X59.554 Y118.455 E.01478
G1 X59.696 Y118.938 E.01579
G1 X59.751 Y119.471 E.0168
G1 X59.771 Y120.687 E.03813
G1 X59.771 Y124.414 E.11686
G1 X59.703 Y125.137 E.02277
G1 X59.483 Y125.899 E.02487
G1 X59.119 Y126.603 E.02485
G1 X58.625 Y127.222 E.02483
G1 X58.019 Y127.733 E.02485
G1 X57.325 Y128.117 E.02487
G1 X56.57 Y128.357 E.02484
G1 X55.738 Y128.447 E.02624
G1 X51.03 Y128.447 E.14762
G1 X50.307 Y128.379 E.02277
G1 X49.545 Y128.159 E.02487
G1 X48.841 Y127.795 E.02485
G1 X48.222 Y127.301 E.02483
G1 X47.711 Y126.695 E.02485
G1 X47.458 Y126.246 E.01616
G1 X47.285 Y125.899 E.01216
G1 X47.087 Y125.246 E.02139
G1 X47.006 Y124.527 E.02269
G1 X46.997 Y119.706 E.15116
G1 X47.066 Y118.983 E.02277
G1 X47.285 Y118.221 E.02486
G1 X47.649 Y117.517 E.02485
G1 X48.144 Y116.898 E.02485
G1 X48.841 Y116.325 E.02829
G1 X49.443 Y116.004 E.02139
G1 X50.198 Y115.763 E.02485
G1 X51.147 Y115.685 E.02986
G1 X51.147 Y111.196 E.14075
G1 X51.255 Y110.749 E.01442
G1 X51.548 Y110.4 E.01429
G1 X51.656 Y110.337 E.00392
G1 X51.375 Y110.1 E.01153
G1 X51.23 Y109.851 E.00903
G1 X51.149 Y109.478 E.01197
G1 X51.157 Y105.009 E.14012
G1 X50.317 Y104.93 E.02645
G1 X49.556 Y104.709 E.02485
G1 X48.852 Y104.344 E.02486
G1 X48.234 Y103.848 E.02485
G1 X47.724 Y103.242 E.02483
G1 X47.342 Y102.547 E.02487
G1 X47.103 Y101.792 E.02483
G1 X47.014 Y100.959 E.02627
G1 X47.023 Y96.252 E.14758
G1 X47.092 Y95.528 E.0228
G1 X47.313 Y94.767 E.02485
G1 X47.767 Y93.94 E.02958
G1 X48.174 Y93.445 E.02009
G1 X48.781 Y92.935 E.02486
G1 X49.475 Y92.554 E.02482
G1 X50.231 Y92.314 E.02487
G1 X51.032 Y92.229 E.02526
G1 X55.77 Y92.234 E.14856
G1 X56.494 Y92.304 E.02281
G1 X57.255 Y92.525 E.02485
G1 X57.959 Y92.89 E.02486
G1 X58.577 Y93.386 E.02485
G1 X59.087 Y93.992 E.02483
G1 X59.469 Y94.687 E.02487
G1 X59.708 Y95.443 E.02486
G1 X59.794 Y96.219 E.02448
G1 X59.788 Y100.983 E.14937
G1 X59.718 Y101.706 E.02278
G1 X59.573 Y102.219 E.01671
G1 X59.426 Y102.622 E.01345
G1 X59.103 Y103.208 E.02098
G1 X58.637 Y103.789 E.02335
G1 X58.21 Y104.151 E.01755
G1 X57.925 Y104.367 E.01121
G1 X57.336 Y104.681 E.02093
G1 X56.858 Y104.836 E.01576
G1 X56.453 Y104.943 E.01313
G1 X55.631 Y104.996 E.02583
G1 X55.625 Y109.116 E.12918
G1 X56.01 Y108.898 E.01387
G1 X56.465 Y108.803 E.01457
G1 X56.586 Y108.812 E.0038
G1 X56.433 Y108.366 E.01478
G1 X56.438 Y107.969 E.01245
G1 X56.562 Y107.545 E.01385
G1 X56.809 Y107.171 E.01405
G1 X57.194 Y106.851 E.0157
G1 X57.662 Y106.67 E.01573
G1 X58.051 Y106.637 E.01224
G1 X58.535 Y106.722 E.01541
G1 X58.948 Y106.951 E.01481
G1 X59.245 Y107.259 E.01342
G1 X59.442 Y107.676 E.01446
G1 X59.944 Y107.366 E.0185
G1 X60.411 Y107.28 E.01489
G1 X60.892 Y107.339 E.01519
G1 X61.284 Y107.518 E.01351
G1 X61.614 Y107.793 E.01347
G1 X61.86 Y108.147 E.01352
G1 X62.003 Y108.553 E.0135
G1 X62.03 Y109.002 E.0141
G1 X61.925 Y109.43 E.01382
G1 X61.674 Y109.835 E.01494
G1 X61.384 Y110.077 E.01184
G1 X61.67 Y110.259 E.01063
G1 X61.949 Y110.582 E.01338
G1 X62.129 Y110.997 E.01418
G1 X62.176 Y111.428 E.01359
G1 X62.104 Y111.854 E.01355
G1 X61.923 Y112.242 E.01342
G1 X61.644 Y112.572 E.01355
G1 X61.289 Y112.814 E.01347
G1 X60.858 Y112.956 E.01423
G1 X60.419 Y112.962 E.01377
G1 X59.971 Y112.826 E.01468
G1 X59.721 Y112.691 E.00891
G1 X59.608 Y113.062 E.01216
G1 X59.36 Y113.415 E.01353
G1 X58.984 Y113.704 E.01487
G1 X58.601 Y113.848 E.01283
G1 X58.17 Y113.888 E.01357
G1 X57.749 Y113.813 E.01341
G1 X57.358 Y113.628 E.01356
G1 X57.033 Y113.348 E.01345
G1 X56.783 Y112.964 E.01437
G1 X56.668 Y112.543 E.01368
G1 X56.687 Y112.073 E.01475
G1 X56.752 Y111.88 E.00639
G1 X56.275 Y111.879 E.01496
G1 X55.844 Y111.718 E.01443
G1 X55.671 Y111.602 E.00653
M204 P1000
G1 E-2.24 F4200
;WIPE_START
G1 F7200
G1 X55.621 Y111.568 E-.03351
G1 X55.621 Y113.24 E-.92649
;WIPE_END
G1 Z.4 F720
G1 X55.076 Y109.895 F9000
G1 Z.2 F720
G1 E3.2 F2400
M204 P600
;TYPE:External perimeter
;WIDTH:0.518754
G1 F1200
G1 X55.072 Y109.901 E.00029
;WIDTH:0.563023
G1 X54.995 Y110.061 E.00768
