; generated by PrusaSlicer 2.7.3+MacOS-arm64 on 2024-06-30 at 12:40:17 UTC


;
;

;
;

;
;
; 

; external perimeters extrusion width = 0.45mm
; perimeters extrusion width = 0.45mm
; infill extrusion width = 0.45mm
; solid infill extrusion width = 0.45mm
; top infill extrusion width = 0.40mm
; first layer extrusion width = 0.42mm

M73 P0 R59
M201 X2500 Y2500 Z400 E5000 ; sets maximum accelerations, mm/sec^2
M203 X180 Y180 Z12 E80 ; sets maximum feedrates, mm / sec
M204 P2000 R1250 T2500 ; sets acceleration (P, T) and retract acceleration (R), mm/sec^2
M205 X8.00 Y8.00 Z2.00 E10.00 ; sets the jerk limits, mm/sec
M205 S0 T0 ; sets the minimum extruding and travel feed rate, mm/sec

; printing object lid_v1.1.stl id:0 copy 0
; stop printing object lid_v1.1.stl id:0 copy 0

;TYPE:Custom
M862.3 P "MINI" ; printer model check
G90 ; use absolute coordinates
M83 ; extruder relative mode
M104 S170 ; set extruder temp for bed leveling
M140 S60 ; set bed temp
M109 R170 ; wait for bed leveling temp
M190 S60 ; wait for bed temp
M204 T1250 ; set travel acceleration
G28 ; home all without mesh bed level
G29 ; mesh bed leveling 
M204 T2500 ; restore travel acceleration
M104 S215 ; set extruder temp
G92 E0
G1 Y-2 X179 F2400
G1 Z3 F720
M109 S215 ; wait for extruder temp

; intro line
G1 X170 F1000
G1 Z0.2 F720
G1 X110 E8 F900
G1 X40 E10 F700
M73 P0 R58
G92 E0

M221 S95 ; set flow
G21 ; set units to millimeters
G90 ; use absolute coordinates
M83 ; use relative distances for extrusion
M900 K0.2 ; Filament gcode LA 1.5
; ; Filament gcode LA 1.0

M107
;LAYER_CHANGE
;Z:0.2
;HEIGHT:0.2
G1 E-3.2 F4200
G1 Z.4 F720
G1 X33.193 Y94.73 F9000
G1 Z.2 F720
G1 E3.2 F2400
M204 P600
;TYPE:Skirt/Brim
;WIDTH:0.42
G1 F1200
G1 X34.464 Y94.395 E.04121
G1 X35.957 Y94.255 E.04702
G1 X141.944 Y94.263 E3.32315
G1 X143.251 Y94.395 E.04119
G1 X144.521 Y94.73 E.04118
G1 X145.391 Y95.09 E.02952
G1 X146.828 Y95.971 E.05285
G1 X147.807 Y96.846 E.04117
G1 X148.638 Y97.864 E.0412
G1 X149.299 Y98.999 E.04118
G1 X149.775 Y100.223 E.04118
G1 X149.995 Y101.139 E.02954
G1 X150.127 Y102.446 E.04119
G1 X150.134 Y140.432 E1.19102
G1 X150.053 Y141.558 E.0354
G1 X149.649 Y143.222 E.05369
G1 X149.13 Y144.398 E.0403
G1 X148.419 Y145.503 E.0412
G1 X147.807 Y146.219 E.02953
G1 X146.828 Y147.094 E.04117
G1 X145.391 Y147.975 E.05285
G1 X144.521 Y148.335 E.02952
G1 X143.251 Y148.67 E.04118
G1 X141.757 Y148.81 E.04705
G1 X35.957 Y148.81 E3.31728
G1 X34.832 Y148.728 E.03537
G1 X33.548 Y148.45 E.04119
G1 X32.323 Y147.975 E.0412
G1 X31.188 Y147.313 E.0412
G1 X29.889 Y146.197 E.0537
G1 X29.076 Y145.201 E.04031
G1 X28.415 Y144.066 E.04118
G1 X28.055 Y143.196 E.02952
G1 X27.72 Y141.926 E.04118
G1 X27.58 Y140.432 E.04705
G1 X27.58 Y102.632 E1.18519
G1 X27.661 Y101.507 E.03536
G1 X28.055 Y99.869 E.05282
G1 X28.584 Y98.667 E.04118
G1 X29.076 Y97.864 E.02953
G1 X30.171 Y96.582 E.05286
G1 X31.188 Y95.752 E.04116
G1 X32.323 Y95.09 E.0412
G1 X33.138 Y94.753 E.02765
M204 P1000
G1 E-2.24 F4200
;WIPE_START
G1 F7200
G1 X33.193 Y94.73 E-.03304
G1 X34.464 Y94.395 E-.7284
G1 X34.821 Y94.362 E-.19856
;WIPE_END
G1 Z.4 F720
; printing object lid_v1.1.stl id:0 copy 0
G1 X145.916 Y141.939 F9000
G1 Z.2 F720
G1 E3.2 F2400
M204 P600
;TYPE:Perimeter
;WIDTH:0.419999
G1 F1200
G1 X145.915 Y141.709 E.00721
G1 X145.772 Y140.87 E.02669
G1 X145.417 Y140.097 E.02667
G1 X144.874 Y139.442 E.02668
G1 X144.18 Y138.949 E.02669
G1 X143.381 Y138.654 E.02671
G1 X142.534 Y138.574 E.02668
G1 X141.933 Y138.654 E.01901
G1 X141.422 Y138.831 E.01696
G1 X140.922 Y139.072 E.0174
G1 X140.44 Y139.442 E.01905
G1 X140.266 Y139.616 E.00772
G1 X139.897 Y140.097 E.01901
G1 X139.774 Y140.31 E.00771
G1 X139.542 Y140.87 E.01901
G1 X139.478 Y141.108 E.00773
G1 X139.399 Y141.955 E.02667
G1 X139.542 Y142.795 E.02672
G1 X139.897 Y143.568 E.02667
G1 X140.44 Y144.223 E.02668
G1 X140.922 Y144.592 E.01903
G1 X141.504 Y144.868 E.0202
G1 X36.211 Y144.868 E3.30138
G1 X36.793 Y144.592 E.0202
M73 P1 R58
G1 X37.448 Y144.049 E.02668
G1 X37.94 Y143.355 E.02667
G1 X38.236 Y142.557 E.02669
G1 X38.315 Y141.709 E.0267
G1 X38.236 Y141.108 E.01901
G1 X38.129 Y140.766 E.01124
G1 X37.817 Y140.097 E.02314
G1 X37.448 Y139.616 E.01901
G1 X37.274 Y139.442 E.00772
G1 X36.793 Y139.072 E.01903
G1 X36.58 Y138.949 E.00771
G1 X35.781 Y138.654 E.02671
G1 X34.934 Y138.574 E.02668
G1 X34.095 Y138.717 E.02669
G1 X33.322 Y139.072 E.02667
G1 X32.666 Y139.616 E.02672
G1 X32.297 Y140.097 E.01901
G1 X32.1 Y140.49 E.01378
G1 X31.876 Y141.122 E.02102
G1 X31.798 Y141.939 E.02573
G1 X31.742 Y141.802 E.00464
G1 X31.579 Y141.126 E.0218
G1 X31.521 Y140.387 E.02324
G1 X31.521 Y103.231 E1.165
G1 X31.522 Y102.666 E.01772
G1 X31.582 Y101.928 E.02322
G1 X31.798 Y101.126 E.02604
G1 X31.799 Y101.355 E.00718
G1 X31.942 Y102.195 E.02672
G1 X32.297 Y102.968 E.02667
G1 X32.84 Y103.623 E.02668
G1 X33.535 Y104.115 E.0267
G1 X34.333 Y104.411 E.02669
G1 X35.18 Y104.49 E.02667
G1 X36.019 Y104.348 E.02668
G1 X36.58 Y104.115 E.01905
G1 X36.793 Y103.992 E.00771
G1 X37.399 Y103.508 E.02432
G1 X37.708 Y103.11 E.0158
G1 X37.94 Y102.755 E.0133
G1 X38.172 Y102.195 E.01901
G1 X38.262 Y101.757 E.01402
G1 X38.315 Y101.109 E.02039
G1 X38.172 Y100.27 E.02669
G1 X37.817 Y99.497 E.02667
G1 X37.274 Y98.842 E.02668
G1 X36.793 Y98.472 E.01903
G1 X36.211 Y98.197 E.02018
G1 X141.504 Y98.197 E3.30138
G1 X140.922 Y98.472 E.02018
G1 X140.266 Y99.016 E.02672
G1 X139.774 Y99.71 E.02667
G1 X139.478 Y100.508 E.02669
G1 X139.399 Y101.355 E.02667
G1 X139.478 Y101.957 E.01904
G1 X139.542 Y102.195 E.00773
G1 X139.774 Y102.755 E.01901
G1 X139.897 Y102.968 E.00771
G1 X140.266 Y103.449 E.01901
G1 X140.44 Y103.623 E.00772
G1 X140.958 Y104.019 E.02044
G1 X141.422 Y104.234 E.01603
G1 X141.933 Y104.411 E.01696
G1 X142.78 Y104.49 E.02667
G1 X143.619 Y104.348 E.02668
G1 X144.393 Y103.992 E.02671
G1 X145.048 Y103.449 E.02668
G1 X145.417 Y102.968 E.01901
G1 X145.615 Y102.575 E.0138
G1 X145.838 Y101.943 E.02101
G1 X145.916 Y101.126 E.02573
G1 X145.994 Y101.351 E.00747
G1 X146.137 Y101.965 E.01977
G1 X146.193 Y102.69 E.0228
G1 X146.193 Y139.833 E1.16459
G1 X146.192 Y140.398 E.01772
G1 X146.132 Y141.137 E.02325
G1 X145.932 Y141.881 E.02416
M204 P1000
G1 E-2.24 F4200
;WIPE_START
G1 F7200
G1 X145.916 Y141.939 E-.03334
G1 X145.915 Y141.709 E-.12746
G1 X145.772 Y140.87 E-.47165
G1 X145.525 Y140.333 E-.32755
;WIPE_END
G1 Z.4 F720
G1 X144.588 Y144.35 F9000
G1 Z.2 F720
G1 E3.2 F2400
M204 P600
;WIDTH:0.375807
G1 F1200
G1 X143.939 Y144.743 E.021
;WIDTH:0.410348
G1 X143.231 Y145.015 E.02317
;WIDTH:0.423752
G1 X142.491 Y145.183 E.02403
G1 X141.726 Y145.245 E.0243
;WIDTH:0.419999
G1 X36.61 Y145.245 E3.29583
G1 X35.748 Y145.226 E.02703
;WIDTH:0.430535
G1 X35.109 Y145.155 E.02072
G1 X34.483 Y145.015 E.02067
;WIDTH:0.410349
G1 X34.12 Y144.886 E.01177
;WIDTH:0.375808
G1 X33.549 Y144.618 E.01746
;WIDTH:0.371841
G1 X33.106 Y144.335 E.01438
;WIDTH:0.398889
G1 X32.539 Y143.831 E.02245
;WIDTH:0.426852
G1 X32.305 Y143.533 E.0121
;WIDTH:0.454815
G1 X32.071 Y143.236 E.01295
G1 X31.67 Y142.591 E.02601
;WIDTH:0.438372
G1 X31.382 Y141.919 E.02404
;WIDTH:0.419999
G1 X31.206 Y141.185 E.02367
G1 X31.144 Y140.402 E.02463
G1 X31.144 Y103.231 E1.16547
G1 X31.146 Y102.637 E.01862
G1 X31.216 Y101.84 E.02509
G1 X31.456 Y100.967 E.02839
;WIDTH:0.441046
G1 X31.672 Y100.475 E.01779
;WIDTH:0.48826
G1 X32.03 Y99.928 E.02421
;WIDTH:0.457158
G1 X32.197 Y99.655 E.01102
;WIDTH:0.426055
G1 X32.559 Y99.214 E.01818
;WIDTH:0.398889
G1 X33.126 Y98.714 E.02238
;WIDTH:0.375809
G1 X33.775 Y98.321 E.021
;WIDTH:0.410348
G1 X34.483 Y98.049 E.02317
;WIDTH:0.423752
G1 X35.224 Y97.882 E.02405
G1 X35.988 Y97.82 E.02427
;WIDTH:0.419999
G1 X141.104 Y97.82 E3.29583
G1 X141.967 Y97.838 E.02706
;WIDTH:0.430535
G1 X142.605 Y97.91 E.02069
G1 X143.231 Y98.049 E.02067
;WIDTH:0.410346
G1 X143.594 Y98.179 E.01178
;WIDTH:0.375807
G1 X144.166 Y98.447 E.01748
;WIDTH:0.37184
G1 X144.609 Y98.73 E.01438
;WIDTH:0.398887
G1 X145.175 Y99.234 E.02243
;WIDTH:0.426851
G1 X145.409 Y99.532 E.0121
;WIDTH:0.454814
G1 X145.643 Y99.829 E.01295
G1 X146.043 Y100.475 E.02602
;WIDTH:0.441045
G1 X146.36 Y101.263 E.02812
;WIDTH:0.419999
G1 X146.513 Y101.935 E.02161
G1 X146.57 Y102.69 E.02374
G1 X146.568 Y140.428 E1.18325
G1 X146.499 Y141.225 E.02508
M73 P1 R57
G1 X146.258 Y142.098 E.0284
;WIDTH:0.438372
G1 X146.044 Y142.591 E.01767
;WIDTH:0.488257
G1 X145.684 Y143.137 E.02422
;WIDTH:0.457156
G1 X145.517 Y143.409 E.01099
;WIDTH:0.426055
G1 X145.155 Y143.851 E.0182
;WIDTH:0.398887
G1 X144.633 Y144.311 E.02059
M204 P1000
G1 X144.633 Y144.311 F9000
G1 X144.807 Y144.63
M204 P600
;TYPE:External perimeter
;WIDTH:0.419999
G1 F1200
G1 X144.113 Y145.056 E.02553
G1 X143.361 Y145.367 E.02552
G1 X142.569 Y145.557 E.02554
G1 X141.741 Y145.622 E.02604
G1 X35.973 Y145.622 E3.31628
G1 X35.145 Y145.557 E.02604
M73 P2 R57
G1 X34.354 Y145.367 E.02551
G1 X33.601 Y145.056 E.02554
G1 X32.907 Y144.63 E.02553
G1 X32.288 Y144.101 E.02553
G1 X31.759 Y143.482 E.02553
G1 X31.334 Y142.788 E.02552
G1 X31.022 Y142.036 E.02553
G1 X30.832 Y141.244 E.02554
G1 X30.767 Y140.416 E.02604
G1 X30.767 Y102.649 E1.18416
G1 X30.832 Y101.821 E.02604
G1 X31.022 Y101.029 E.02554
G1 X31.334 Y100.277 E.02553
G1 X31.759 Y99.583 E.02552
G1 X32.288 Y98.963 E.02555
G1 X32.907 Y98.435 E.02551
G1 X33.601 Y98.009 E.02553
G1 X34.354 Y97.698 E.02554
G1 X35.145 Y97.508 E.02551
G1 X35.973 Y97.442 E.02604
G1 X141.741 Y97.442 E3.31628
G1 X142.569 Y97.508 E.02604
G1 X143.361 Y97.698 E.02554
G1 X144.113 Y98.009 E.02552
G1 X144.772 Y98.413 E.02424
G1 X145.454 Y98.996 E.02813
G1 X145.98 Y99.623 E.02566
G1 X146.401 Y100.326 E.02569
G1 X146.727 Y101.175 E.02851
G1 X146.889 Y101.906 E.02348
G1 X146.947 Y102.69 E.02465
G1 X146.947 Y140.416 E1.18287
G1 X146.882 Y141.244 E.02604
G1 X146.692 Y142.036 E.02554
G1 X146.38 Y142.788 E.02553
G1 X145.955 Y143.482 E.02552
G1 X145.426 Y144.101 E.02553
G1 X144.853 Y144.591 E.02364
M204 P1000
G1 E-2.24 F4200
;WIPE_START
G1 F7200
G1 X144.807 Y144.63 E-.03342
G1 X144.113 Y145.056 E-.45127
G1 X143.361 Y145.367 E-.45097
G1 X143.318 Y145.377 E-.02434
;WIPE_END
G1 Z.4 F720
G1 X141.914 Y104.011 F9000
G1 Z.2 F720
G1 E3.2 F2400
M204 P600
;TYPE:Perimeter
G1 F1200
G1 X141.279 Y103.767 E.02133
G1 X140.67 Y103.324 E.02361
G1 X140.247 Y102.805 E.02099
G1 X140.122 Y102.611 E.00724
G1 X139.89 Y102.05 E.01903
G1 X139.773 Y101.306 E.02361
G1 X139.852 Y100.557 E.02361
G1 X140.122 Y99.854 E.02361
G1 X140.566 Y99.245 E.02363
G1 X141.151 Y98.772 E.02359
G1 X141.839 Y98.466 E.02361
;WIDTH:0.42705
G1 X142.503 Y98.355 E.0215
;WIDTH:0.433284
G1 X142.732 Y98.342 E.00745
G1 X143.33 Y98.443 E.01969
;WIDTH:0.388113
G1 X143.812 Y98.629 E.01483
;WIDTH:0.375808
G1 X144.143 Y98.797 E.01027
;WIDTH:0.36432
G1 X144.627 Y99.163 E.01622
;WIDTH:0.37155
G1 X144.729 Y99.26 E.00385
;WIDTH:0.407958
G1 X145.113 Y99.73 E.01842
;WIDTH:0.448108
G1 X145.284 Y100.066 E.0127
;WIDTH:0.488257
G1 X145.455 Y100.402 E.01396
G1 X145.498 Y100.78 E.01409
;WIDTH:0.454128
G1 X145.541 Y101.159 E.01304
;WIDTH:0.419999
G1 X145.464 Y101.894 E.02317
G1 X145.266 Y102.431 E.01795
G1 X145.118 Y102.738 E.01069
G1 X144.749 Y103.22 E.01903
G1 X144.163 Y103.693 E.02361
G1 X143.475 Y103.999 E.02361
G1 X142.731 Y104.117 E.02362
G1 X141.982 Y104.037 E.02362
G1 X141.97 Y104.033 E.0004
M204 P1000
G1 X141.97 Y104.033 F9000
G1 X142.165 Y103.68
M204 P600
;TYPE:External perimeter
G1 F1200
G1 X142.031 Y103.664 E.00423
G1 X141.423 Y103.419 E.02055
G1 X140.899 Y103.025 E.02056
G1 X140.546 Y102.575 E.01793
G1 X140.239 Y101.906 E.02308
G1 X140.147 Y101.257 E.02055
G1 X140.226 Y100.606 E.02056
G1 X140.471 Y99.999 E.02052
G1 X140.865 Y99.475 E.02056
G1 X141.381 Y99.071 E.02055
G1 X141.984 Y98.814 E.02055
G1 X142.552 Y98.733 E.01799
G1 X143.331 Y98.814 E.02456
G1 X143.891 Y99.046 E.01901
G1 X144.45 Y99.475 E.02209
G1 X144.819 Y99.956 E.01901
G1 X145.076 Y100.559 E.02055
G1 X145.167 Y101.208 E.02055
G1 X145.09 Y101.845 E.02012
G1 X144.843 Y102.466 E.02095
G1 X144.45 Y102.99 E.02054
G1 X143.934 Y103.394 E.02055
G1 X143.331 Y103.651 E.02055
G1 X142.682 Y103.743 E.02055
G1 X142.224 Y103.687 E.01447
M204 P1000
G1 E-2.24 F4200
;WIPE_START
G1 F7200
G1 X142.165 Y103.68 E-.03293
G1 X142.031 Y103.664 E-.07479
G1 X141.423 Y103.419 E-.36326
G1 X140.899 Y103.025 E-.36331
G1 X140.759 Y102.847 E-.12571
;WIPE_END
G1 Z.4 F720
G1 X125.556 Y129.843 F9000
G1 Z.2 F720
G1 E3.2 F2400
M204 P600
;TYPE:Perimeter
G1 F1200
G1 X125.168 Y129.568 E.01491
G1 X124.769 Y129.169 E.01769
G1 X124.307 Y128.489 E.02578
G1 X124.165 Y128.221 E.00951
G1 X123.927 Y127.553 E.02223
G1 X123.799 Y126.652 E.02853
G1 X123.793 Y116.52 E.31768
G1 X123.878 Y115.721 E.02519
G1 X124.165 Y114.844 E.02893
G1 X124.228 Y114.703 E.00484
G1 X124.642 Y114.053 E.02416
G1 X125.285 Y113.392 E.02891
G1 X126.061 Y112.893 E.02893
G1 X126.929 Y112.582 E.02891
G1 X127.846 Y112.476 E.02894
G1 X128.597 Y112.541 E.02364
G1 X129.459 Y112.803 E.02825
G1 X129.678 Y112.908 E.00762
G1 X130.393 Y113.372 E.02673
G1 X130.945 Y113.896 E.02386
G1 X131.455 Y114.651 E.02857
G1 X131.788 Y115.512 E.02894
G1 X131.921 Y116.52 E.03188
G1 X131.921 Y126.545 E.31433
G1 X131.836 Y127.344 E.02519
G1 X131.55 Y128.221 E.02892
G1 X131.072 Y129.011 E.02895
G1 X130.595 Y129.511 E.02167
G1 X130.26 Y129.804 E.01395
G1 X129.654 Y130.172 E.02223
G1 X128.785 Y130.483 E.02894
G1 X127.868 Y130.589 E.02894
G1 X127.117 Y130.524 E.02364
G1 X126.255 Y130.261 E.02826
G1 X125.606 Y129.876 E.02366
M204 P1000
G1 X125.606 Y129.876 F9000
G1 X125.777 Y129.538
M204 P600
G1 F1200
G1 X125.435 Y129.302 E.01303
G1 X125.035 Y128.902 E.01774
G1 X124.625 Y128.286 E.0232
G1 X124.52 Y128.095 E.00683
G1 X124.282 Y127.426 E.02226
G1 X124.174 Y126.609 E.02584
G1 X124.17 Y116.514 E.31652
G1 X124.253 Y115.764 E.02366
G1 X124.558 Y114.886 E.02914
G1 X124.959 Y114.257 E.02339
G1 X125.548 Y113.662 E.02625
G1 X126.256 Y113.215 E.02625
G1 X127.046 Y112.941 E.02622
G1 X127.879 Y112.851 E.02627
G1 X128.555 Y112.916 E.02129
G1 X129.341 Y113.162 E.02582
G1 X130.118 Y113.643 E.02865
G1 X130.679 Y114.162 E.02396
G1 X131.138 Y114.855 E.02606
G1 X131.432 Y115.639 E.02625
G1 X131.544 Y116.52 E.02785
G1 X131.544 Y126.545 E.31433
G1 X131.461 Y127.301 E.02385
G1 X131.194 Y128.095 E.02627
G1 X130.755 Y128.808 E.02625
G1 X130.331 Y129.242 E.01902
G1 X130.064 Y129.482 E.01126
G1 X129.458 Y129.849 E.02221
G1 X128.668 Y130.124 E.02623
G1 X127.835 Y130.214 E.02627
G1 X127.16 Y130.149 E.02126
G1 X126.373 Y129.903 E.02585
G1 X125.828 Y129.57 E.02003
M204 P1000
G1 X125.828 Y129.57 F9000
G1 X126.008 Y129.233
M204 P600
;TYPE:External perimeter
G1 F1200
G1 X125.701 Y129.035 E.01145
G1 X125.302 Y128.636 E.01769
G1 X124.942 Y128.082 E.02072
G1 X124.637 Y127.3 E.02632
G1 X124.548 Y126.566 E.02318
G1 X124.547 Y116.518 E.31505
G1 X124.628 Y115.807 E.02244
G1 X124.888 Y115.068 E.02456
G1 X125.277 Y114.46 E.02263
G1 X125.811 Y113.932 E.02355
G1 X126.452 Y113.538 E.02359
G1 X127.164 Y113.299 E.02355
G1 X127.913 Y113.227 E.02359
G1 X128.512 Y113.291 E.01889
G1 X129.224 Y113.52 E.02345
G1 X129.912 Y113.96 E.02561
G1 X130.412 Y114.429 E.02149
G1 X130.82 Y115.058 E.02351
G1 X131.077 Y115.765 E.02359
G1 X131.167 Y116.52 E.02384
G1 X131.167 Y126.545 E.31433
G1 X131.087 Y127.258 E.0225
G1 X130.839 Y127.968 E.02358
G1 X130.437 Y128.605 E.02362
G1 X130.068 Y128.972 E.01632
G1 X129.869 Y129.159 E.00856
G1 X129.262 Y129.527 E.02226
G1 X128.55 Y129.766 E.02355
G1 X127.801 Y129.838 E.02359
G1 X127.202 Y129.774 E.01889
G1 X126.491 Y129.545 E.02342
G1 X126.059 Y129.266 E.01612
M204 P1000
G1 E-2.24 F4200
;WIPE_START
G1 F7200
G1 X126.008 Y129.233 E-.03366
G1 X125.701 Y129.035 E-.20244
G1 X125.302 Y128.636 E-.3127
G1 X124.942 Y128.082 E-.36613
G1 X124.912 Y128.006 E-.04507
;WIPE_END
G1 Z.4 F720
G1 X106.717 Y105.501 F9000
G1 Z.2 F720
G1 E3.2 F2400
M204 P600
;TYPE:Perimeter
G1 F1200
G1 X106.678 Y105.357 E.00468
G1 X106.599 Y104.755 E.01904
G1 X106.599 Y104.509 E.00771
G1 X106.678 Y103.908 E.01901
G1 X106.742 Y103.67 E.00773
G1 X106.974 Y103.11 E.01901
G1 X107.466 Y102.416 E.02667
G1 X108.122 Y101.872 E.02672
G1 X108.895 Y101.517 E.02667
G1 X109.734 Y101.374 E.02669
G1 X109.98 Y101.374 E.00771
G1 X110.581 Y101.454 E.01901
