; generated by PrusaSlicer 2.7.3+MacOS-arm64 on 2024-05-25 at 14:37:21 UTC


;
;

;
;

;
;
; 

; external perimeters extrusion width = 0.45mm
; perimeters extrusion width = 0.45mm
; infill extrusion width = 0.45mm
; solid infill extrusion width = 0.45mm
; top infill extrusion width = 0.40mm
; support material extrusion width = 0.35mm
; first layer extrusion width = 0.42mm

M73 P0 R60
M201 X2500 Y2500 Z400 E5000 ; sets maximum accelerations, mm/sec^2
M203 X180 Y180 Z12 E80 ; sets maximum feedrates, mm / sec
M204 P2000 R1250 T2500 ; sets acceleration (P, T) and retract acceleration (R), mm/sec^2
M205 X8.00 Y8.00 Z2.00 E10.00 ; sets the jerk limits, mm/sec
M205 S0 T0 ; sets the minimum extruding and travel feed rate, mm/sec

; printing object neopixel_bracket_v1.0.stl id:0 copy 0
; stop printing object neopixel_bracket_v1.0.stl id:0 copy 0

;TYPE:Custom
M862.3 P "MINI" ; printer model check
G90 ; use absolute coordinates
M83 ; extruder relative mode
M104 S170 ; set extruder temp for bed leveling
M140 S60 ; set bed temp
M109 R170 ; wait for bed leveling temp
M190 S60 ; wait for bed temp
M204 T1250 ; set travel acceleration
G28 ; home all without mesh bed level
G29 ; mesh bed leveling 
M204 T2500 ; restore travel acceleration
M104 S215 ; set extruder temp
G92 E0
G1 Y-2 X179 F2400
G1 Z3 F720
M109 S215 ; wait for extruder temp

; intro line
G1 X170 F1000
G1 Z0.2 F720
G1 X110 E8 F900
G1 X40 E10 F700
G92 E0

M221 S95 ; set flow
G21 ; set units to millimeters
G90 ; use absolute coordinates
M83 ; use relative distances for extrusion
M900 K0.2 ; Filament gcode LA 1.5
; ; Filament gcode LA 1.0

M107
;LAYER_CHANGE
;Z:0.2
;HEIGHT:0.2
G1 E-3.2 F4200
G1 Z.4 F720
G1 X106.715 Y82.183 F9000
G1 Z.2 F720
G1 E3.2 F2400
M204 P600
;TYPE:Skirt/Brim
;WIDTH:0.42
G1 F1200
G1 X107.664 Y81.044 E.04648
G1 X128.734 Y62.951 E.87078
G1 X129.59 Y62.34 E.03298
G1 X130.217 Y61.998 E.02239
G1 X131.193 Y61.608 E.03295
G1 X132.216 Y61.361 E.033
G1 X133.433 Y61.255 E.0383
G1 X137.602 Y61.261 E.13072
G1 X138.65 Y61.361 E.03301
G1 X139.672 Y61.608 E.03297
G1 X140.341 Y61.857 E.02238
G1 X141.561 Y62.523 E.04358
G1 X142.132 Y62.951 E.02237
G1 X142.892 Y63.677 E.03295
G1 X143.595 Y64.579 E.03586
G1 X154.19 Y79.972 E.58591
G1 X154.853 Y81.409 E.04962
G1 X155.164 Y82.516 E.03605
G1 X155.348 Y84.085 E.04953
G1 X154.815 Y93.46 E.29442
G1 X154.623 Y95.049 E.05018
G1 X154.3 Y96.158 E.03622
G1 X153.428 Y97.905 E.06122
G1 X143.574 Y111.716 E.53196
G1 X143.115 Y112.331 E.02406
G1 X142.388 Y113.092 E.033
G1 X141.561 Y113.742 E.03298
G1 X140.649 Y114.267 E.03299
G1 X139.672 Y114.657 E.03298
G1 X138.65 Y114.904 E.03297
G1 X137.433 Y115.009 E.0383
G1 X132.552 Y114.953 E.15305
G1 X131.519 Y114.753 E.03299
G1 X130.525 Y114.408 E.03299
G1 X129.59 Y113.925 E.033
G1 X128.518 Y113.131 E.04183
G1 X107.648 Y93.231 E.90416
G1 X106.476 Y91.739 E.05949
G1 X105.966 Y90.787 E.03386
G1 X105.64 Y89.978 E.02735
G1 X105.233 Y88.248 E.05572
G1 X105.164 Y87.398 E.02674
G1 X105.233 Y86.035 E.04279
G1 X105.579 Y84.489 E.04967
G1 X105.966 Y83.496 E.03342
G1 X106.686 Y82.235 E.04553
M204 P1000
G1 E-2.24 F4200
;WIPE_START
G1 F7200
G1 X106.715 Y82.183 E-.033
G1 X107.664 Y81.044 E-.82157
G1 X107.808 Y80.92 E-.10543
;WIPE_END
G1 Z.4 F720
; printing object neopixel_bracket_v1.0.stl id:0 copy 0
G1 X147.358 Y78.044 F9000
G1 Z.2 F720
G1 E3.2 F2400
M204 P600
;TYPE:Support material
G1 F1200
G1 X148.487 Y78.272 E.03611
G1 X149.555 Y78.701 E.03609
G1 X150.527 Y79.317 E.03608
G1 X151.37 Y80.099 E.03605
G1 X152.057 Y81.022 E.03608
G1 X152.565 Y82.053 E.03604
G1 X152.876 Y83.16 E.03605
G1 X152.981 Y84.302 E.03596
G1 X152.877 Y85.451 E.03617
G1 X152.566 Y86.556 E.03599
G1 X152.059 Y87.587 E.03602
G1 X151.373 Y88.51 E.03606
G1 X150.797 Y89.046 E.02467
G1 X151.496 Y89.948 E.03578
G1 X152.019 Y90.978 E.03622
G1 X152.341 Y92.087 E.03621
G1 X152.449 Y93.236 E.03618
G1 X152.34 Y94.385 E.03619
G1 X152.018 Y95.494 E.03621
G1 X151.493 Y96.524 E.03625
G1 X150.784 Y97.438 E.03627
G1 X149.915 Y98.203 E.0363
G1 X148.917 Y98.793 E.03635
G1 X147.824 Y99.184 E.0364
G1 X146.675 Y99.363 E.03646
G1 X145.512 Y99.322 E.03649
G1 X144.377 Y99.061 E.03652
G1 X143.311 Y98.591 E.03653
G1 X142.513 Y98.038 E.03044
G1 X142.513 Y79.612 E.57773
G1 X143.051 Y79.168 E.02187
G1 X143.99 Y78.613 E.0342
G1 X145.072 Y78.218 E.03612
G1 X146.207 Y78.026 E.03609
G1 X147.302 Y78.043 E.03434
M204 P1000
G1 X147.302 Y78.043 F9000
G1 X152.256 Y86.802
M204 P600
G1 F1200
G1 X152.256 Y82.21 E.14398
G1 X151.837 Y81.344 E.03016
G1 X151.837 Y87.27 E.18581
G1 X151.418 Y87.881 E.02323
G1 X151.418 Y80.732 E.22415
G1 X150.999 Y80.218 E.02079
G1 X150.999 Y88.394 E.25635
G1 X150.58 Y88.784 E.01795
G1 X150.58 Y79.829 E.28078
G1 X150.161 Y79.487 E.01696
G1 X150.161 Y97.534 E.56585
G1 X149.743 Y97.903 E.01748
G1 X149.743 Y79.221 E.58576
G1 X149.324 Y78.973 E.01527
G1 X149.324 Y98.159 E.60156
G1 X148.905 Y98.406 E.01525
G1 X148.905 Y78.805 E.61458
G1 X148.486 Y78.637 E.01415
G1 X148.486 Y98.587 E.62552
G1 X148.067 Y98.737 E.01395
G1 X148.067 Y78.533 E.63348
G1 X147.648 Y78.449 E.0134
G1 X147.648 Y98.868 E.64022
G1 X147.229 Y98.933 E.01329
M73 P1 R60
G1 X147.229 Y78.382 E.64436
G1 X146.81 Y78.375 E.01314
G1 X146.81 Y98.999 E.64665
G1 X146.391 Y99.013 E.01314
G1 X146.391 Y78.368 E.64731
G1 X145.972 Y78.41 E.0132
G1 X145.972 Y98.998 E.64552
G1 X145.553 Y98.983 E.01315
G1 X145.553 Y78.481 E.64283
G1 X145.134 Y78.556 E.01335
G1 X145.134 Y98.887 E.63746
G1 X144.715 Y98.79 E.01348
G1 X144.715 Y78.709 E.62963
G1 X144.296 Y78.863 E.014
G1 X144.296 Y98.654 E.62053
G1 X143.877 Y98.469 E.01436
G1 X143.877 Y79.074 E.60812
G1 X143.458 Y79.321 E.01525
G1 X143.458 Y98.279 E.59441
G1 X143.039 Y97.989 E.01598
G1 X143.039 Y79.394 E.58303
M204 P1000
G1 X143.039 Y79.394 F9000
G1 X151.837 Y95.475
M204 P600
G1 F1200
G1 X151.837 Y91.569 E.12247
G1 X151.702 Y91.103 E.01521
G1 X151.418 Y90.545 E.01963
G1 X151.418 Y95.923 E.16862
G1 X150.999 Y96.607 E.02515
G1 X150.999 Y89.861 E.21152
G1 X150.58 Y89.32 E.02146
G1 X150.58 Y97.391 E.25306
M204 P1000
G1 E-2.24 F4200
;WIPE_START
G1 F7200
G1 X150.58 Y95.659 E-.96
;WIPE_END
G1 Z.4 F720
G1 X114.511 Y80.881 F9000
G1 Z.2 F720
G1 E3.2 F2400
M204 P600
G1 F1200
G1 X115.637 Y81.11 E.03603
G1 X116.703 Y81.539 E.03603
G1 X117.673 Y82.155 E.03603
G1 X118.514 Y82.938 E.03603
G1 X119.2 Y83.86 E.03603
G1 X119.707 Y84.891 E.03602
G1 X120.018 Y85.997 E.03602
G1 X120.123 Y87.139 E.03596
G1 X120.077 Y87.649 E.01606
G1 X120.018 Y88.287 E.02009
G1 X119.707 Y89.392 E.03599
G1 X119.2 Y90.423 E.03602
G1 X118.514 Y91.345 E.03603
G1 X117.673 Y92.128 E.03603
G1 X116.703 Y92.744 E.03603
G1 X115.637 Y93.173 E.03603
G1 X114.511 Y93.402 E.03603
G1 X113.363 Y93.423 E.036
G1 X112.229 Y93.234 E.03605
G1 X111.149 Y92.843 E.03601
G1 X110.158 Y92.262 E.03602
G1 X109.289 Y91.511 E.03601
G1 X108.571 Y90.614 E.03603
G1 X108.06 Y89.663 E.03385
G1 X107.692 Y88.533 E.03726
G1 X107.542 Y86.885 E.05189
G1 X107.692 Y85.75 E.0359
G1 X108.06 Y84.62 E.03726
G1 X108.571 Y83.669 E.03385
G1 X109.266 Y82.801 E.03486
G1 X109.778 Y82.333 E.02175
G1 X110.206 Y81.992 E.01716
G1 X111.149 Y81.44 E.03426
G1 X112.229 Y81.048 E.03602
G1 X113.363 Y80.86 E.03604
G1 X114.455 Y80.88 E.03424
M204 P1000
G1 X114.455 Y80.88 F9000
G1 X119.576 Y89.23
M204 P600
G1 F1200
G1 X119.576 Y85.68 E.11131
G1 X119.389 Y85.013 E.02172
G1 X119.157 Y84.542 E.01646
G1 X119.157 Y89.741 E.16301
G1 X118.738 Y90.476 E.02653
G1 X118.738 Y83.807 E.2091
G1 X118.319 Y83.244 E.022
G1 X118.319 Y91.039 E.24441
G1 X117.9 Y91.453 E.01847
G1 X117.9 Y82.83 E.27037
G1 X117.481 Y82.441 E.01793
M73 P1 R59
G1 X117.481 Y91.842 E.29476
G1 X117.062 Y92.113 E.01565
G1 X117.062 Y82.17 E.31176
G1 X116.643 Y81.904 E.01556
G1 X116.643 Y92.379 E.32844
G1 X116.224 Y92.571 E.01445
G1 X116.224 Y81.712 E.34048
G1 X115.805 Y81.543 E.01417
G1 X115.805 Y92.74 E.35107
G1 X115.386 Y92.878 E.01383
G1 X115.386 Y81.405 E.35973
G1 X114.967 Y81.32 E.01341
G1 X114.967 Y92.963 E.36506
G1 X114.548 Y93.048 E.01341
G1 X114.548 Y81.234 E.37042
G1 X114.129 Y81.213 E.01315
G1 X114.129 Y93.07 E.37177
G1 X113.71 Y93.077 E.01314
G1 X113.71 Y81.206 E.37221
G1 X113.388 Y81.2 E.0101
G1 X113.292 Y81.216 E.00305
G1 X113.292 Y93.067 E.37158
G1 X112.873 Y92.997 E.01332
G1 X112.873 Y81.286 E.36719
G1 X112.454 Y81.355 E.01331
G1 X112.454 Y92.928 E.36286
G1 X112.035 Y92.803 E.01371
G1 X112.035 Y81.48 E.35502
G1 X111.616 Y81.632 E.01398
G1 X111.616 Y92.651 E.34549
G1 X111.197 Y92.478 E.01421
G1 X111.197 Y81.805 E.33464
G1 X110.778 Y82.051 E.01523
G1 X110.778 Y92.232 E.31922
G1 X110.359 Y91.987 E.01522
G1 X110.359 Y82.305 E.30357
G1 X109.94 Y82.646 E.01694
G1 X109.94 Y91.625 E.28153
G1 X109.521 Y91.258 E.01746
G1 X109.521 Y83.028 E.25805
G1 X109.102 Y83.548 E.02094
G1 X109.102 Y90.735 E.22534
G1 X108.683 Y90.106 E.0237
G1 X108.683 Y84.177 E.1859
G1 X108.264 Y85.043 E.03016
G1 X108.264 Y89.684 E.14552
M204 P1000
G1 E-2.24 F4200
;WIPE_START
G1 F7200
G1 X108.264 Y87.952 E-.96
;WIPE_END
G1 Z.4 F720
G1 X140.507 Y109.156 F9000
G1 Z.2 F720
G1 E3.2 F2400
M204 P600
;TYPE:Perimeter
;WIDTH:0.419999
G1 F1200
G1 X140.168 Y109.701 E.02012
G1 X139.823 Y110.094 E.0164
G1 X139.417 Y110.432 E.01656
G1 X138.964 Y110.704 E.01657
G1 X138.475 Y110.903 E.01655
G1 X137.96 Y111.024 E.01659
G1 X137.388 Y111.068 E.01799
G1 X133.477 Y111.068 E.12263
G1 X132.905 Y111.024 E.01799
G1 X132.391 Y110.903 E.01656
G1 X131.902 Y110.704 E.01655
G1 X131.455 Y110.436 E.01634
G1 X130.967 Y110.018 E.02015
G1 X130.633 Y109.617 E.01636
G1 X130.361 Y109.164 E.01657
G1 X130.162 Y108.674 E.01658
G1 X130.041 Y108.16 E.01656
G1 X129.997 Y107.588 E.01799
G1 X129.997 Y68.733 E1.21827
G1 X130.032 Y68.225 E.01597
G1 X130.134 Y67.712 E.0164
G1 X130.313 Y67.221 E.01639
G1 X130.556 Y66.777 E.01587
G1 X130.954 Y66.276 E.02006
G1 X131.346 Y65.918 E.01665
G1 X131.788 Y65.629 E.01656
G1 X132.27 Y65.411 E.01659
G1 X132.782 Y65.27 E.01665
G1 X133.343 Y65.206 E.0177
G1 X137.585 Y65.211 E.133
G1 X138.083 Y65.27 E.01572
G1 X138.596 Y65.411 E.01668
G1 X139.078 Y65.629 E.01659
G1 X139.519 Y65.918 E.01653
G1 X139.912 Y66.276 E.01667
G1 X140.31 Y66.777 E.02006
G1 X140.553 Y67.221 E.01587
G1 X140.732 Y67.712 E.01639
G1 X140.834 Y68.225 E.0164
G1 X140.869 Y68.733 E.01597
G1 X140.869 Y107.588 E1.21827
G1 X140.824 Y108.16 E.01799
M73 P2 R59
G1 X140.703 Y108.674 E.01656
G1 X140.53 Y109.101 E.01445
M204 P1000
G1 X140.53 Y109.101 F9000
G1 X140.849 Y109.317
M204 P600
G1 F1200
G1 X140.844 Y109.328 E.00038
G1 X140.472 Y109.927 E.02211
G1 X140.087 Y110.365 E.01828
G1 X139.636 Y110.74 E.01839
G1 X139.133 Y111.042 E.0184
G1 X138.59 Y111.263 E.01838
G1 X138.019 Y111.398 E.0184
G1 X137.403 Y111.445 E.01937
G1 X133.463 Y111.445 E.12354
G1 X132.847 Y111.398 E.01937
G1 X132.276 Y111.263 E.0184
G1 X131.733 Y111.042 E.01838
G1 X131.233 Y110.743 E.01827
G1 X130.698 Y110.283 E.02212
G1 X130.325 Y109.836 E.01825
G1 X130.023 Y109.333 E.0184
G1 X129.802 Y108.789 E.01841
G1 X129.667 Y108.218 E.0184
G1 X129.62 Y107.603 E.01934
G1 X129.62 Y68.662 E1.22097
G1 X129.667 Y68.047 E.01934
G1 X129.802 Y67.475 E.01843
G1 X130.023 Y66.932 E.01838
G1 X130.323 Y66.433 E.01826
G1 X130.668 Y66.031 E.01661
G1 X131.105 Y65.628 E.01864
G1 X131.594 Y65.306 E.01836
G1 X132.128 Y65.062 E.01841
G1 X132.696 Y64.903 E.01849
G1 X133.329 Y64.829 E.01998
G1 X137.615 Y64.835 E.13438
G1 X138.169 Y64.903 E.0175
G1 X138.738 Y65.062 E.01852
G1 X139.272 Y65.306 E.01841
G1 X139.761 Y65.628 E.01836
G1 X140.198 Y66.03 E.01862
G1 X140.633 Y66.583 E.02206
G1 X140.902 Y67.079 E.01769
G1 X141.099 Y67.626 E.01823
G1 X141.21 Y68.196 E.01821
G1 X141.246 Y68.733 E.01688
G1 X141.246 Y107.603 E1.21874
G1 X141.198 Y108.218 E.01934
G1 X141.064 Y108.789 E.01839
G1 X140.872 Y109.261 E.01598
M204 P1000
G1 X140.872 Y109.261 F9000
G1 X141.199 Y109.458
M204 P600
;TYPE:External perimeter
G1 F1200
G1 X141.182 Y109.5 E.00142
G1 X140.776 Y110.153 E.02411
G1 X140.35 Y110.636 E.02019
G1 X139.855 Y111.049 E.02021
G1 X139.302 Y111.381 E.02022
G1 X138.705 Y111.623 E.0202
G1 X138.077 Y111.771 E.02023
G1 X137.418 Y111.822 E.02072
G1 X133.448 Y111.822 E.12448
G1 X132.789 Y111.771 E.02072
G1 X132.161 Y111.623 E.02023
G1 X131.564 Y111.381 E.0202
G1 X131.012 Y111.049 E.0202
G1 X130.429 Y110.549 E.02408
G1 X130.017 Y110.055 E.02017
G1 X129.685 Y109.502 E.02022
G1 X129.442 Y108.904 E.02024
G1 X129.294 Y108.276 E.02023
G1 X129.243 Y107.617 E.02072
G1 X129.243 Y68.648 E1.22184
G1 X129.294 Y67.989 E.02072
G1 X129.442 Y67.36 E.02026
G1 X129.685 Y66.763 E.02021
G1 X130.016 Y66.211 E.02018
G1 X130.516 Y65.628 E.02408
G1 X131.011 Y65.216 E.02019
G1 X131.564 Y64.884 E.02022
G1 X132.161 Y64.641 E.02021
G1 X132.789 Y64.493 E.02023
G1 X133.314 Y64.452 E.01651
G1 X137.255 Y64.452 E.12357
G1 X137.893 Y64.479 E.02002
G1 X138.52 Y64.598 E.02001
G1 X139.125 Y64.812 E.02012
G1 X139.691 Y65.118 E.02017
G1 X140.191 Y65.496 E.01965
G1 X140.635 Y65.961 E.02016
G1 X140.957 Y66.389 E.01679
G1 X141.252 Y66.937 E.01951
G1 X141.466 Y67.539 E.02003
G1 X141.586 Y68.166 E.02002
G1 X141.623 Y68.733 E.01782
G1 X141.623 Y107.617 E1.21918
G1 X141.572 Y108.276 E.02072
G1 X141.424 Y108.904 E.02023
G1 X141.221 Y109.403 E.01689
M204 P1000
G1 E-2.24 F4200
;WIPE_START
G1 F7200
G1 X141.199 Y109.458 E-.03283
G1 X141.182 Y109.5 E-.02511
G1 X140.776 Y110.153 E-.42611
G1 X140.35 Y110.636 E-.3569
G1 X140.185 Y110.774 E-.11905
;WIPE_END
G1 Z.4 F720
G1 X138.403 Y69.928 F9000
G1 Z.2 F720
G1 E3.2 F2400
M204 P600
;TYPE:Perimeter
G1 F1200
G1 X138.599 Y70.462 E.01784
G1 X138.691 Y71.202 E.02338
G1 X138.641 Y71.813 E.01922
G1 X138.433 Y72.508 E.02275
G1 X138.064 Y73.158 E.02344
G1 X137.557 Y73.707 E.02343
G1 X136.94 Y74.124 E.02335
G1 X136.243 Y74.391 E.0234
G1 X135.502 Y74.492 E.02345
G1 X134.759 Y74.421 E.0234
G1 X134.051 Y74.183 E.02342
G1 X133.521 Y73.873 E.01925
G1 X132.987 Y73.386 E.02266
G1 X132.559 Y72.773 E.02344
G1 X132.284 Y72.078 E.02344
G1 X132.173 Y71.341 E.02337
G1 X132.234 Y70.597 E.02341
G1 X132.463 Y69.886 E.02342
G1 X132.849 Y69.245 E.02346
G1 X133.194 Y68.879 E.01577
G1 X133.547 Y68.576 E.01459
G1 X134.001 Y68.306 E.01656
G1 X134.567 Y68.089 E.01901
G1 X135.286 Y67.976 E.02282
G1 X136.031 Y68.027 E.02341
G1 X136.745 Y68.247 E.02343
G1 X137.28 Y68.554 E.01934
G1 X137.643 Y68.846 E.01461
G1 X138.026 Y69.249 E.01743
G1 X138.342 Y69.761 E.01886
G1 X138.383 Y69.872 E.00371
M204 P1000
G1 X138.383 Y69.872 F9000
G1 X138.057 Y70.063
M204 P600
G1 F1200
G1 X138.241 Y70.58 E.01721
G1 X138.315 Y71.236 E.0207
G1 X138.266 Y71.771 E.01684
G1 X138.075 Y72.39 E.02031
G1 X137.742 Y72.961 E.02073
G1 X137.289 Y73.442 E.02072
G1 X136.739 Y73.805 E.02066
G1 X136.12 Y74.035 E.0207
G1 X135.464 Y74.117 E.02073
G1 X134.807 Y74.047 E.02072
G1 X134.183 Y73.83 E.02071
G1 X133.722 Y73.554 E.01685
G1 X133.248 Y73.114 E.02028
G1 X132.876 Y72.568 E.02072
G1 X132.639 Y71.951 E.02072
G1 X132.548 Y71.297 E.0207
G1 X132.609 Y70.64 E.02069
G1 X132.818 Y70.014 E.02069
G1 X133.165 Y69.45 E.02076
G1 X133.631 Y68.982 E.02071
G1 X134.19 Y68.632 E.02068
G1 X134.692 Y68.445 E.0168
G1 X135.334 Y68.35 E.02035
G1 X135.993 Y68.402 E.02073
G1 X136.622 Y68.603 E.0207
G1 X137.079 Y68.873 E.01664
G1 X137.375 Y69.11 E.01189
G1 X137.742 Y69.504 E.01688
G1 X138.02 Y69.958 E.01669
G1 X138.037 Y70.006 E.0016
M204 P1000
G1 X138.037 Y70.006 F9000
G1 X137.752 Y70.299
M204 P600
;TYPE:External perimeter
G1 F1200
G1 X137.883 Y70.698 E.01317
G1 X137.94 Y71.27 E.01802
G1 X137.883 Y71.767 E.01569
G1 X137.717 Y72.271 E.01664
G1 X137.421 Y72.764 E.01803
G1 X137.02 Y73.177 E.01805
G1 X136.538 Y73.486 E.01795
G1 X135.997 Y73.678 E.018
G1 X135.425 Y73.742 E.01805
G1 X134.855 Y73.673 E.018
G1 X134.315 Y73.477 E.01801
G1 X133.892 Y73.211 E.01567
G1 X133.509 Y72.843 E.01665
G1 X133.192 Y72.363 E.01804
G1 X132.993 Y71.823 E.01804
G1 X132.923 Y71.254 E.01798
G1 X132.984 Y70.684 E.01797
G1 X133.173 Y70.141 E.01803
G1 X133.482 Y69.655 E.01806
G1 X133.892 Y69.254 E.01798
G1 X134.383 Y68.956 E.01801
G1 X134.854 Y68.792 E.01564
G1 X135.382 Y68.724 E.01669
G1 X135.955 Y68.777 E.01804
G1 X136.499 Y68.96 E.018
G1 X136.878 Y69.193 E.01395
G1 X137.281 Y69.552 E.01692
G1 X137.533 Y69.884 E.01307
G1 X137.717 Y70.194 E.0113
G1 X137.733 Y70.242 E.00159
M204 P1000
