; generated by PrusaSlicer 2.7.3+MacOS-arm64 on 2024-05-25 at 14:38:24 UTC


;
;

;
;

;
;
; 

; external perimeters extrusion width = 0.45mm
; perimeters extrusion width = 0.45mm
; infill extrusion width = 0.45mm
; solid infill extrusion width = 0.45mm
; top infill extrusion width = 0.40mm
; first layer extrusion width = 0.42mm

M73 P0 R31
M201 X2500 Y2500 Z400 E5000 ; sets maximum accelerations, mm/sec^2
M203 X180 Y180 Z12 E80 ; sets maximum feedrates, mm / sec
M204 P2000 R1250 T2500 ; sets acceleration (P, T) and retract acceleration (R), mm/sec^2
M205 X8.00 Y8.00 Z2.00 E10.00 ; sets the jerk limits, mm/sec
M205 S0 T0 ; sets the minimum extruding and travel feed rate, mm/sec

; printing object servo_bracket_v1.0.stl id:0 copy 0
; stop printing object servo_bracket_v1.0.stl id:0 copy 0

;TYPE:Custom
M862.3 P "MINI" ; printer model check
G90 ; use absolute coordinates
M83 ; extruder relative mode
M104 S170 ; set extruder temp for bed leveling
M140 S60 ; set bed temp
M109 R170 ; wait for bed leveling temp
M190 S60 ; wait for bed temp
M204 T1250 ; set travel acceleration
G28 ; home all without mesh bed level
G29 ; mesh bed leveling 
M204 T2500 ; restore travel acceleration
M104 S215 ; set extruder temp
G92 E0
G1 Y-2 X179 F2400
G1 Z3 F720
M109 S215 ; wait for extruder temp

; intro line
G1 X170 F1000
G1 Z0.2 F720
G1 X110 E8 F900
G1 X40 E10 F700
G92 E0

M221 S95 ; set flow
G21 ; set units to millimeters
G90 ; use absolute coordinates
M83 ; use relative distances for extrusion
M900 K0.2 ; Filament gcode LA 1.5
; ; Filament gcode LA 1.0

M107
;LAYER_CHANGE
;Z:0.2
;HEIGHT:0.2
G1 E-3.2 F4200
G1 Z.4 F720
G1 X24.025 Y65.2 F9000
G1 Z.2 F720
G1 E3.2 F2400
M204 P600
;TYPE:Skirt/Brim
;WIDTH:0.42
G1 F1200
G1 X24.963 Y65.006 E.03003
G1 X59.965 Y65 E1.09746
G1 X61.513 Y65.175 E.04885
G1 X62.6 Y65.514 E.0357
G1 X63.853 Y66.172 E.04437
G1 X64.749 Y66.873 E.03567
G1 X65.687 Y67.933 E.04438
G1 X66.276 Y68.907 E.03569
G1 X66.778 Y70.23 E.04437
G1 X66.983 Y71.349 E.03567
G1 X67.021 Y111.057 E1.24502
G1 X66.948 Y112.049 E.03119
M73 P1 R31
G1 X66.778 Y112.884 E.02672
G1 X66.508 Y113.692 E.02671
G1 X65.85 Y114.945 E.04437
G1 X65.148 Y115.84 E.03566
G1 X64.534 Y116.43 E.0267
G1 X63.853 Y116.942 E.02671
G1 X63.115 Y117.368 E.02672
G1 X62.331 Y117.701 E.02671
G1 X61.513 Y117.938 E.0267
G1 X60.673 Y118.075 E.02669
G1 X24.963 Y118.108 E1.11966
G1 X23.656 Y117.715 E.04279
G1 X22.781 Y116.668 E.04278
G1 X22.588 Y115.73 E.03003
G1 X22.588 Y67.383 E1.51589
G1 X22.979 Y66.076 E.04277
G1 X23.979 Y65.238 E.04091
M204 P1000
G1 E-2.24 F4200
;WIPE_START
G1 F7200
G1 X24.025 Y65.2 E-.03306
G1 X24.963 Y65.006 E-.53081
G1 X25.678 Y65.006 E-.39613
;WIPE_END
G1 Z.4 F720
; printing object servo_bracket_v1.0.stl id:0 copy 0
G1 X35.35 Y78.079 F9000
G1 Z.2 F720
G1 E3.2 F2400
M204 P600
;TYPE:Perimeter
;WIDTH:0.419999
G1 F1200
G1 X35.065 Y77.873 E.01103
G1 X34.607 Y77.697 E.01538
G1 X34.154 Y77.624 E.01439
G1 X33.618 Y77.668 E.01686
G1 X33.106 Y77.833 E.01687
G1 X32.646 Y78.108 E.0168
G1 X32.259 Y78.478 E.01679
G1 X32.011 Y78.827 E.01342
G1 X31.803 Y79.31 E.01649
G1 X31.706 Y79.837 E.0168
G1 X31.729 Y80.372 E.01679
G1 X31.835 Y80.797 E.01373
G1 X32.06 Y81.265 E.01628
G1 X32.392 Y81.687 E.01684
G1 X32.806 Y82.021 E.01668
G1 X33.289 Y82.255 E.01683
G1 X33.812 Y82.374 E.01682
G1 X34.251 Y82.383 E.01377
G1 X34.873 Y82.23 E.02008
G1 X35.348 Y81.957 E.01718
G1 X35.306 Y82.447 E.01542
G1 X35.305 Y86.668 E.13235
G1 X35.404 Y86.909 E.00817
G1 X35.6 Y87.079 E.00813
G1 X35.863 Y87.144 E.00849
G1 X60.086 Y87.144 E.75949
G1 X60.211 Y87.13 E.00394
G1 X60.497 Y86.968 E.01031
G1 X60.609 Y86.795 E.00646
G1 X60.652 Y86.578 E.00694
G1 X60.644 Y82.534 E.1268
G1 X60.601 Y81.952 E.0183
G1 X61.108 Y82.251 E.01846
G1 X61.661 Y82.379 E.0178
G1 X62.247 Y82.354 E.01839
G1 X62.864 Y82.151 E.02037
G1 X63.237 Y81.891 E.01426
G1 X63.195 Y82.556 E.02089
G1 X63.19 Y99.458 E.52995
G1 X63.191 Y100.074 E.01931
G1 X63.237 Y101.222 E.03602
G1 X62.775 Y100.918 E.01734
G1 X62.317 Y100.768 E.01511
G1 X61.802 Y100.725 E.0162
G1 X61.262 Y100.81 E.01714
G1 X61.031 Y100.903 E.00781
G1 X60.601 Y101.161 E.01572
G1 X60.644 Y100.667 E.01555
G1 X60.652 Y96.536 E.12952
G1 X60.609 Y96.319 E.00694
G1 X60.496 Y96.146 E.00648
G1 X60.353 Y96.036 E.00566
G1 X60.086 Y95.97 E.00862
G1 X35.863 Y95.97 E.75949
G1 X35.552 Y96.063 E.01018
M73 P1 R30
G1 X35.36 Y96.277 E.00901
G1 X35.298 Y96.535 E.00832
G1 X35.306 Y100.437 E.12234
G1 X35.348 Y101.157 E.02261
G1 X34.975 Y100.927 E.01374
G1 X34.472 Y100.761 E.01661
G1 X33.844 Y100.739 E.0197
G1 X33.4 Y100.822 E.01416
G1 X32.916 Y101.027 E.01648
G1 X32.484 Y101.338 E.01669
G1 X32.129 Y101.742 E.01686
G1 X31.875 Y102.213 E.01678
G1 X31.748 Y102.63 E.01367
G1 X31.699 Y103.189 E.01759
G1 X31.771 Y103.69 E.01587
G1 X31.955 Y104.18 E.01641
G1 X32.249 Y104.629 E.01683
G1 X32.636 Y104.999 E.01679
G1 X33.012 Y105.237 E.01395
G1 X33.492 Y105.417 E.01607
G1 X34.023 Y105.49 E.01681
G1 X34.563 Y105.435 E.01702
G1 X35.087 Y105.231 E.01763
G1 X35.35 Y105.034 E.0103
G1 X35.306 Y105.547 E.01614
G1 X35.308 Y109.785 E.13288
G1 X35.413 Y110.021 E.0081
G1 X35.682 Y110.214 E.01038
G1 X35.863 Y110.244 E.00575
G1 X60.19 Y110.234 E.76275
G1 X60.438 Y110.122 E.00853
G1 X60.617 Y109.873 E.00962
G1 X60.652 Y109.679 E.00618
G1 X60.644 Y105.634 E.12683
G1 X60.601 Y105.052 E.0183
G1 X61.108 Y105.351 E.01846
G1 X61.661 Y105.479 E.0178
G1 X62.247 Y105.454 E.01839
G1 X62.79 Y105.291 E.01778
G1 X63.23 Y105.018 E.01624
G1 X63.196 Y105.555 E.01687
G1 X63.187 Y111.077 E.17314
G1 X63.113 Y111.729 E.02057
G1 X62.936 Y112.295 E.01859
G1 X62.618 Y112.888 E.0211
G1 X62.298 Y113.274 E.01572
G1 X61.889 Y113.637 E.01715
G1 X61.463 Y113.911 E.01588
G1 X60.993 Y114.107 E.01597
G1 X60.473 Y114.235 E.01679
G1 X59.941 Y114.282 E.01675
G1 X26.152 Y114.302 E1.05943
G1 X26.152 Y68.812 E1.4263
G1 X59.881 Y68.832 E1.05755
M73 P2 R30
G1 X60.232 Y68.849 E.01102
G1 X60.736 Y68.927 E.01599
G1 X61.218 Y69.092 E.01597
G1 X61.696 Y69.343 E.01693
G1 X62.103 Y69.644 E.01587
G1 X62.448 Y70.008 E.01572
G1 X62.764 Y70.466 E.01745
G1 X63.01 Y71.013 E.01881
G1 X63.148 Y71.573 E.01808
G1 X63.19 Y72.081 E.01598
G1 X63.197 Y77.594 E.17286
G1 X63.232 Y78.114 E.01634
G1 X62.802 Y77.834 E.01609
G1 X62.326 Y77.67 E.01579
G1 X61.802 Y77.625 E.01649
G1 X61.262 Y77.71 E.01714
G1 X61.031 Y77.803 E.00781
G1 X60.601 Y78.061 E.01572
G1 X60.644 Y77.567 E.01555
G1 X60.652 Y73.436 E.12952
G1 X60.617 Y73.24 E.00624
G1 X60.525 Y73.077 E.00587
G1 X60.364 Y72.942 E.00659
G1 X60.092 Y72.87 E.00882
G1 X35.863 Y72.87 E.75968
G1 X35.766 Y72.878 E.00305
G1 X35.527 Y72.981 E.00816
G1 X35.343 Y73.213 E.00928
G1 X35.298 Y73.435 E.0071
G1 X35.306 Y77.567 E.12956
G1 X35.344 Y78.019 E.01422
M204 P1000
G1 E-2.24 F4200
;WIPE_START
G1 F7200
G1 X35.35 Y78.079 E-.03342
G1 X35.065 Y77.873 E-.19488
G1 X34.607 Y77.697 E-.2719
G1 X34.154 Y77.624 E-.25428
G1 X33.784 Y77.654 E-.20552
;WIPE_END
G1 Z.4 F720
G1 X35.857 Y79.495 F9000
G1 Z.2 F720
G1 E3.2 F2400
M204 P600
;TYPE:External perimeter
;WIDTH:0.456348
G1 F1200
G1 X35.674 Y79.14 E.01373
;WIDTH:0.419999
G1 X35.318 Y78.568 E.02112
G1 X34.987 Y78.261 E.01415
G1 X34.472 Y78.048 E.01747
G1 X34.108 Y77.998 E.01152
G1 X33.659 Y78.043 E.01415
G1 X33.232 Y78.188 E.01414
G1 X32.848 Y78.426 E.01417
G1 X32.528 Y78.743 E.01412
G1 X32.323 Y79.038 E.01126
G1 X32.153 Y79.451 E.014
G1 X32.078 Y79.895 E.01412
G1 X32.105 Y80.346 E.01417
G1 X32.199 Y80.696 E.01136
G1 X32.396 Y81.095 E.01395
G1 X32.681 Y81.446 E.01418
G1 X33.035 Y81.721 E.01405
G1 X33.444 Y81.911 E.01414
G1 X33.886 Y82.005 E.01417
G1 X34.249 Y82.006 E.01138
G1 X34.772 Y81.867 E.01697
G1 X35.092 Y81.681 E.01161
G1 X35.409 Y81.293 E.01571
;WIDTH:0.420407
G1 X35.764 Y80.674 E.0224
;WIDTH:0.428677
G1 X35.868 Y80.344 E.0111
G1 X35.875 Y80.704 E.01155
;WIDTH:0.420407
G1 X35.834 Y81.441 E.02317
;WIDTH:0.419999
G1 X35.728 Y81.941 E.01603
G1 X35.683 Y82.448 E.01596
G1 X35.675 Y86.578 E.12949
G1 X35.728 Y86.709 E.00443
G1 X35.863 Y86.767 E.00461
G1 X60.086 Y86.767 E.75949
G1 X60.223 Y86.708 E.00468
G1 X60.275 Y86.578 E.00439
G1 X60.267 Y82.818 E.11789
G1 X60.244 Y82.19 E.0197
G1 X60.138 Y81.546 E.02046
G1 X60.075 Y80.969 E.0182
;WIDTH:0.433703
G1 X60.085 Y80.361 E.01976
G1 X60.239 Y80.799 E.01509
;WIDTH:0.419999
G1 X60.533 Y81.292 E.018
G1 X60.845 Y81.662 E.01518
G1 X61.281 Y81.916 E.01582
G1 X61.732 Y82.009 E.01444
G1 X62.097 Y81.999 E.01145
G1 X62.613 Y81.855 E.0168
G1 X62.931 Y81.661 E.01168
G1 X63.225 Y81.329 E.0139
G1 X63.417 Y80.94 E.0136
;WIDTH:0.466415
G1 X63.481 Y80.851 E.00386
;WIDTH:0.51283
G1 X63.545 Y80.762 E.00428
;WIDTH:0.559245
G1 X63.61 Y80.673 E.00473
;WIDTH:0.60566
G1 X63.674 Y80.584 E.00513
G1 X63.697 Y80.697 E.0054
;WIDTH:0.559245
G1 X63.721 Y80.81 E.00496
;WIDTH:0.51283
G1 X63.744 Y80.923 E.00451
;WIDTH:0.466415
G1 X63.767 Y81.036 E.00406
;WIDTH:0.419999
G1 X63.669 Y81.527 E.0157
G1 X63.597 Y82.049 E.01652
G1 X63.572 Y82.556 E.01592
G1 X63.567 Y99.826 E.54149
G1 X63.599 Y101.084 E.03946
G1 X63.67 Y101.598 E.01627
G1 X63.767 Y102.096 E.01591
;WIDTH:0.46634
G1 X63.744 Y102.205 E.00392
;WIDTH:0.512681
G1 X63.721 Y102.313 E.00431
;WIDTH:0.559022
G1 X63.698 Y102.422 E.00478
;WIDTH:0.605362
G1 X63.674 Y102.531 E.00522
G1 X63.61 Y102.441 E.00516
;WIDTH:0.559022
G1 X63.546 Y102.352 E.0047
;WIDTH:0.512681
G1 X63.481 Y102.263 E.0043
;WIDTH:0.46634
G1 X63.417 Y102.174 E.00386
;WIDTH:0.419999
G1 X63.258 Y101.833 E.0118
G1 X62.973 Y101.489 E.01401
G1 X62.581 Y101.241 E.01454
G1 X62.224 Y101.133 E.01169
G1 X61.817 Y101.104 E.01279
G1 X61.333 Y101.18 E.01536
G1 X60.925 Y101.382 E.01427
G1 X60.58 Y101.742 E.01563
G1 X60.303 Y102.207 E.01697
;WIDTH:0.438777
G1 X60.097 Y102.684 E.0171
G1 X60.075 Y102.269 E.01368
;WIDTH:0.419999
G1 X60.115 Y101.673 E.01873
G1 X60.222 Y101.173 E.01603
G1 X60.266 Y100.666 E.01596
G1 X60.275 Y96.536 E.12949
G1 X60.223 Y96.405 E.00442
G1 X60.086 Y96.347 E.00466
G1 X35.863 Y96.347 E.75949
G1 X35.747 Y96.387 E.00385
G1 X35.675 Y96.535 E.00516
G1 X35.683 Y100.436 E.12231
G1 X35.716 Y101.034 E.01878
G1 X35.813 Y101.575 E.01723
G1 X35.875 Y102.145 E.01798
;WIDTH:0.423806
G1 X35.873 Y102.837 E.02192
G1 X35.764 Y102.44 E.01304
;WIDTH:0.419999
G1 X35.409 Y101.821 E.02237
G1 X35.147 Y101.482 E.01343
G1 X34.785 Y101.253 E.01343
G1 X34.378 Y101.126 E.01337
G1 X33.841 Y101.116 E.01684
G1 X33.481 Y101.19 E.01152
G1 X33.071 Y101.371 E.01405
G1 X32.712 Y101.638 E.01403
G1 X32.419 Y101.983 E.01419
G1 X32.212 Y102.383 E.01412
G1 X32.112 Y102.73 E.01132
G1 X32.077 Y103.176 E.01403
G1 X32.142 Y103.621 E.0141
G1 X32.305 Y104.04 E.0141
G1 X32.559 Y104.413 E.01415
G1 X32.89 Y104.72 E.01415
G1 X33.197 Y104.909 E.0113
G1 X33.618 Y105.061 E.01403
G1 X34.065 Y105.115 E.01412
G1 X34.513 Y105.061 E.01415
G1 X34.937 Y104.885 E.01439
G1 X35.318 Y104.546 E.01599
G1 X35.654 Y104.005 E.01997
;WIDTH:0.456918
G1 X35.84 Y103.616 E.01484
G1 X35.875 Y104.031 E.01434
;WIDTH:0.419999
G1 X35.832 Y104.541 E.01605
G1 X35.727 Y105.041 E.01602
G1 X35.683 Y105.548 E.01596
G1 X35.675 Y109.678 E.12949
G1 X35.713 Y109.792 E.00377
G1 X35.863 Y109.867 E.00526
G1 X60.086 Y109.867 E.75949
G1 X60.204 Y109.826 E.00392
G1 X60.275 Y109.678 E.00515
G1 X60.267 Y105.918 E.11789
G1 X60.244 Y105.29 E.0197
G1 X60.138 Y104.646 E.02046
G1 X60.075 Y104.069 E.0182
;WIDTH:0.433703
G1 X60.085 Y103.461 E.01976
G1 X60.239 Y103.899 E.01509
;WIDTH:0.419999
G1 X60.533 Y104.392 E.018
G1 X60.845 Y104.762 E.01518
G1 X61.281 Y105.016 E.01582
G1 X61.732 Y105.109 E.01444
G1 X62.097 Y105.099 E.01145
G1 X62.613 Y104.955 E.0168
G1 X62.931 Y104.761 E.01168
G1 X63.231 Y104.422 E.01419
;WIDTH:0.443393
G1 X63.466 Y103.962 E.0172
;WIDTH:0.48396
G1 X63.518 Y103.893 E.00317
;WIDTH:0.524527
G1 X63.57 Y103.823 E.00349
;WIDTH:0.565094
G1 X63.622 Y103.754 E.00375
;WIDTH:0.60566
G1 X63.674 Y103.684 E.00408
G1 X63.695 Y103.77 E.00414
;WIDTH:0.565094
G1 X63.715 Y103.856 E.00383
;WIDTH:0.524527
G1 X63.735 Y103.941 E.0035
;WIDTH:0.48396
G1 X63.755 Y104.027 E.00324
;WIDTH:0.443393
G1 X63.691 Y104.513 E.01632
;WIDTH:0.419999
G1 X63.606 Y105.042 E.0168
G1 X63.573 Y105.556 E.01615
G1 X63.567 Y110.989 E.17035
G1 X63.54 Y111.491 E.01576
G1 X63.425 Y112.037 E.0175
G1 X63.207 Y112.611 E.01925
G1 X62.929 Y113.103 E.01772
G1 X62.564 Y113.541 E.01788
G1 X62.121 Y113.934 E.01857
G1 X61.639 Y114.246 E.018
G1 X61.106 Y114.467 E.01809
G1 X60.541 Y114.606 E.01824
G1 X59.953 Y114.659 E.01851
G1 X25.775 Y114.679 E1.07163
G1 X25.775 Y68.434 E1.44998
G1 X59.881 Y68.455 E1.06937
G1 X60.399 Y68.482 E.01626
M73 P3 R30
G1 X60.964 Y68.603 E.01812
G1 X61.509 Y68.81 E.01828
G1 X62.011 Y69.093 E.01807
G1 X62.451 Y69.459 E.01794
G1 X62.846 Y69.906 E.0187
G1 X63.154 Y70.383 E.0178
G1 X63.37 Y70.901 E.0176
G1 X63.519 Y71.505 E.01951
G1 X63.567 Y72.069 E.01775
G1 X63.573 Y77.334 E.16508
G1 X63.598 Y77.942 E.01908
G1 X63.672 Y78.487 E.01724
;WIDTH:0.44254
G1 X63.754 Y79.062 E.0193
;WIDTH:0.483246
G1 X63.734 Y79.155 E.00348
;WIDTH:0.523951
G1 X63.714 Y79.247 E.00377
;WIDTH:0.564657
G1 X63.694 Y79.339 E.00408
;WIDTH:0.605362
G1 X63.674 Y79.431 E.0044
G1 X63.622 Y79.361 E.00408
;WIDTH:0.564657
G1 X63.57 Y79.291 E.00378
;WIDTH:0.523951
G1 X63.518 Y79.221 E.00349
;WIDTH:0.483246
G1 X63.465 Y79.151 E.00321
;WIDTH:0.44254
G1 X63.258 Y78.733 E.0155
;WIDTH:0.419999
G1 X62.973 Y78.389 E.01401
G1 X62.607 Y78.157 E.01359
G1 X62.224 Y78.033 E.01262
G1 X61.819 Y78.004 E.01273
G1 X61.333 Y78.08 E.01542
G1 X60.925 Y78.282 E.01427
G1 X60.58 Y78.642 E.01563
G1 X60.303 Y79.107 E.01697
;WIDTH:0.438777
G1 X60.097 Y79.584 E.0171
G1 X60.075 Y79.169 E.01368
;WIDTH:0.419999
G1 X60.115 Y78.573 E.01873
G1 X60.222 Y78.073 E.01603
G1 X60.266 Y77.566 E.01596
G1 X60.275 Y73.436 E.12949
G1 X60.232 Y73.316 E.004
G1 X60.088 Y73.247 E.00501
G1 X35.863 Y73.247 E.75956
G1 X35.751 Y73.284 E.0037
G1 X35.675 Y73.434 E.00527
G1 X35.69 Y77.652 E.13225
G1 X35.874 Y79.034 E.04371
;WIDTH:0.456348
G1 X35.859 Y79.435 E.01379
M204 P1000
G1 E-2.24 F4200
;WIPE_START
G1 F7200
G1 X35.857 Y79.495 E-.03327
G1 X35.674 Y79.14 E-.22133
G1 X35.318 Y78.568 E-.37336
G1 X34.987 Y78.261 E-.25018
G1 X34.85 Y78.205 E-.08186
;WIPE_END
G1 Z.4 F720
G1 X63.674 Y102.531 F9000
G1 Z.2 F720
G1 E3.2 F2400
M204 P600
;WIDTH:0.605362
G1 F1200
G1 X63.697 Y102.799 E.01258
;WIDTH:0.560337
G1 X63.719 Y103.067 E.01157
G1 X63.697 Y103.375 E.01328
;WIDTH:0.605362
G1 X63.674 Y103.683 E.01444
;WIDTH:0.60566
G1 X63.674 Y103.684 E.00005
M204 P1000
G1 E-2.24 F4200
;WIPE_START
G1 F7200
G1 X63.674 Y103.683 E-.00055
G1 X63.697 Y103.375 E-.17116
G1 X63.719 Y103.067 E-.17112
G1 X63.697 Y102.799 E-.14902
G1 X63.674 Y102.531 E-.14906
;WIPE_END
G1 E-.31909 F4200
G1 Z.4 F720
G1 X60.082 Y103.435 F9000
G1 Z.2 F720
G1 E3.2 F2400
M204 P600
;WIDTH:0.441172
G1 F1200
G1 X60.086 Y102.727 E.02345
M204 P1000
G1 E-2.24 F4200
;WIPE_START
G1 F7200
G1 X60.082 Y103.435 E-.39236
;WIPE_END
G1 E-.56764 F4200
G1 Z.4 F720
G1 X60.082 Y80.335 F9000
G1 Z.2 F720
G1 E3.2 F2400
M204 P600
G1 F1200
G1 X60.086 Y79.627 E.02345
M204 P1000
G1 E-2.24 F4200
;WIPE_START
G1 F7200
G1 X60.082 Y80.335 E-.39236
;WIPE_END
G1 E-.56764 F4200
G1 Z.4 F720
G1 X63.674 Y79.431 F9000
G1 Z.2 F720
G1 E3.2 F2400
M204 P600
;WIDTH:0.605362
G1 F1200
G1 X63.697 Y79.699 E.01258
;WIDTH:0.560337
G1 X63.719 Y79.967 E.01157
G1 X63.697 Y80.275 E.01328
;WIDTH:0.605362
G1 X63.674 Y80.583 E.01444
;WIDTH:0.60566
G1 X63.674 Y80.584 E.00005
M204 P1000
G1 E-2.24 F4200
;WIPE_START
G1 F7200
G1 X63.674 Y80.583 E-.00055
G1 X63.697 Y80.275 E-.17116
G1 X63.719 Y79.967 E-.17112
G1 X63.697 Y79.699 E-.14902
G1 X63.674 Y79.431 E-.14906
;WIPE_END
G1 E-.31909 F4200
G1 Z.4 F720
G1 X35.87 Y80.326 F9000
G1 Z.2 F720
G1 E3.2 F2400
M204 P600
;WIDTH:0.46117
G1 F1200
G1 X35.854 Y79.541 E.02731
M204 P1000
G1 E-2.24 F4200
;WIPE_START
G1 F7200
G1 X35.87 Y80.326 E-.43511
;WIPE_END
G1 E-.52489 F4200
G1 Z.4 F720
G1 X35.873 Y102.837 F9000
G1 Z.2 F720
G1 E3.2 F2400
M204 P600
;WIDTH:0.460962
G1 F1200
G1 X35.854 Y103.571 E.02552
;WIDTH:0.46154
G1 X35.854 Y103.575 E.00014
M204 P1000
G1 E-2.24 F4200
;WIPE_START
G1 F7200
G1 X35.854 Y103.571 E-.00222
G1 X35.873 Y102.837 E-.40689
;WIPE_END
G1 E-.55089 F4200
G1 Z.4 F720
G1 X63.025 Y82.794 F9000
G1 Z.2 F720
G1 E3.2 F2400
