; generated by PrusaSlicer 2.7.3+MacOS-arm64 on 2024-05-25 at 14:39:53 UTC


;
;

;
;

;
;
; 

; external perimeters extrusion width = 0.45mm
; perimeters extrusion width = 0.45mm
; infill extrusion width = 0.45mm
; solid infill extrusion width = 0.45mm
; top infill extrusion width = 0.40mm
; first layer extrusion width = 0.42mm

M73 P0 R14
M201 X2500 Y2500 Z400 E5000 ; sets maximum accelerations, mm/sec^2
M203 X180 Y180 Z12 E80 ; sets maximum feedrates, mm / sec
M204 P2000 R1250 T2500 ; sets acceleration (P, T) and retract acceleration (R), mm/sec^2
M205 X8.00 Y8.00 Z2.00 E10.00 ; sets the jerk limits, mm/sec
M205 S0 T0 ; sets the minimum extruding and travel feed rate, mm/sec

; printing object servo_horn_L_v1.0.stl id:0 copy 0
; stop printing object servo_horn_L_v1.0.stl id:0 copy 0

;TYPE:Custom
M862.3 P "MINI" ; printer model check
G90 ; use absolute coordinates
M83 ; extruder relative mode
M104 S170 ; set extruder temp for bed leveling
M140 S60 ; set bed temp
M109 R170 ; wait for bed leveling temp
M190 S60 ; wait for bed temp
M204 T1250 ; set travel acceleration
G28 ; home all without mesh bed level
G29 ; mesh bed leveling 
M204 T2500 ; restore travel acceleration
M104 S215 ; set extruder temp
G92 E0
G1 Y-2 X179 F2400
G1 Z3 F720
M109 S215 ; wait for extruder temp

; intro line
G1 X170 F1000
G1 Z0.2 F720
G1 X110 E8 F900
G1 X40 E10 F700
M73 P1 R14
G92 E0

M221 S95 ; set flow
G21 ; set units to millimeters
G90 ; use absolute coordinates
M83 ; use relative distances for extrusion
M900 K0.2 ; Filament gcode LA 1.5
; ; Filament gcode LA 1.0

M107
;LAYER_CHANGE
;Z:0.2
;HEIGHT:0.2
G1 E-3.2 F4200
G1 Z.4 F720
G1 X22.297 Y37.717 F9000
G1 Z.2 F720
G1 E3.2 F2400
M204 P600
;TYPE:Skirt/Brim
;WIDTH:0.42
G1 F1200
G1 X48.701 Y25.849 E.90766
G1 X49.806 Y25.553 E.03587
G1 X50.555 Y25.481 E.02359
G1 X54.915 Y25.481 E.1367
G1 X55.702 Y25.561 E.0248
M73 P2 R14
G1 X56.768 Y25.849 E.03462
G1 X57.765 Y26.341 E.03486
G1 X58.672 Y27.037 E.03585
G1 X59.405 Y27.873 E.03486
G1 X59.977 Y28.863 E.03585
G1 X60.241 Y29.567 E.02357
G1 X60.457 Y30.657 E.03484
G1 X60.457 Y55.801 E.78837
G1 X60.114 Y57.262 E.04705
G1 X59.623 Y58.259 E.03485
G1 X58.672 Y59.421 E.04708
G1 X57.453 Y60.297 E.04707
G1 X56.049 Y60.828 E.04706
G1 X54.735 Y60.983 E.04149
G1 X50.163 Y60.952 E.14336
G1 X49.421 Y60.828 E.02359
G1 X48.369 Y60.471 E.03483
G1 X22.002 Y44.586 E.96516
G1 X20.992 Y43.517 E.04611
G1 X20.673 Y42.229 E.0416
G1 X20.673 Y40.229 E.06271
G1 X21.065 Y38.812 E.0461
G1 X22.252 Y37.757 E.04979
M204 P1000
G1 X22.252 Y37.757 F9000
G1 X22.451 Y38.061
M204 P600
G1 F1200
G1 X48.823 Y26.206 E.90658
G1 X49.879 Y25.923 E.03428
G1 X50.579 Y25.857 E.02205
G1 X54.89 Y25.857 E.13517
G1 X55.603 Y25.926 E.02246
G1 X56.647 Y26.206 E.03389
G1 X57.555 Y26.654 E.03175
G1 X58.423 Y27.32 E.0343
G1 X59.091 Y28.082 E.03177
G1 X59.638 Y29.03 E.03432
G1 X59.884 Y29.688 E.02203
G1 X60.081 Y30.682 E.03177
G1 X60.081 Y55.776 E.7868
G1 X59.757 Y57.141 E.04399
G1 X59.309 Y58.05 E.03177
G1 X58.423 Y59.137 E.04397
G1 X57.286 Y59.959 E.04399
G1 X55.975 Y60.458 E.04398
G1 X54.735 Y60.606 E.03916
G1 X50.188 Y60.575 E.14257
G1 X49.495 Y60.458 E.02204
G1 X48.535 Y60.133 E.03178
G1 X22.197 Y44.263 E.96414
G1 X21.281 Y43.252 E.04278
M73 P3 R14
G1 X21.05 Y42.229 E.03288
G1 X21.05 Y40.229 E.06271
G1 X21.441 Y38.922 E.04277
G1 X22.406 Y38.1 E.03975
M204 P1000
G1 E-2.24 F4200
;WIPE_START
G1 F7200
G1 X22.451 Y38.061 E-.033
G1 X23.977 Y37.375 E-.927
;WIPE_END
G1 Z.4 F720
; printing object servo_horn_L_v1.0.stl id:0 copy 0
G1 X51.762 Y29.802 F9000
G1 Z.2 F720
G1 E3.2 F2400
M204 P600
;TYPE:Perimeter
;WIDTH:0.528471
G1 F1200
G1 X51.59 Y29.832 E.00705
;WIDTH:0.572806
G1 X51.419 Y29.862 E.00765
;WIDTH:0.585324
G1 X50.864 Y30.129 E.02778
G1 X50.376 Y30.482 E.02716
;WIDTH:0.595206
G1 X50.003 Y30.876 E.02492
G1 X49.667 Y31.297 E.02474
G1 X49.384 Y31.844 E.02828
G1 X49.364 Y31.595 E.01147
G1 X49.419 Y30.906 E.03174
G1 X49.544 Y30.583 E.01591
;WIDTH:0.607653
G1 X49.756 Y30.302 E.01653
G1 X50.025 Y30.07 E.01668
;WIDTH:0.585324
G1 X50.412 Y29.908 E.01892
G1 X51.279 Y29.836 E.03924
;WIDTH:0.551595
G1 X51.52 Y29.819 E.01022
;WIDTH:0.517866
G1 X51.702 Y29.807 E.0072
M204 P1000
G1 E-2.24 F4200
;WIPE_START
G1 F7200
G1 X51.762 Y29.802 E-.03337
G1 X51.59 Y29.832 E-.09676
G1 X51.419 Y29.862 E-.09621
G1 X50.864 Y30.129 E-.3413
G1 X50.376 Y30.482 E-.33377
G1 X50.303 Y30.559 E-.05859
;WIPE_END
G1 Z.4 F720
G1 X54.018 Y29.853 F9000
G1 Z.2 F720
G1 E3.2 F2400
M204 P600
;WIDTH:0.585343
G1 F1200
G1 X54.387 Y29.853 E.01664
G1 X55.058 Y29.908 E.03037
G1 X55.384 Y30.034 E.01576
;WIDTH:0.593466
G1 X55.536 Y30.145 E.00862
;WIDTH:0.595197
G1 X55.889 Y30.521 E.02368
G1 X56.007 Y30.78 E.01307
G1 X56.106 Y31.337 E.02598
G1 X56.106 Y31.901 E.0259
G1 X55.802 Y31.297 E.03105
G1 X55.467 Y30.876 E.02471
G1 X55.093 Y30.482 E.02495
;WIDTH:0.585343
G1 X54.562 Y30.101 E.02948
G1 X54.072 Y29.878 E.02428
M204 P1000
G1 E-2.24 F4200
;WIPE_START
G1 F7200
G1 X54.018 Y29.853 E-.03298
G1 X54.387 Y29.853 E-.20449
G1 X55.058 Y29.908 E-.37309
G1 X55.384 Y30.034 E-.19368
G1 X55.536 Y30.145 E-.1043
G1 X55.6 Y30.213 E-.05146
;WIPE_END
G1 Z.4 F720
G1 X49.28 Y34.017 F9000
G1 Z.2 F720
G1 E3.2 F2400
M204 P600
;WIDTH:0.428572
G1 F1200
G1 X49.339 Y34.23 E.00709
;WIDTH:0.423749
G1 X49.559 Y34.789 E.01902
;WIDTH:0.419999
G1 X49.923 Y35.366 E.02139
G1 X50.599 Y36.049 E.03013
G1 X51.143 Y36.386 E.02006
G1 X51.684 Y36.607 E.01832
G1 X52.248 Y36.734 E.01813
G1 X52.847 Y36.766 E.01881
G1 X53.443 Y36.696 E.01882
G1 X54.02 Y36.526 E.01886
G1 X54.627 Y36.211 E.02144
G1 X55.363 Y35.597 E.03005
G1 X55.726 Y35.118 E.01884
G1 X56.003 Y34.585 E.01883
;WIDTH:0.42857
G1 X56.189 Y34.017 E.01917
G1 X56.194 Y34.618 E.01927
;WIDTH:0.419999
G1 X56.194 Y51.84 E.53998
;WIDTH:0.427806
G1 X56.19 Y52.445 E.01936
G1 X56.131 Y52.228 E.0072
;WIDTH:0.423327
G1 X55.91 Y51.669 E.01901
;WIDTH:0.419999
G1 X55.546 Y51.092 E.02139
G1 X54.871 Y50.409 E.03011
G1 X54.327 Y50.072 E.02006
G1 X53.586 Y49.804 E.02471
G1 X52.938 Y49.703 E.02056
G1 X52.511 Y49.706 E.01339
G1 X51.772 Y49.833 E.02351
G1 X51.45 Y49.932 E.01056
G1 X50.91 Y50.198 E.01887
G1 X50.368 Y50.608 E.02131
G1 X49.744 Y51.34 E.03016
G1 X49.467 Y51.873 E.01883
;WIDTH:0.427804
G1 X49.28 Y52.445 E.01926
G1 X49.276 Y51.84 E.01936
;WIDTH:0.419999
G1 X49.276 Y42.007 E.30831
G1 X49.201 Y41.568 E.01396
G1 X49.046 Y41.264 E.0107
G1 X48.736 Y40.943 E.01399
G1 X48.41 Y40.768 E.0116
G1 X47.956 Y40.688 E.01445
G1 X32.764 Y40.688 E.47633
G1 X32.908 Y40.472 E.00814
G1 X33.234 Y39.742 E.02507
G1 X33.423 Y39.541 E.00865
G1 X33.694 Y39.47 E.00878
G1 X47.956 Y39.47 E.44717
G1 X48.41 Y39.39 E.01445
G1 X48.736 Y39.215 E.0116
G1 X49.046 Y38.894 E.01399
G1 X49.217 Y38.542 E.01227
G1 X49.276 Y38.15 E.01243
G1 X49.276 Y34.618 E.11074
;WIDTH:0.428572
G1 X49.28 Y34.077 E.01735
M204 P1000
G1 E-2.24 F4200
;WIPE_START
G1 F7200
G1 X49.28 Y34.017 E-.03325
G1 X49.339 Y34.23 E-.12248
G1 X49.559 Y34.789 E-.33291
G1 X49.923 Y35.366 E-.37806
G1 X50.041 Y35.486 E-.0933
;WIPE_END
G1 Z.4 F720
G1 X52.695 Y30.077 F9000
G1 Z.2 F720
G1 E3.2 F2400
M204 P600
;WIDTH:0.419999
G1 F1200
G1 X52.88 Y30.075 E.0058
G1 X53.528 Y30.176 E.02056
G1 X54.181 Y30.42 E.02186
G1 X54.659 Y30.721 E.01771
G1 X55.125 Y31.19 E.02073
G1 X55.397 Y31.524 E.01351
G1 X55.648 Y31.999 E.01684
G1 X55.814 Y32.51 E.01685
G1 X55.892 Y33.041 E.01683
G1 X55.878 Y33.576 E.01678
G1 X55.774 Y34.103 E.01684
G1 X55.581 Y34.605 E.01686
G1 X55.307 Y35.067 E.01684
G1 X54.915 Y35.511 E.01857
G1 X54.396 Y35.913 E.02058
G1 X53.864 Y36.182 E.01869
G1 X53.348 Y36.331 E.01684
G1 X52.815 Y36.39 E.01681
G1 X52.28 Y36.358 E.0168
G1 X51.738 Y36.226 E.01749
M73 P4 R14
G1 X51.122 Y35.948 E.02119
G1 X50.645 Y35.595 E.01861
G1 X50.201 Y35.111 E.02059
G1 X49.888 Y34.605 E.01866
G1 X49.696 Y34.103 E.01685
G1 X49.591 Y33.576 E.01685
G1 X49.578 Y33.041 E.01678
G1 X49.655 Y32.51 E.01682
G1 X49.822 Y31.999 E.01686
G1 X50.072 Y31.524 E.01683
G1 X50.535 Y30.984 E.0223
G1 X50.829 Y30.708 E.01264
G1 X51.262 Y30.431 E.01612
G1 X51.832 Y30.205 E.01923
G1 X52.575 Y30.078 E.02363
G1 X52.635 Y30.077 E.00188
M204 P1000
G1 X52.635 Y30.077 F9000
G1 X52.725 Y30.46
M204 P600
G1 F1200
G1 X53.47 Y30.549 E.02353
G1 X54.036 Y30.768 E.01903
G1 X54.448 Y31.033 E.01536
G1 X54.847 Y31.446 E.01801
G1 X55.126 Y31.812 E.01443
G1 X55.292 Y32.125 E.01111
G1 X55.443 Y32.574 E.01485
G1 X55.515 Y33.041 E.01482
G1 X55.507 Y33.512 E.01477
G1 X55.418 Y33.977 E.01484
G1 X55.253 Y34.421 E.01485
G1 X55.014 Y34.829 E.01483
G1 X54.684 Y35.213 E.01588
G1 X54.165 Y35.615 E.02058
G1 X53.708 Y35.839 E.01596
G1 X53.158 Y35.983 E.01783
G1 X52.543 Y36.002 E.01929
G1 X51.948 Y35.898 E.01894
G1 X51.434 Y35.69 E.01739
G1 X50.923 Y35.339 E.01944
G1 X50.479 Y34.856 E.02057
G1 X50.217 Y34.421 E.01592
G1 X50.027 Y33.886 E.0178
G1 X49.955 Y33.417 E.01488
G1 X49.963 Y32.945 E.0148
G1 X50.051 Y32.481 E.01481
G1 X50.217 Y32.037 E.01486
G1 X50.478 Y31.602 E.01591
G1 X50.923 Y31.119 E.02059
G1 X51.334 Y30.822 E.0159
G1 X51.897 Y30.577 E.01925
G1 X52.639 Y30.449 E.02361
G1 X52.665 Y30.452 E.00082
M204 P1000
G1 X52.665 Y30.452 F9000
G1 X52.589 Y30.84
M204 P600
;TYPE:External perimeter
G1 F1200
G1 X52.703 Y30.821 E.00362
G1 X53.412 Y30.921 E.02245
G1 X53.891 Y31.116 E.01622
G1 X54.236 Y31.345 E.01298
G1 X54.714 Y31.857 E.02196
G1 X54.937 Y32.251 E.0142
G1 X55.071 Y32.637 E.01281
G1 X55.138 Y33.041 E.01284
G1 X55.135 Y33.449 E.01279
G1 X55.063 Y33.851 E.0128
G1 X54.924 Y34.236 E.01283
G1 X54.721 Y34.592 E.01285
G1 X54.453 Y34.915 E.01316
G1 X53.934 Y35.317 E.02058
G1 X53.522 Y35.506 E.01421
G1 X53.126 Y35.607 E.01281
G1 X52.575 Y35.627 E.01729
G1 X52.04 Y35.533 E.01703
G1 X51.546 Y35.324 E.01682
G1 X51.201 Y35.084 E.01318
G1 X50.756 Y34.601 E.02059
G1 X50.533 Y34.207 E.0142
G1 X50.399 Y33.82 E.01284
G1 X50.332 Y33.417 E.01281
G1 X50.335 Y33.009 E.01279
G1 X50.407 Y32.606 E.01284
G1 X50.546 Y32.222 E.0128
G1 X50.756 Y31.857 E.0132
G1 X51.2 Y31.374 E.02057
G1 X51.573 Y31.118 E.01418
G1 X51.963 Y30.948 E.01334
G1 X52.53 Y30.851 E.01804
M204 P1000
G1 E-2.24 F4200
;WIPE_START
G1 F7200
G1 X52.589 Y30.84 E-.03326
G1 X52.703 Y30.821 E-.06405
G1 X53.412 Y30.921 E-.39679
G1 X53.891 Y31.116 E-.2866
G1 X54.161 Y31.295 E-.1793
;WIPE_END
G1 Z.4 F720
G1 X56.19 Y32.445 F9000
G1 Z.2 F720
G1 E3.2 F2400
M204 P600
;TYPE:Perimeter
;WIDTH:0.427806
G1 F1200
G1 X56.21 Y32.743 E.00956
;WIDTH:0.386262
G1 X56.231 Y33.041 E.00853
;WIDTH:0.3634
G1 X56.222 Y33.635 E.01583
;WIDTH:0.395985
G1 X56.206 Y33.826 E.00563
;WIDTH:0.42857
G1 X56.189 Y34.017 E.00615
M204 P1000
G1 E-2.24 F4200
;WIPE_START
G1 F7200
G1 X56.206 Y33.826 E-.10626
G1 X56.222 Y33.635 E-.10622
G1 X56.231 Y33.041 E-.32921
G1 X56.21 Y32.743 E-.16555
G1 X56.19 Y32.445 E-.16551
;WIPE_END
G1 E-.08725 F4200
G1 Z.4 F720
G1 X51.762 Y29.802 F9000
G1 Z.2 F720
G1 E3.2 F2400
M204 P600
;WIDTH:0.484136
G1 F1200
G1 X52.013 Y29.781 E.00924
;WIDTH:0.441155
G1 X52.265 Y29.759 E.00838
;WIDTH:0.398174
G1 X52.517 Y29.738 E.00747
;WIDTH:0.40434
G1 X53.053 Y29.763 E.01613
;WIDTH:0.453488
G1 X53.589 Y29.787 E.01832
M204 P1000
G1 E-2.24 F4200
;WIPE_START
G1 F7200
G1 X53.053 Y29.763 E-.29733
G1 X52.517 Y29.738 E-.29736
G1 X52.265 Y29.759 E-.14013
G1 X52.013 Y29.781 E-.14018
G1 X51.86 Y29.794 E-.085
;WIPE_END
G1 Z.4 F720
G1 X49.28 Y34.017 F9000
G1 Z.2 F720
G1 E3.2 F2400
M204 P600
;WIDTH:0.428572
G1 F1200
G1 X49.259 Y33.717 E.00964
;WIDTH:0.386645
G1 X49.238 Y33.417 E.0086
;WIDTH:0.3634
G1 X49.248 Y32.822 E.01586
;WIDTH:0.395602
G1 X49.264 Y32.634 E.00553
;WIDTH:0.427804
G1 X49.28 Y32.445 E.00607
M204 P1000
G1 E-2.24 F4200
;WIPE_START
G1 F7200
G1 X49.264 Y32.634 E-.10511
G1 X49.248 Y32.822 E-.10456
G1 X49.238 Y33.417 E-.32978
G1 X49.259 Y33.717 E-.16666
G1 X49.28 Y34.017 E-.16666
;WIPE_END
G1 E-.08723 F4200
G1 Z.4 F720
G1 X49.364 Y54.557 F9000
G1 Z.2 F720
G1 E3.2 F2400
M204 P600
;WIDTH:0.595197
G1 F1200
G1 X49.667 Y55.161 E.03103
G1 X50.003 Y55.582 E.02474
G1 X50.376 Y55.976 E.02492
;WIDTH:0.585343
G1 X50.912 Y56.36 E.02974
G1 X51.453 Y56.605 E.02679
G1 X51.082 Y56.605 E.01673
G1 X50.412 Y56.55 E.03032
G1 X50.086 Y56.423 E.01578
;WIDTH:0.593468
G1 X49.934 Y56.313 E.00859
;WIDTH:0.595197
G1 X49.58 Y55.937 E.02372
G1 X49.463 Y55.678 E.01305
G1 X49.364 Y55.13 E.02557
G1 X49.364 Y54.617 E.02356
M204 P1000
G1 E-2.24 F4200
;WIPE_START
G1 F7200
G1 X49.364 Y54.557 E-.03325
G1 X49.667 Y55.161 E-.37447
G1 X50.003 Y55.582 E-.2985
G1 X50.318 Y55.914 E-.25378
;WIPE_END
G1 Z.4 F720
G1 X56.11 Y54.533 F9000
G1 Z.2 F720
G1 E3.2 F2400
M204 P600
;WIDTH:0.586931
G1 F1200
G1 X56.11 Y54.863 E.01493
G1 X56.058 Y55.526 E.03008
G1 X55.929 Y55.877 E.01692
;WIDTH:0.598024
G1 X55.717 Y56.16 E.01632
G1 X55.443 Y56.384 E.01634
;WIDTH:0.593263
G1 X55.116 Y56.53 E.01639
G1 X54.636 Y56.601 E.0222
G1 X54.064 Y56.601 E.02618
G1 X54.68 Y56.28 E.03179
;WIDTH:0.593543
G1 X55.199 Y55.877 E.03008
G1 X55.466 Y55.602 E.01755
;WIDTH:0.586931
G1 X55.857 Y55.055 E.03041
G1 X56.084 Y54.587 E.02353
M204 P1000
G1 E-2.24 F4200
;WIPE_START
G1 F7200
G1 X56.11 Y54.533 E-.03321
G1 X56.11 Y54.863 E-.18287
G1 X56.058 Y55.526 E-.36854
G1 X55.929 Y55.877 E-.20723
G1 X55.747 Y56.119 E-.16815
;WIPE_END
G1 Z.4 F720
G1 X52.695 Y50.077 F9000
G1 Z.2 F720
G1 E3.2 F2400
M204 P600
;WIDTH:0.419999
G1 F1200
G1 X52.88 Y50.075 E.0058
G1 X53.528 Y50.176 E.02056
G1 X54.181 Y50.42 E.02186
G1 X54.659 Y50.721 E.01771
G1 X55.269 Y51.347 E.02741
G1 X55.581 Y51.853 E.01864
G1 X55.774 Y52.355 E.01686
G1 X55.878 Y52.881 E.01681
G1 X55.892 Y53.417 E.01681
G1 X55.814 Y53.948 E.01683
G1 X55.648 Y54.459 E.01685
G1 X55.397 Y54.934 E.01684
G1 X55.07 Y55.359 E.01681
G1 X54.596 Y55.758 E.01943
G1 X54.208 Y56.027 E.0148
G1 X53.713 Y56.236 E.01685
G1 X53.19 Y56.358 E.01684
G1 X52.655 Y56.39 E.0168
G1 X52.129 Y56.333 E.01659
G1 X51.723 Y56.22 E.01321
G1 X51.154 Y55.969 E.0195
G1 X50.692 Y55.642 E.01775
G1 X50.345 Y55.268 E.016
G1 X50.073 Y54.934 E.01351
G1 X49.822 Y54.459 E.01684
G1 X49.656 Y53.951 E.01676
G1 X49.578 Y53.417 E.01692
G1 X49.591 Y52.881 E.01681
G1 X49.696 Y52.355 E.01682
G1 X49.888 Y51.853 E.01685
G1 X50.201 Y51.347 E.01866
G1 X50.645 Y50.864 E.02057
G1 X51.122 Y50.51 E.01862
G1 X51.606 Y50.275 E.01687
G1 X52.575 Y50.078 E.031
G1 X52.635 Y50.077 E.00188
M204 P1000
G1 X52.635 Y50.077 F9000
G1 X52.725 Y50.46
M204 P600
G1 F1200
G1 X53.47 Y50.549 E.02353
G1 X54.036 Y50.768 E.01903
G1 X54.547 Y51.119 E.01944
G1 X54.991 Y51.602 E.02057
G1 X55.253 Y52.037 E.01592
G1 X55.443 Y52.574 E.01786
G1 X55.515 Y53.041 E.01482
G1 X55.507 Y53.512 E.01477
G1 X55.418 Y53.977 E.01484
G1 X55.253 Y54.421 E.01485
G1 X54.997 Y54.85 E.01566
G1 X54.684 Y55.213 E.01503
G1 X54.165 Y55.615 E.02058
G1 X53.708 Y55.839 E.01596
G1 X53.207 Y55.976 E.01629
G1 X52.687 Y56.015 E.01635
G1 X52.221 Y55.967 E.01469
G1 X51.869 Y55.872 E.01143
G1 X51.353 Y55.649 E.01763
G1 X50.923 Y55.339 E.01662
G1 X50.479 Y54.856 E.02057
G1 X50.217 Y54.421 E.01592
G1 X50.027 Y53.886 E.0178
G1 X49.955 Y53.417 E.01488
G1 X49.963 Y52.945 E.0148
G1 X50.051 Y52.481 E.01481
G1 X50.217 Y52.037 E.01486
G1 X50.478 Y51.602 E.01591
G1 X50.923 Y51.119 E.02059
G1 X51.334 Y50.822 E.0159
G1 X51.899 Y50.576 E.01932
G1 X52.639 Y50.449 E.02354
G1 X52.665 Y50.452 E.00082
M204 P1000
G1 X52.665 Y50.452 F9000
G1 X52.589 Y50.84
M204 P600
;TYPE:External perimeter
G1 F1200
G1 X52.703 Y50.821 E.00362
G1 X53.412 Y50.921 E.02245
G1 X53.891 Y51.116 E.01622
G1 X54.269 Y51.374 E.01435
G1 X54.714 Y51.857 E.02059
G1 X54.937 Y52.251 E.0142
G1 X55.071 Y52.637 E.01281
G1 X55.138 Y53.041 E.01284
G1 X55.135 Y53.449 E.01279
G1 X55.063 Y53.851 E.0128
G1 X54.924 Y54.236 E.01283
G1 X54.704 Y54.612 E.01366
G1 X54.361 Y54.986 E.01591
G1 X53.934 Y55.317 E.01694
G1 X53.522 Y55.506 E.01421
G1 X53.126 Y55.607 E.01281
G1 X52.719 Y55.639 E.0128
G1 X52.314 Y55.602 E.01275
G1 X52.014 Y55.524 E.00972
G1 X51.552 Y55.328 E.01574
G1 X51.201 Y55.084 E.0134
G1 X50.756 Y54.601 E.02059
G1 X50.533 Y54.207 E.0142
G1 X50.399 Y53.821 E.01281
G1 X50.332 Y53.417 E.01284
G1 X50.335 Y53.009 E.01279
G1 X50.407 Y52.606 E.01284
G1 X50.546 Y52.222 E.0128
G1 X50.756 Y51.857 E.0132
G1 X51.2 Y51.374 E.02057
G1 X51.573 Y51.118 E.01418
G1 X51.963 Y50.948 E.01334
G1 X52.53 Y50.851 E.01804
