; generated by PrusaSlicer 2.7.3+MacOS-arm64 on 2024-05-25 at 14:40:34 UTC


;
;

;
;

;
;
; 

; external perimeters extrusion width = 0.45mm
; perimeters extrusion width = 0.45mm
; infill extrusion width = 0.45mm
; solid infill extrusion width = 0.45mm
; top infill extrusion width = 0.40mm
; first layer extrusion width = 0.42mm

M73 P0 R15
M201 X2500 Y2500 Z400 E5000 ; sets maximum accelerations, mm/sec^2
M203 X180 Y180 Z12 E80 ; sets maximum feedrates, mm / sec
M204 P2000 R1250 T2500 ; sets acceleration (P, T) and retract acceleration (R), mm/sec^2
M205 X8.00 Y8.00 Z2.00 E10.00 ; sets the jerk limits, mm/sec
M205 S0 T0 ; sets the minimum extruding and travel feed rate, mm/sec

; printing object servo_horn_R_v1.0.stl id:0 copy 0
; stop printing object servo_horn_R_v1.0.stl id:0 copy 0

;TYPE:Custom
M862.3 P "MINI" ; printer model check
G90 ; use absolute coordinates
M83 ; extruder relative mode
M104 S170 ; set extruder temp for bed leveling
M140 S60 ; set bed temp
M109 R170 ; wait for bed leveling temp
M190 S60 ; wait for bed temp
M204 T1250 ; set travel acceleration
G28 ; home all without mesh bed level
G29 ; mesh bed leveling 
M204 T2500 ; restore travel acceleration
M104 S215 ; set extruder temp
G92 E0
G1 Y-2 X179 F2400
G1 Z3 F720
M73 P0 R14
M109 S215 ; wait for extruder temp

; intro line
G1 X170 F1000
G1 Z0.2 F720
G1 X110 E8 F900
G1 X40 E10 F700
M73 P1 R14
G92 E0

M221 S95 ; set flow
G21 ; set units to millimeters
G90 ; use absolute coordinates
M83 ; use relative distances for extrusion
M900 K0.2 ; Filament gcode LA 1.5
; ; Filament gcode LA 1.0

M107
;LAYER_CHANGE
;Z:0.2
;HEIGHT:0.2
G1 E-3.2 F4200
G1 Z.4 F720
G1 X27.897 Y26.854 F9000
G1 Z.2 F720
G1 E3.2 F2400
M204 P600
;TYPE:Skirt/Brim
;WIDTH:0.42
G1 F1200
G1 X29.173 Y26.063 E.04707
G1 X29.877 Y25.799 E.02357
G1 X30.967 Y25.583 E.03484
G1 X35.719 Y25.557 E.149
G1 X36.853 Y25.706 E.03586
G1 X37.817 Y26.022 E.03181
G1 X63.977 Y37.794 E.89945
G1 X65.108 Y38.733 E.04609
G1 X65.601 Y40.305 E.05166
M73 P2 R14
G1 X65.601 Y42.305 E.06271
G1 X65.208 Y43.723 E.04614
G1 X64.271 Y44.662 E.04159
G1 X38.257 Y60.373 E.95286
G1 X37.201 Y60.811 E.03585
G1 X36.111 Y61.028 E.03485
G1 X31.539 Y61.059 E.14336
G1 X30.61 Y60.981 E.02923
G1 X29.173 Y60.547 E.04707
G1 X28.509 Y60.193 E.02359
G1 X27.602 Y59.497 E.03585
G1 X27.088 Y58.947 E.0236
G1 X26.471 Y58.023 E.03484
G1 X26.159 Y57.338 E.0236
G1 X25.863 Y56.234 E.03584
G1 X25.785 Y55.305 E.02923
G1 X25.785 Y31.305 E.7525
G1 X25.863 Y30.376 E.02923
G1 X26.297 Y28.939 E.04707
G1 X26.869 Y27.949 E.03585
G1 X27.856 Y26.898 E.04521
M204 P1000
G1 X27.856 Y26.898 F9000
G1 X28.12 Y27.163
M204 P600
G1 F1200
G1 X28.145 Y27.138 E.00111
G1 X29.339 Y26.402 E.04398
G1 X29.998 Y26.156 E.02206
G1 X30.992 Y25.959 E.03177
G1 X35.694 Y25.933 E.14743
G1 X36.779 Y26.076 E.03431
G1 X37.662 Y26.366 E.02914
G1 X63.822 Y38.137 E.89944
G1 X64.853 Y39.031 E.04279
G1 X65.224 Y40.305 E.0416
G1 X65.224 Y42.305 E.06271
G1 X64.832 Y43.612 E.04278
G1 X64.076 Y44.34 E.03291
G1 X38.09 Y60.035 E.95185
G1 X37.079 Y60.454 E.03431
G1 X36.086 Y60.651 E.03174
G1 X31.539 Y60.682 E.14257
G1 X30.684 Y60.611 E.0269
G1 X29.339 Y60.209 E.04401
G1 X28.718 Y59.88 E.02203
G1 X27.85 Y59.214 E.0343
G1 X27.372 Y58.699 E.02203
G1 X26.809 Y57.857 E.03176
G1 X26.516 Y57.217 E.02207
G1 X26.233 Y56.16 E.03431
G1 X26.162 Y55.305 E.0269
G1 X26.162 Y31.305 E.7525
G1 X26.233 Y30.45 E.0269
M73 P3 R14
G1 X26.635 Y29.106 E.04398
G1 X27.372 Y27.912 E.04399
G1 X28.078 Y27.205 E.03133
M204 P1000
G1 E-2.24 F4200
;WIPE_START
G1 F7200
G1 X28.12 Y27.163 E-.03292
G1 X28.145 Y27.138 E-.01959
G1 X29.339 Y26.402 E-.77728
G1 X29.559 Y26.32 E-.13021
;WIPE_END
G1 Z.4 F720
; printing object servo_horn_R_v1.0.stl id:0 copy 0
G1 X34.822 Y29.929 F9000
G1 Z.2 F720
G1 E3.2 F2400
M204 P600
;TYPE:Perimeter
;WIDTH:0.585344
G1 F1200
G1 X35.191 Y29.929 E.01664
G1 X35.862 Y29.984 E.03037
G1 X36.188 Y30.111 E.01578
;WIDTH:0.593468
G1 X36.34 Y30.221 E.00859
;WIDTH:0.595197
G1 X36.693 Y30.597 E.02368
G1 X36.811 Y30.856 E.01307
G1 X36.91 Y31.404 E.02557
G1 X36.91 Y31.977 E.02631
G1 X36.606 Y31.373 E.03105
G1 X36.271 Y30.952 E.02471
G1 X35.898 Y30.558 E.02492
;WIDTH:0.585344
G1 X35.366 Y30.177 E.02951
G1 X34.876 Y29.954 E.02428
M204 P1000
G1 E-2.24 F4200
;WIPE_START
G1 F7200
G1 X34.822 Y29.929 E-.03298
G1 X35.191 Y29.929 E-.20449
G1 X35.862 Y29.984 E-.37309
G1 X36.188 Y30.111 E-.19388
G1 X36.34 Y30.221 E-.10398
G1 X36.404 Y30.289 E-.05158
;WIPE_END
G1 Z.4 F720
G1 X30.334 Y31.629 F9000
G1 Z.2 F720
G1 E3.2 F2400
M204 P600
;WIDTH:0.606033
G1 F1200
G1 X30.173 Y31.946 E.01665
G1 X30.184 Y31.29 E.03072
G1 X30.262 Y30.887 E.01922
G1 X30.447 Y30.514 E.0195
G1 X30.687 Y30.255 E.01653
;WIDTH:0.600136
G1 X30.946 Y30.078 E.01453
;WIDTH:0.570436
G1 X31.385 Y29.937 E.02022
;WIDTH:0.566891
G1 X32.204 Y29.899 E.03572
;WIDTH:0.525514
G1 X32.566 Y29.879 E.01455
;WIDTH:0.520395
G1 X32.396 Y29.912 E.00688
;WIDTH:0.556653
G1 X32.226 Y29.946 E.00741
;WIDTH:0.566891
G1 X31.88 Y30.097 E.01645
G1 X31.277 Y30.486 E.03126
;WIDTH:0.606033
G1 X30.898 Y30.845 E.02444
G1 X30.466 Y31.371 E.03187
G1 X30.362 Y31.576 E.01076
M204 P1000
G1 E-2.24 F4200
;WIPE_START
G1 F7200
G1 X30.334 Y31.629 E-.03322
G1 X30.173 Y31.946 E-.19703
G1 X30.184 Y31.29 E-.36358
G1 X30.262 Y30.887 E-.22747
G1 X30.373 Y30.663 E-.1387
;WIPE_END
G1 Z.4 F720
G1 X37.031 Y41.889 F9000
G1 Z.2 F720
G1 E3.2 F2400
M204 P600
;WIDTH:0.419999
G1 F1200
G1 X36.998 Y42.084 E.0062
G1 X36.998 Y51.917 E.30831
;WIDTH:0.427806
G1 X36.994 Y52.521 E.01933
G1 X36.935 Y52.304 E.0072
;WIDTH:0.423327
G1 X36.714 Y51.745 E.01901
;WIDTH:0.419999
G1 X36.35 Y51.168 E.02139
G1 X35.675 Y50.485 E.03011
G1 X35.131 Y50.148 E.02006
G1 X34.39 Y49.88 E.02471
G1 X33.742 Y49.779 E.02056
G1 X33.315 Y49.782 E.01339
G1 X32.576 Y49.909 E.02351
G1 X32.254 Y50.008 E.01056
G1 X31.715 Y50.274 E.01885
G1 X31.172 Y50.685 E.02135
G1 X30.548 Y51.416 E.03013
G1 X30.271 Y51.949 E.01883
;WIDTH:0.427804
G1 X30.084 Y52.521 E.01926
G1 X30.08 Y51.916 E.01936
;WIDTH:0.419999
G1 X30.08 Y34.694 E.53998
;WIDTH:0.428572
G1 X30.084 Y34.093 E.01927
G1 X30.143 Y34.306 E.00709
;WIDTH:0.423749
G1 X30.363 Y34.866 E.01905
;WIDTH:0.419999
G1 X30.727 Y35.442 E.02136
G1 X31.172 Y35.926 E.02061
G1 X31.715 Y36.337 E.02135
G1 X32.382 Y36.644 E.02302
G1 X33.052 Y36.81 E.02164
G1 X33.651 Y36.842 E.01881
G1 X34.247 Y36.772 E.01882
G1 X34.824 Y36.602 E.01886
G1 X35.431 Y36.287 E.02144
G1 X36.167 Y35.673 E.03005
G1 X36.53 Y35.195 E.01882
G1 X36.807 Y34.661 E.01886
;WIDTH:0.42857
G1 X36.993 Y34.093 E.01917
G1 X36.998 Y34.694 E.01927
;WIDTH:0.419999
G1 X36.998 Y38.227 E.11077
G1 X37.056 Y38.615 E.0123
G1 X37.227 Y38.971 E.01238
G1 X37.537 Y39.291 E.01397
G1 X37.863 Y39.466 E.0116
G1 X38.317 Y39.546 E.01445
G1 X52.526 Y39.546 E.44551
G1 X52.848 Y39.623 E.01038
G1 X53.047 Y39.801 E.00837
G1 X53.226 Y40.274 E.01586
G1 X53.51 Y40.764 E.01776
G1 X38.317 Y40.764 E.47637
G1 X37.863 Y40.844 E.01445
G1 X37.537 Y41.019 E.0116
G1 X37.227 Y41.34 E.01399
G1 X37.073 Y41.644 E.01068
G1 X37.041 Y41.83 E.00592
M204 P1000
G1 E-2.24 F4200
;WIPE_START
G1 F7200
G1 X37.031 Y41.889 E-.03316
G1 X36.998 Y42.084 E-.1096
G1 X36.998 Y43.559 E-.81724
;WIPE_END
G1 Z.4 F720
G1 X30.774 Y31.798 F9000
G1 Z.2 F720
G1 E3.2 F2400
M204 P600
G1 F1200
G1 X31.005 Y31.423 E.01381
G1 X31.449 Y30.94 E.02057
G1 X31.926 Y30.586 E.01862
G1 X32.41 Y30.352 E.01686
G1 X33.379 Y30.154 E.03101
G1 X33.684 Y30.152 E.00956
G1 X34.332 Y30.253 E.02056
G1 X34.985 Y30.496 E.02185
G1 X35.444 Y30.784 E.01699
G1 X35.929 Y31.267 E.02146
G1 X36.201 Y31.6 E.01348
G1 X36.452 Y32.075 E.01684
G1 X36.618 Y32.586 E.01685
G1 X36.696 Y33.117 E.01683
G1 X36.682 Y33.653 E.01681
G1 X36.578 Y34.18 E.01684
G1 X36.386 Y34.681 E.01682
G1 X36.111 Y35.143 E.01686
G1 X35.719 Y35.587 E.01857
G1 X35.2 Y35.989 E.02058
G1 X34.668 Y36.259 E.01871
G1 X34.152 Y36.407 E.01683
G1 X33.619 Y36.467 E.01682
G1 X33.084 Y36.435 E.0168
G1 X32.527 Y36.296 E.018
G1 X31.926 Y36.025 E.02067
G1 X31.45 Y35.671 E.0186
G1 X31.005 Y35.187 E.02061
G1 X30.877 Y35.01 E.00685
G1 X30.626 Y34.535 E.01684
G1 X30.46 Y34.028 E.01673
G1 X30.382 Y33.493 E.01695
G1 X30.396 Y32.958 E.01678
G1 X30.5 Y32.431 E.01684
G1 X30.692 Y31.929 E.01685
G1 X30.742 Y31.849 E.00296
M204 P1000
G1 X30.742 Y31.849 F9000
G1 X31.072 Y32.032
M204 P600
G1 F1200
G1 X31.086 Y31.998 E.00115
G1 X31.33 Y31.627 E.01392
G1 X31.727 Y31.195 E.0184
G1 X32.138 Y30.898 E.0159
G1 X32.702 Y30.653 E.01928
G1 X33.443 Y30.525 E.02358
G1 X34.274 Y30.625 E.02624
M73 P4 R14
G1 X34.84 Y30.844 E.01903
G1 X35.323 Y31.167 E.01822
G1 X35.795 Y31.678 E.02181
G1 X36.057 Y32.114 E.01595
G1 X36.247 Y32.65 E.01783
G1 X36.319 Y33.117 E.01482
G1 X36.311 Y33.589 E.0148
G1 X36.222 Y34.054 E.01484
G1 X36.057 Y34.497 E.01482
G1 X35.818 Y34.905 E.01483
G1 X35.488 Y35.289 E.01588
G1 X34.969 Y35.691 E.02058
G1 X34.512 Y35.915 E.01596
G1 X34.005 Y36.054 E.01648
G1 X33.491 Y36.091 E.01616
G1 X33.025 Y36.044 E.01469
G1 X32.673 Y35.948 E.01144
G1 X32.138 Y35.713 E.01832
G1 X31.727 Y35.416 E.0159
G1 X31.283 Y34.932 E.02059
G1 X31.206 Y34.826 E.00411
G1 X30.981 Y34.409 E.01486
G1 X30.831 Y33.961 E.01481
G1 X30.759 Y33.493 E.01485
G1 X30.767 Y33.022 E.01477
G1 X30.855 Y32.557 E.01484
G1 X31.049 Y32.088 E.01591
M204 P1000
G1 X31.049 Y32.088 F9000
G1 X31.357 Y32.324
M204 P600
;TYPE:External perimeter
G1 F1200
G1 X31.415 Y32.182 E.00481
G1 X31.608 Y31.882 E.01118
G1 X32.004 Y31.45 E.01837
G1 X32.377 Y31.194 E.01418
G1 X32.767 Y31.024 E.01334
G1 X33.507 Y30.897 E.02354
G1 X34.216 Y30.998 E.02245
G1 X34.695 Y31.192 E.0162
G1 X35.073 Y31.45 E.01435
G1 X35.518 Y31.934 E.02061
G1 X35.741 Y32.327 E.01417
G1 X35.875 Y32.714 E.01284
G1 X35.942 Y33.117 E.01281
G1 X35.939 Y33.525 E.01279
G1 X35.867 Y33.928 E.01284
G1 X35.728 Y34.312 E.0128
G1 X35.525 Y34.668 E.01285
G1 X35.257 Y34.991 E.01316
G1 X34.738 Y35.393 E.02058
G1 X34.326 Y35.582 E.01421
G1 X33.93 Y35.683 E.01281
G1 X33.523 Y35.715 E.0128
G1 X33.118 Y35.678 E.01275
G1 X32.818 Y35.6 E.00972
G1 X32.35 Y35.4 E.01596
G1 X32.005 Y35.16 E.01318
G1 X31.534 Y34.641 E.02197
G1 X31.337 Y34.283 E.01281
G1 X31.203 Y33.897 E.01281
G1 X31.136 Y33.493 E.01284
G1 X31.139 Y33.086 E.01276
G1 X31.211 Y32.683 E.01284
G1 X31.335 Y32.379 E.01029
M204 P1000
G1 E-2.24 F4200
;WIPE_START
G1 F7200
G1 X31.357 Y32.324 E-.03283
G1 X31.415 Y32.182 E-.085
G1 X31.608 Y31.882 E-.19768
G1 X32.004 Y31.45 E-.32476
G1 X32.377 Y31.194 E-.2507
G1 X32.491 Y31.144 E-.06903
;WIPE_END
G1 Z.4 F720
G1 X30.084 Y34.093 F9000
G1 Z.2 F720
G1 E3.2 F2400
M204 P600
;TYPE:Perimeter
;WIDTH:0.428572
G1 F1200
G1 X30.063 Y33.793 E.00964
;WIDTH:0.386645
G1 X30.042 Y33.493 E.0086
;WIDTH:0.3634
G1 X30.052 Y32.899 E.01583
;WIDTH:0.395603
G1 X30.068 Y32.71 E.00556
;WIDTH:0.427806
G1 X30.084 Y32.521 E.00607
M204 P1000
G1 E-2.24 F4200
;WIPE_START
G1 F7200
G1 X30.068 Y32.71 E-.10511
G1 X30.052 Y32.899 E-.10511
G1 X30.042 Y33.493 E-.32922
G1 X30.063 Y33.793 E-.16666
G1 X30.084 Y34.093 E-.16666
;WIPE_END
G1 E-.08724 F4200
G1 Z.4 F720
G1 X32.566 Y29.879 F9000
G1 Z.2 F720
G1 E3.2 F2400
M204 P600
;WIDTH:0.484136
G1 F1200
G1 X32.817 Y29.857 E.00924
;WIDTH:0.441155
G1 X33.069 Y29.836 E.00837
;WIDTH:0.398174
G1 X33.321 Y29.814 E.00747
;WIDTH:0.40434
G1 X33.857 Y29.839 E.01613
;WIDTH:0.453488
G1 X34.393 Y29.863 E.01832
M204 P1000
G1 E-2.24 F4200
;WIPE_START
G1 F7200
G1 X33.857 Y29.839 E-.29733
G1 X33.321 Y29.814 E-.29736
G1 X33.069 Y29.836 E-.14018
G1 X32.817 Y29.857 E-.14013
G1 X32.664 Y29.87 E-.085
;WIPE_END
G1 Z.4 F720
G1 X36.994 Y32.521 F9000
G1 Z.2 F720
G1 E3.2 F2400
M204 P600
;WIDTH:0.427806
G1 F1200
G1 X37.014 Y32.819 E.00956
;WIDTH:0.386263
G1 X37.035 Y33.117 E.00853
;WIDTH:0.3634
G1 X37.026 Y33.712 E.01586
;WIDTH:0.395985
G1 X37.01 Y33.903 E.00563
;WIDTH:0.42857
G1 X36.993 Y34.093 E.00612
M204 P1000
G1 E-2.24 F4200
;WIPE_START
G1 F7200
G1 X37.01 Y33.903 E-.10571
G1 X37.026 Y33.712 E-.10622
G1 X37.035 Y33.117 E-.32977
G1 X37.014 Y32.819 E-.16555
G1 X36.994 Y32.521 E-.16551
;WIPE_END
G1 E-.08724 F4200
G1 Z.4 F720
G1 X30.168 Y54.633 F9000
G1 Z.2 F720
G1 E3.2 F2400
M204 P600
;WIDTH:0.595197
G1 F1200
G1 X30.471 Y55.237 E.03103
G1 X30.807 Y55.658 E.02474
G1 X31.18 Y56.052 E.02492
;WIDTH:0.585343
G1 X31.716 Y56.436 E.02974
G1 X32.257 Y56.681 E.02679
G1 X31.886 Y56.681 E.01673
G1 X31.216 Y56.626 E.03032
G1 X30.89 Y56.5 E.01576
;WIDTH:0.593467
G1 X30.738 Y56.389 E.00862
;WIDTH:0.595197
G1 X30.384 Y56.013 E.02372
G1 X30.267 Y55.754 E.01305
G1 X30.168 Y55.206 E.02557
G1 X30.168 Y54.693 E.02356
M204 P1000
G1 E-2.24 F4200
;WIPE_START
G1 F7200
G1 X30.168 Y54.633 E-.03325
G1 X30.471 Y55.237 E-.37447
G1 X30.807 Y55.658 E-.2985
G1 X31.122 Y55.991 E-.25378
;WIPE_END
G1 Z.4 F720
G1 X36.914 Y54.609 F9000
G1 Z.2 F720
G1 E3.2 F2400
M204 P600
;WIDTH:0.586933
G1 F1200
G1 X36.914 Y54.939 E.01493
G1 X36.862 Y55.602 E.03008
G1 X36.733 Y55.953 E.01692
;WIDTH:0.598025
G1 X36.521 Y56.236 E.01632
G1 X36.247 Y56.46 E.01634
;WIDTH:0.593263
G1 X35.92 Y56.606 E.01639
G1 X35.44 Y56.677 E.0222
G1 X34.868 Y56.677 E.02618
G1 X35.484 Y56.356 E.03179
;WIDTH:0.593543
G1 X36.003 Y55.954 E.03006
G1 X36.27 Y55.678 E.01758
;WIDTH:0.586933
G1 X36.661 Y55.131 E.03041
G1 X36.888 Y54.663 E.02353
M204 P1000
G1 E-2.24 F4200
;WIPE_START
G1 F7200
G1 X36.914 Y54.609 E-.03321
G1 X36.914 Y54.939 E-.18287
G1 X36.862 Y55.602 E-.36854
G1 X36.733 Y55.953 E-.20723
G1 X36.551 Y56.196 E-.16815
;WIPE_END
G1 Z.4 F720
G1 X33.499 Y50.153 F9000
G1 Z.2 F720
G1 E3.2 F2400
M204 P600
;WIDTH:0.419999
G1 F1200
G1 X33.684 Y50.152 E.0058
G1 X34.332 Y50.253 E.02056
G1 X34.985 Y50.496 E.02185
G1 X35.463 Y50.797 E.01771
G1 X36.073 Y51.423 E.02741
G1 X36.386 Y51.929 E.01866
G1 X36.578 Y52.431 E.01685
G1 X36.682 Y52.958 E.01684
G1 X36.696 Y53.493 E.01678
G1 X36.618 Y54.024 E.01683
G1 X36.452 Y54.535 E.01685
G1 X36.201 Y55.01 E.01684
G1 X35.874 Y55.435 E.01681
G1 X35.4 Y55.834 E.01943
G1 X35.012 Y56.103 E.0148
G1 X34.517 Y56.312 E.01685
G1 X33.994 Y56.435 E.01685
G1 X33.459 Y56.467 E.0168
G1 X32.933 Y56.409 E.01659
G1 X32.527 Y56.296 E.01321
G1 X31.959 Y56.045 E.01947
G1 X31.496 Y55.718 E.01777
G1 X31.149 Y55.344 E.016
G1 X30.877 Y55.01 E.01351
G1 X30.626 Y54.535 E.01684
G1 X30.46 Y54.028 E.01673
G1 X30.382 Y53.493 E.01695
G1 X30.396 Y52.958 E.01678
G1 X30.5 Y52.431 E.01684
G1 X30.692 Y51.929 E.01685
G1 X31.005 Y51.423 E.01866
G1 X31.449 Y50.94 E.02057
G1 X31.926 Y50.586 E.01862
G1 X32.41 Y50.352 E.01686
G1 X33.379 Y50.154 E.03101
G1 X33.439 Y50.153 E.00188
M204 P1000
G1 X33.439 Y50.153 F9000
G1 X33.529 Y50.536
M204 P600
G1 F1200
G1 X34.274 Y50.625 E.02353
G1 X34.84 Y50.844 E.01903
G1 X35.351 Y51.195 E.01944
G1 X35.795 Y51.678 E.02057
G1 X36.057 Y52.114 E.01595
G1 X36.247 Y52.65 E.01783
G1 X36.319 Y53.117 E.01482
G1 X36.311 Y53.589 E.0148
G1 X36.247 Y53.961 E.01184
G1 X36.057 Y54.497 E.01783
G1 X35.801 Y54.926 E.01566
G1 X35.488 Y55.289 E.01503
G1 X34.969 Y55.691 E.02058
G1 X34.512 Y55.915 E.01596
G1 X34.012 Y56.052 E.01625
G1 X33.491 Y56.091 E.01638
G1 X33.025 Y56.044 E.01469
G1 X32.673 Y55.948 E.01144
G1 X32.157 Y55.725 E.01763
G1 X31.727 Y55.416 E.0166
G1 X31.283 Y54.932 E.02059
G1 X31.021 Y54.497 E.01592
G1 X30.831 Y53.962 E.0178
G1 X30.759 Y53.493 E.01488
G1 X30.767 Y53.022 E.01477
G1 X30.855 Y52.557 E.01484
G1 X31.021 Y52.114 E.01483
G1 X31.282 Y51.679 E.01591
G1 X31.727 Y51.195 E.02061
G1 X32.138 Y50.898 E.0159
G1 X32.703 Y50.653 E.01931
G1 X33.443 Y50.525 E.02355
G1 X33.469 Y50.529 E.00082
M204 P1000
G1 X33.469 Y50.529 F9000
G1 X33.393 Y50.917
M204 P600
;TYPE:External perimeter
G1 F1200
G1 X33.507 Y50.897 E.00363
G1 X34.216 Y50.998 E.02245
G1 X34.695 Y51.192 E.0162
G1 X35.073 Y51.45 E.01435
G1 X35.518 Y51.934 E.02061
G1 X35.741 Y52.327 E.01417
G1 X35.875 Y52.714 E.01284
G1 X35.942 Y53.117 E.01281
G1 X35.939 Y53.525 E.01279
G1 X35.875 Y53.897 E.01184
G1 X35.728 Y54.312 E.0138
G1 X35.508 Y54.689 E.01369
G1 X35.165 Y55.062 E.01589
G1 X34.738 Y55.393 E.01694
G1 X34.326 Y55.582 E.01421
G1 X33.93 Y55.683 E.01281
G1 X33.523 Y55.715 E.0128
G1 X33.118 Y55.678 E.01275
G1 X32.818 Y55.6 E.00972
G1 X32.356 Y55.405 E.01572
G1 X32.005 Y55.16 E.01342
G1 X31.56 Y54.677 E.02059
G1 X31.337 Y54.283 E.0142
G1 X31.203 Y53.897 E.01281
