; generated by PrusaSlicer 2.7.3+MacOS-arm64 on 2024-05-25 at 14:42:12 UTC


;
;

;
;

;
;
; 

; external perimeters extrusion width = 0.45mm
; perimeters extrusion width = 0.45mm
; infill extrusion width = 0.45mm
; solid infill extrusion width = 0.45mm
; top infill extrusion width = 0.40mm
; first layer extrusion width = 0.42mm

M73 P0 R8
M201 X2500 Y2500 Z400 E5000 ; sets maximum accelerations, mm/sec^2
M203 X180 Y180 Z12 E80 ; sets maximum feedrates, mm / sec
M204 P2000 R1250 T2500 ; sets acceleration (P, T) and retract acceleration (R), mm/sec^2
M205 X8.00 Y8.00 Z2.00 E10.00 ; sets the jerk limits, mm/sec
M205 S0 T0 ; sets the minimum extruding and travel feed rate, mm/sec

; printing object spacer_front_v1.0.stl id:0 copy 0
; stop printing object spacer_front_v1.0.stl id:0 copy 0

;TYPE:Custom
M862.3 P "MINI" ; printer model check
G90 ; use absolute coordinates
M83 ; extruder relative mode
M104 S170 ; set extruder temp for bed leveling
M140 S60 ; set bed temp
M109 R170 ; wait for bed leveling temp
M190 S60 ; wait for bed temp
M204 T1250 ; set travel acceleration
G28 ; home all without mesh bed level
G29 ; mesh bed leveling 
M204 T2500 ; restore travel acceleration
M104 S215 ; set extruder temp
G92 E0
G1 Y-2 X179 F2400
G1 Z3 F720
M109 S215 ; wait for extruder temp

; intro line
G1 X170 F1000
G1 Z0.2 F720
M73 P1 R8
G1 X110 E8 F900
G1 X40 E10 F700
G92 E0

M221 S95 ; set flow
G21 ; set units to millimeters
G90 ; use absolute coordinates
M83 ; use relative distances for extrusion
M900 K0.2 ; Filament gcode LA 1.5
; ; Filament gcode LA 1.0

M107
;LAYER_CHANGE
;Z:0.2
;HEIGHT:0.2
G1 E-3.2 F4200
M73 P3 R8
G1 Z.4 F720
G1 X112.538 Y19.167 F9000
G1 Z.2 F720
G1 E3.2 F2400
M204 P600
;TYPE:Skirt/Brim
;WIDTH:0.42
G1 F1200
G1 X112.779 Y18.391 E.02548
G1 X113.515 Y16.943 E.05093
G1 X114.554 Y15.696 E.05089
G1 X115.172 Y15.167 E.02551
G1 X116.287 Y14.466 E.0413
G1 X117.807 Y13.897 E.05089
G1 X119.417 Y13.681 E.05093
G1 X122.671 Y13.677 E.10203
G1 X124.089 Y14.07 E.04614
G1 X125.102 Y15.136 E.04611
G1 X125.425 Y16.431 E.04185
G1 X125.425 Y63.231 E1.46738
G1 X125.033 Y64.649 E.04613
G1 X123.966 Y65.662 E.04613
G1 X122.671 Y65.985 E.04185
G1 X118.913 Y65.953 E.11783
G1 X117.807 Y65.765 E.03518
G1 X116.565 Y65.33 E.04126
G1 X115.583 Y64.788 E.03517
G1 X114.554 Y63.967 E.04127
G1 X113.807 Y63.131 E.03515
G1 X113.106 Y62.016 E.0413
G1 X112.677 Y60.98 E.03516
G1 X112.384 Y59.696 E.04129
G1 X112.317 Y58.731 E.03033
M73 P4 R8
G1 X112.35 Y20.273 E1.20582
G1 X112.528 Y19.227 E.03327
M204 P1000
G1 X112.528 Y19.227 F9000
G1 X112.898 Y19.333
M204 P600
G1 F1200
G1 X113.128 Y18.535 E.02604
G1 X113.822 Y17.161 E.04826
G1 X114.805 Y15.977 E.04825
G1 X115.39 Y15.474 E.02419
G1 X116.469 Y14.796 E.03996
G1 X117.912 Y14.26 E.04826
G1 X119.438 Y14.058 E.04826
G1 X122.671 Y14.054 E.10137
G1 X123.978 Y14.446 E.04278
G1 X124.855 Y15.491 E.04277
G1 X125.048 Y16.431 E.03009
G1 X125.048 Y63.231 E1.46738
G1 X124.657 Y64.538 E.04277
M73 P5 R8
G1 X123.611 Y65.415 E.0428
G1 X122.671 Y65.608 E.03009
G1 X118.934 Y65.576 E.11718
G1 X117.912 Y65.403 E.0325
G1 X116.709 Y64.982 E.03996
G1 X115.802 Y64.48 E.0325
G1 X114.805 Y63.686 E.03996
G1 X114.114 Y62.912 E.03253
G1 X113.436 Y61.833 E.03996
G1 X113.04 Y60.875 E.0325
G1 X112.756 Y59.633 E.03995
G1 X112.694 Y58.731 E.02835
G1 X112.726 Y20.294 E1.20517
G1 X112.841 Y19.532 E.02416
G1 X112.881 Y19.391 E.0046
M204 P1000
G1 E-2.24 F4200
;WIPE_START
G1 F7200
G1 X112.898 Y19.333 E-.03349
G1 X113.128 Y18.535 E-.46023
G1 X113.508 Y17.784 E-.46628
;WIPE_END
G1 Z.4 F720
; printing object spacer_front_v1.0.stl id:0 copy 0
G1 X116.255 Y58.591 F9000
G1 Z.2 F720
G1 E3.2 F2400
M204 P600
;TYPE:Perimeter
;WIDTH:0.419999
G1 F1200
G1 X116.255 Y21.071 E1.17641
G1 X116.322 Y21.192 E.00434
M73 P6 R7
G1 X116.644 Y21.582 E.01586
G1 X117.022 Y21.898 E.01545
G1 X117.445 Y22.143 E.01533
G1 X117.901 Y22.315 E.01528
G1 X117.618 Y22.498 E.01057
G1 X117.562 Y22.576 E.00301
G1 X117.484 Y22.863 E.00933
G1 X117.484 Y56.799 E1.06404
G1 X117.493 Y56.897 E.00309
G1 X117.618 Y57.164 E.00924
G1 X117.906 Y57.33 E.01042
;WIDTH:0.389711
G1 X118.047 Y57.341 E.00408
;WIDTH:0.419999
G1 X117.532 Y57.48 E.01673
G1 X117.198 Y57.657 E.01185
G1 X116.717 Y58.01 E.01871
G1 X116.388 Y58.377 E.01545
G1 X116.287 Y58.54 E.00601
M204 P1000
G1 E-2.24 F4200
;WIPE_START
G1 F7200
G1 X116.255 Y58.591 E-.03337
G1 X116.255 Y56.919 E-.92663
;WIPE_END
G1 Z.4 F720
G1 X118.479 Y62.437 F9000
G1 Z.2 F720
G1 E3.2 F2400
M204 P600
;TYPE:External perimeter
;WIDTH:0.428272
G1 F1200
G1 X118.087 Y62.342 E.01292
;WIDTH:0.38292
G1 X117.692 Y62.174 E.01214
G1 X117.121 Y61.786 E.01952
;WIDTH:0.414808
G1 X116.889 Y61.534 E.01059
;WIDTH:0.446696
G1 X116.656 Y61.282 E.01152
;WIDTH:0.452838
G1 X116.628 Y61.242 E.00166
M204 P1000
G1 E-2.24 F4200
;WIPE_START
G1 F7200
G1 X116.656 Y61.282 E-.02706
G1 X116.889 Y61.534 E-.1902
G1 X117.121 Y61.786 E-.18982
G1 X117.692 Y62.174 E-.38257
G1 X117.975 Y62.294 E-.17035
;WIPE_END
G1 Z.4 F720
G1 X120.809 Y62.049 F9000
G1 Z.2 F720
G1 E3.2 F2400
M204 P600
;TYPE:Perimeter
;WIDTH:0.456724
G1 F1200
G1 X120.938 Y61.917 E.00635
G1 X121.234 Y61.487 E.01796
;WIDTH:0.46385
G1 X121.462 Y60.925 E.02123
G1 X121.464 Y61.064 E.00487
;WIDTH:0.461353
G1 X121.466 Y62.033 E.03371
;WIDTH:0.456724
G1 X120.869 Y62.047 E.02055
M204 P1000
G1 E-2.24 F4200
;WIPE_START
G1 F7200
G1 X120.809 Y62.049 E-.03327
G1 X120.938 Y61.917 E-.10228
G1 X121.234 Y61.487 E-.28929
G1 X121.462 Y60.925 E-.3361
G1 X121.464 Y61.064 E-.07704
G1 X121.464 Y61.284 E-.12202
;WIPE_END
G1 Z.4 F720
G1 X121.502 Y19.097 F9000
G1 Z.2 F720
G1 E3.2 F2400
M204 P600
;WIDTH:0.420853
G1 F1200
G1 X121.447 Y18.807 E.00928
;WIDTH:0.456724
G1 X121.392 Y18.518 E.01012
G1 X121.168 Y18.061 E.01751
G1 X120.811 Y17.616 E.01963
G1 X121.466 Y17.63 E.02254
G1 X121.466 Y18.502 E.03
G1 X121.484 Y18.799 E.01024
;WIDTH:0.420853
G1 X121.498 Y19.037 E.00749
M204 P1000
G1 E-2.24 F4200
;WIPE_START
G1 F7200
G1 X121.502 Y19.097 E-.03332
G1 X121.447 Y18.807 E-.16357
G1 X121.392 Y18.518 E-.16303
G1 X121.168 Y18.061 E-.28204
G1 X120.811 Y17.616 E-.31615
G1 X120.814 Y17.616 E-.00189
;WIPE_END
G1 Z.4 F720
G1 X116.634 Y18.409 F9000
G1 Z.2 F720
G1 E3.2 F2400
M204 P600
;TYPE:External perimeter
;WIDTH:0.45263
G1 F1200
G1 X116.864 Y18.154 E.0117
;WIDTH:0.417775
G1 X117.094 Y17.899 E.0107
;WIDTH:0.38292
G1 X117.477 Y17.608 E.0136
G1 X118.085 Y17.32 E.01902
;WIDTH:0.41141
G1 X118.272 Y17.271 E.00592
;WIDTH:0.4399
G1 X118.459 Y17.222 E.00638
M204 P1000
G1 E-2.24 F4200
;WIPE_START
G1 F7200
G1 X118.272 Y17.271 E-.10713
G1 X118.085 Y17.32 E-.10713
G1 X117.477 Y17.608 E-.37282
G1 X117.094 Y17.899 E-.26656
G1 X116.965 Y18.042 E-.10636
;WIPE_END
G1 Z.4 F720
G1 X118.493 Y62.439 F9000
G1 Z.2 F720
M73 P7 R7
G1 E3.2 F2400
M204 P600
;WIDTH:0.42798
G1 F1200
G1 X118.85 Y62.434 E.01143
;WIDTH:0.420539
G1 X119.26 Y62.365 E.01305
;WIDTH:0.419999
G1 X119.951 Y62.14 E.02279
G1 X120.322 Y61.947 E.01311
G1 X120.569 Y61.733 E.01025
G1 X120.871 Y61.331 E.01576
G1 X121.07 Y60.853 E.01623
G1 X121.181 Y60.116 E.02337
G1 X121.083 Y59.48 E.02018
G1 X120.873 Y58.927 E.01855
G1 X120.66 Y58.606 E.01208
G1 X120.327 Y58.247 E.01535
G1 X119.891 Y57.947 E.01659
G1 X119.316 Y57.705 E.01956
G1 X118.956 Y57.641 E.01146
G1 X118.647 Y57.629 E.0097
G1 X118.15 Y57.682 E.01567
G1 X117.657 Y57.836 E.01619
G1 X117.381 Y57.986 E.00985
G1 X116.954 Y58.304 E.01669
G1 X116.674 Y58.623 E.01331
G1 X116.521 Y58.889 E.00962
;WIDTH:0.447653
G1 X116.341 Y59.325 E.01587
G1 X116.321 Y59.857 E.01792
;WIDTH:0.426817
G1 X116.397 Y60.535 E.02178
;WIDTH:0.452838
G1 X116.628 Y61.242 E.02535
G1 X116.186 Y60.631 E.0257
;WIDTH:0.4217
G1 X115.99 Y60.219 E.01437
;WIDTH:0.430275
G1 X115.933 Y59.845 E.01219
;WIDTH:0.447653
G1 X115.878 Y58.726 E.0377
;WIDTH:0.419999
G1 X115.884 Y20.693 E1.1925
;WIDTH:0.443037
G1 X115.914 Y19.991 E.02338
G1 X115.989 Y19.443 E.0184
;WIDTH:0.42206
G1 X116.349 Y18.757 E.02442
;WIDTH:0.451697
G1 X116.627 Y18.42 E.01485
G1 X116.396 Y19.128 E.02531
;WIDTH:0.42206
G1 X116.352 Y19.537 E.01297
;WIDTH:0.451664
G1 X116.32 Y20.215 E.02307
G1 X116.444 Y20.625 E.01456
;WIDTH:0.419999
G1 X116.652 Y21.008 E.01367
G1 X116.93 Y21.335 E.01346
G1 X117.259 Y21.605 E.01334
G1 X117.628 Y21.814 E.0133
G1 X118.027 Y21.957 E.01329
;WIDTH:0.460422
G1 X118.054 Y21.983 E.0013
;WIDTH:0.500844
G1 X118.082 Y22.009 E.00145
;WIDTH:0.541266
G1 X118.109 Y22.035 E.00155
;WIDTH:0.581688
G1 X118.137 Y22.06 E.00168
G1 X118.432 Y22.104 E.01336
;WIDTH:0.567979
G1 X118.647 Y22.088 E.00941
;WIDTH:0.528297
G1 X118.86 Y22.047 E.00875
;WIDTH:0.492198
G1 X119.072 Y22.006 E.00807
;WIDTH:0.456099
G1 X119.285 Y21.965 E.00745
;WIDTH:0.419999
G1 X119.714 Y21.814 E.01426
G1 X120.21 Y21.503 E.01836
G1 X120.621 Y21.111 E.01781
G1 X120.875 Y20.731 E.01433
G1 X121.07 Y20.253 E.01619
G1 X121.18 Y19.561 E.02197
G1 X121.156 Y19.205 E.01119
G1 X121.045 Y18.72 E.0156
G1 X120.869 Y18.327 E.0135
G1 X120.618 Y17.979 E.01345
G1 X120.359 Y17.742 E.01101
;WIDTH:0.438802
G1 X119.954 Y17.513 E.01532
G1 X119.103 Y17.278 E.02906
;WIDTH:0.436683
G1 X118.493 Y17.22 E.02006
G1 X118.879 Y17.102 E.01322
;WIDTH:0.402021
G1 X119.581 Y17.036 E.02105
;WIDTH:0.435531
G1 X120.115 Y17.139 E.01775
G1 X120.918 Y17.228 E.02638
;WIDTH:0.419999
G1 X121.861 Y17.239 E.02957
G1 X121.854 Y19.636 E.07516
G1 X121.759 Y20.323 E.02175
G1 X121.591 Y20.808 E.01609
G1 X121.226 Y21.433 E.02269
G1 X120.883 Y21.822 E.01626
G1 X120.48 Y22.146 E.01621
G1 X120.023 Y22.412 E.01658
G1 X119.533 Y22.598 E.01643
G1 X119.076 Y22.693 E.01464
;WIDTH:0.456099
G1 X118.926 Y22.684 E.00516
;WIDTH:0.492198
G1 X118.775 Y22.674 E.00565
;WIDTH:0.528297
G1 X118.625 Y22.664 E.00607
;WIDTH:0.554993
G1 X118.348 Y22.629 E.01189
;WIDTH:0.581688
G1 X118.071 Y22.595 E.0125
G1 X118.029 Y22.631 E.00248
;WIDTH:0.541266
G1 X117.988 Y22.668 E.00229
;WIDTH:0.500844
G1 X117.947 Y22.705 E.0021
;WIDTH:0.460422
G1 X117.906 Y22.741 E.00189
;WIDTH:0.419999
G1 X117.861 Y22.863 E.00408
G1 X117.861 Y56.799 E1.06404
G1 X117.887 Y56.895 E.00312
M73 P8 R7
G1 X118 Y56.981 E.00445
G1 X118.45 Y56.957 E.01413
G1 X119.032 Y56.964 E.01825
G1 X119.533 Y57.065 E.01602
G1 X120.023 Y57.25 E.01642
G1 X120.472 Y57.506 E.01621
G1 X120.868 Y57.822 E.01588
G1 X121.214 Y58.207 E.01623
G1 X121.484 Y58.64 E.016
G1 X121.694 Y59.136 E.01689
G1 X121.821 Y59.653 E.01669
G1 X121.861 Y60.155 E.01579
G1 X121.861 Y62.424 E.07114
G1 X120.894 Y62.436 E.03032
G1 X119.546 Y62.619 E.04265
G1 X119.012 Y62.575 E.0168
;WIDTH:0.42798
G1 X118.551 Y62.455 E.01525
M204 P1000
G1 E-2.24 F4200
;WIPE_START
G1 F7200
G1 X118.493 Y62.439 E-.03334
G1 X118.85 Y62.434 E-.19786
G1 X119.26 Y62.365 E-.2304
G1 X119.951 Y62.14 E-.40272
G1 X120.104 Y62.06 E-.09568
;WIPE_END
G1 Z.4 F720
G1 X118.047 Y57.341 F9000
G1 Z.2 F720
G1 E3.2 F2400
M204 P600
;TYPE:Perimeter
;WIDTH:0.37217
G1 F1200
G1 X118.647 Y57.286 E.0165
;WIDTH:0.351506
G1 X119.013 Y57.305 E.0094
;WIDTH:0.34859
G1 X119.428 Y57.386 E.01075
;WIDTH:0.352528
G1 X120.058 Y57.647 E.01756
G1 X120.534 Y57.981 E.01497
;WIDTH:0.34275
G1 X120.919 Y58.385 E.01391
G1 X121.181 Y58.788 E.01198
;WIDTH:0.356666
G1 X121.419 Y59.402 E.01718
G1 X121.519 Y60.088 E.01809
;WIDTH:0.38243
G1 X121.5 Y60.364 E.00781
;WIDTH:0.422351
G1 X121.482 Y60.64 E.00873
;WIDTH:0.462272
G1 X121.463 Y60.916 E.00965
;WIDTH:0.46385
G1 X121.462 Y60.925 E.00032
M204 P1000
G1 E-2.24 F4200
;WIPE_START
G1 F7200
G1 X121.463 Y60.916 E-.00502
G1 X121.482 Y60.64 E-.15331
G1 X121.5 Y60.364 E-.15327
G1 X121.519 Y60.088 E-.15331
G1 X121.419 Y59.402 E-.38418
G1 X121.347 Y59.215 E-.11091
;WIPE_END
G1 Z.4 F720
G1 X121.502 Y19.097 F9000
G1 Z.2 F720
G1 E3.2 F2400
M204 P600
;WIDTH:0.384982
G1 F1200
G1 X121.515 Y19.614 E.01471
;WIDTH:0.357414
G1 X121.42 Y20.256 E.01697
G1 X121.179 Y20.859 E.01698
;WIDTH:0.339762
G1 X120.879 Y21.327 E.01372
;WIDTH:0.351338
G1 X120.425 Y21.77 E.01627
G1 X119.878 Y22.108 E.01649
;WIDTH:0.343886
G1 X119.377 Y22.292 E.01336
G1 X118.928 Y22.367 E.01139
M204 P1000
G1 E-2.24 F4200
;WIPE_START
G1 F7200
G1 X119.377 Y22.292 E-.25227
G1 X119.878 Y22.108 E-.29577
G1 X120.425 Y21.77 E-.35633
G1 X120.497 Y21.7 E-.05563
;WIPE_END
G1 Z.4 F720
G1 X117.314 Y22.924 F9000
G1 Z.2 F720
G1 E3.2 F2400
M204 P600
;TYPE:Solid infill
;WIDTH:0.420589
G1 F1200
G1 X116.595 Y22.204 E.03195
G1 X116.595 Y22.738 E.01677
G1 X117.145 Y23.289 E.02445
G1 X117.145 Y23.823 E.01677
G1 X116.595 Y23.272 E.02445
G1 X116.595 Y23.806 E.01677
G1 X117.145 Y24.357 E.02445
G1 X117.145 Y24.891 E.01677
G1 X116.595 Y24.341 E.02443
G1 X116.595 Y24.875 E.01677
G1 X117.145 Y25.425 E.02443
G1 X117.145 Y25.959 E.01677
G1 X116.595 Y25.409 E.02443
G1 X116.595 Y25.943 E.01677
G1 X117.145 Y26.493 E.02443
G1 X117.145 Y27.027 E.01677
G1 X116.595 Y26.477 E.02443
G1 X116.595 Y27.011 E.01677
G1 X117.145 Y27.561 E.02443
G1 X117.145 Y28.095 E.01677
G1 X116.595 Y27.545 E.02443
G1 X116.595 Y28.079 E.01677
G1 X117.145 Y28.63 E.02445
G1 X117.145 Y29.164 E.01677
G1 X116.595 Y28.613 E.02445
G1 X116.595 Y29.147 E.01677
G1 X117.145 Y29.698 E.02445
G1 X117.145 Y30.232 E.01677
G1 X116.595 Y29.682 E.02443
G1 X116.595 Y30.216 E.01677
G1 X117.145 Y30.766 E.02443
G1 X117.145 Y31.3 E.01677
G1 X116.595 Y30.75 E.02443
G1 X116.595 Y31.284 E.01677
G1 X117.145 Y31.834 E.02443
G1 X117.145 Y32.368 E.01677
M73 P9 R7
G1 X116.595 Y31.818 E.02443
G1 X116.595 Y32.352 E.01677
G1 X117.145 Y32.902 E.02443
G1 X117.145 Y33.436 E.01677
G1 X116.595 Y32.886 E.02443
G1 X116.595 Y33.42 E.01677
G1 X117.145 Y33.971 E.02445
G1 X117.145 Y34.505 E.01677
G1 X116.595 Y33.954 E.02445
G1 X116.595 Y34.489 E.0168
G1 X117.145 Y35.039 E.02443
G1 X117.145 Y35.573 E.01677
G1 X116.595 Y35.023 E.02443
G1 X116.595 Y35.557 E.01677
G1 X117.145 Y36.107 E.02443
G1 X117.145 Y36.641 E.01677
G1 X116.595 Y36.091 E.02443
G1 X116.595 Y36.625 E.01677
G1 X117.145 Y37.175 E.02443
G1 X117.145 Y37.709 E.01677
G1 X116.595 Y37.159 E.02443
G1 X116.595 Y37.693 E.01677
G1 X117.145 Y38.243 E.02443
G1 X117.145 Y38.778 E.0168
G1 X116.595 Y38.227 E.02445
G1 X116.595 Y38.761 E.01677
G1 X117.145 Y39.312 E.02445
G1 X117.145 Y39.846 E.01677
G1 X116.595 Y39.295 E.02445
G1 X116.595 Y39.83 E.0168
G1 X117.145 Y40.38 E.02443
G1 X117.145 Y40.914 E.01677
G1 X116.595 Y40.364 E.02443
G1 X116.595 Y40.898 E.01677
G1 X117.145 Y41.448 E.02443
G1 X117.145 Y41.982 E.01677
G1 X116.595 Y41.432 E.02443
G1 X116.595 Y41.966 E.01677
G1 X117.145 Y42.516 E.02443
G1 X117.145 Y43.05 E.01677
G1 X116.595 Y42.5 E.02443
G1 X116.595 Y43.034 E.01677
G1 X117.145 Y43.584 E.02443
G1 X117.145 Y44.119 E.0168
G1 X116.595 Y43.568 E.02445
G1 X116.595 Y44.102 E.01677
G1 X117.145 Y44.653 E.02445
G1 X117.145 Y45.187 E.01677
G1 X116.595 Y44.637 E.02443
G1 X116.595 Y45.171 E.01677
G1 X117.145 Y45.721 E.02443
G1 X117.145 Y46.255 E.01677
G1 X116.595 Y45.705 E.02443
G1 X116.595 Y46.239 E.01677
G1 X117.145 Y46.789 E.02443
G1 X117.145 Y47.323 E.01677
G1 X116.595 Y46.773 E.02443
G1 X116.595 Y47.307 E.01677
G1 X117.145 Y47.857 E.02443
G1 X117.145 Y48.391 E.01677
G1 X116.595 Y47.841 E.02443
G1 X116.595 Y48.375 E.01677
G1 X117.145 Y48.926 E.02445
G1 X117.145 Y49.46 E.01677
G1 X116.595 Y48.909 E.02445
G1 X116.595 Y49.443 E.01677
G1 X117.145 Y49.994 E.02445
G1 X117.145 Y50.528 E.01677
G1 X116.595 Y49.978 E.02443
G1 X116.595 Y50.512 E.01677
G1 X117.145 Y51.062 E.02443
G1 X117.145 Y51.596 E.01677
G1 X116.595 Y51.046 E.02443
G1 X116.595 Y51.58 E.01677
G1 X117.145 Y52.13 E.02443
G1 X117.145 Y52.664 E.01677
G1 X116.595 Y52.114 E.02443
G1 X116.595 Y52.648 E.01677
G1 X117.145 Y53.198 E.02443
G1 X117.145 Y53.732 E.01677
G1 X116.595 Y53.182 E.02443
G1 X116.595 Y53.716 E.01677
G1 X117.145 Y54.267 E.02445
G1 X117.145 Y54.801 E.01677
G1 X116.595 Y54.25 E.02445
G1 X116.595 Y54.785 E.0168
G1 X117.145 Y55.335 E.02443
G1 X117.145 Y55.869 E.01677
G1 X116.595 Y55.319 E.02443
G1 X116.595 Y55.853 E.01677
G1 X117.145 Y56.403 E.02443
G1 X117.145 Y56.809 E.01275
G1 X117.164 Y56.956 E.00465
G1 X116.595 Y56.387 E.02527
G1 X116.595 Y56.921 E.01677
G1 X117.038 Y57.364 E.01967
G1 X116.818 Y57.493 E.00801
G1 X116.715 Y57.576 E.00415
G1 X116.425 Y57.285 E.0129
M204 P1000
M106 S84.15
;LAYER_CHANGE
;Z:0.45
;HEIGHT:0.25
;BEFORE_LAYER_CHANGE
G92 E0.0
;0.45


G1 E-2.24 F4200
