; generated by PrusaSlicer 2.7.3+MacOS-arm64 on 2024-05-25 at 14:41:42 UTC


;
;

;
;

;
;
; 

; external perimeters extrusion width = 0.45mm
; perimeters extrusion width = 0.45mm
; infill extrusion width = 0.45mm
; solid infill extrusion width = 0.45mm
; top infill extrusion width = 0.40mm
; first layer extrusion width = 0.42mm

M73 P0 R7
M201 X2500 Y2500 Z400 E5000 ; sets maximum accelerations, mm/sec^2
M203 X180 Y180 Z12 E80 ; sets maximum feedrates, mm / sec
M204 P2000 R1250 T2500 ; sets acceleration (P, T) and retract acceleration (R), mm/sec^2
M205 X8.00 Y8.00 Z2.00 E10.00 ; sets the jerk limits, mm/sec
M205 S0 T0 ; sets the minimum extruding and travel feed rate, mm/sec

; printing object spacer_back_v1.0.stl id:0 copy 0
; stop printing object spacer_back_v1.0.stl id:0 copy 0

;TYPE:Custom
M862.3 P "MINI" ; printer model check
G90 ; use absolute coordinates
M83 ; extruder relative mode
M104 S170 ; set extruder temp for bed leveling
M140 S60 ; set bed temp
M109 R170 ; wait for bed leveling temp
M190 S60 ; wait for bed temp
M204 T1250 ; set travel acceleration
G28 ; home all without mesh bed level
G29 ; mesh bed leveling 
M204 T2500 ; restore travel acceleration
M104 S215 ; set extruder temp
G92 E0
G1 Y-2 X179 F2400
G1 Z3 F720
M73 P1 R7
M109 S215 ; wait for extruder temp

; intro line
G1 X170 F1000
G1 Z0.2 F720
G1 X110 E8 F900
G1 X40 E10 F700
M73 P2 R7
G92 E0

M221 S95 ; set flow
G21 ; set units to millimeters
G90 ; use absolute coordinates
M83 ; use relative distances for extrusion
M900 K0.2 ; Filament gcode LA 1.5
; ; Filament gcode LA 1.0

M107
;LAYER_CHANGE
;Z:0.2
;HEIGHT:0.2
G1 E-3.2 F4200
M73 P3 R7
G1 Z.4 F720
G1 X112.339 Y18.24 F9000
G1 Z.2 F720
G1 E3.2 F2400
M204 P600
;TYPE:Skirt/Brim
;WIDTH:0.42
G1 F1200
G1 X112.731 Y16.823 E.0461
G1 X113.798 Y15.81 E.04613
G1 X115.093 Y15.486 E.04186
G1 X120.009 Y15.495 E.15414
G1 X121.177 Y15.68 E.03708
G1 X122.321 Y16.154 E.03883
G1 X122.992 Y16.604 E.02533
G1 X123.829 Y17.441 E.03711
G1 X124.28 Y18.112 E.02535
G1 X124.62 Y18.845 E.02533
G1 X125.187 Y20.824 E.06455
G1 X125.398 Y21.914 E.03481
G1 X125.424 Y61.099 E1.22862
G1 X125.187 Y62.457 E.04322
M73 P4 R6
G1 X124.476 Y64.784 E.07629
G1 X123.829 Y65.84 E.03883
G1 X123.279 Y66.432 E.02534
G1 X122.643 Y66.93 E.02533
G1 X121.588 Y67.467 E.03712
G1 X120.384 Y67.756 E.03882
G1 X115.093 Y67.794 E.1659
G1 X113.675 Y67.402 E.04613
G1 X112.662 Y66.335 E.04613
G1 X112.339 Y65.04 E.04185
G1 X112.339 Y18.3 E1.4655
M204 P1000
G1 X112.339 Y18.3 F9000
M73 P5 R6
G1 X112.716 Y18.3
M204 P600
G1 F1200
G1 X112.716 Y18.24 E.00188
G1 X113.107 Y16.933 E.04277
G1 X114.153 Y16.057 E.04278
G1 X115.093 Y15.863 E.03009
G1 X119.979 Y15.87 E.1532
G1 X121.089 Y16.046 E.03524
G1 X121.792 Y16.306 E.0235
G1 X122.747 Y16.891 E.03511
G1 X123.542 Y17.686 E.03525
G1 X123.958 Y18.309 E.02349
G1 X124.272 Y18.989 E.02348
G1 X124.821 Y20.912 E.0627
G1 X125.024 Y21.968 E.03372
G1 X125.047 Y61.081 E1.22636
G1 X124.821 Y62.368 E.04097
G1 X124.127 Y64.639 E.07446
G1 X123.542 Y65.595 E.03514
G1 X123.034 Y66.145 E.02348
G1 X122.446 Y66.609 E.02349
G1 X121.444 Y67.119 E.03525
G1 X120.355 Y67.38 E.03511
G1 X115.093 Y67.417 E.16499
G1 X113.786 Y67.026 E.04277
G1 X112.909 Y65.98 E.0428
G1 X112.716 Y65.04 E.03009
G1 X112.716 Y18.36 E1.46362
M204 P1000
G1 E-2.24 F4200
M73 P6 R6
;WIPE_START
G1 F7200
G1 X112.716 Y18.3 E-.03325
G1 X112.716 Y18.24 E-.03325
G1 X113.107 Y16.933 E-.75601
G1 X113.297 Y16.774 E-.13749
;WIPE_END
G1 Z.4 F720
; printing object spacer_back_v1.0.stl id:0 copy 0
G1 X116.954 Y19.423 F9000
G1 Z.2 F720
G1 E3.2 F2400
M204 P600
;TYPE:Perimeter
;WIDTH:0.457928
G1 F1200
G1 X116.826 Y19.554 E.00632
G1 X116.53 Y19.984 E.01801
;WIDTH:0.462264
G1 X116.301 Y20.556 E.02148
G1 X116.299 Y19.937 E.02158
;WIDTH:0.457928
G1 X116.299 Y19.436 E.01729
G1 X116.894 Y19.424 E.02054
M204 P1000
G1 E-2.24 F4200
;WIPE_START
G1 F7200
G1 X116.954 Y19.423 E-.03325
G1 X116.826 Y19.554 E-.1015
G1 X116.53 Y19.984 E-.28929
G1 X116.301 Y20.556 E-.34144
G1 X116.3 Y20.205 E-.19452
;WIPE_END
G1 Z.4 F720
G1 X121.509 Y22.882 F9000
G1 Z.2 F720
G1 E3.2 F2400
M204 P600
;WIDTH:0.419999
G1 F1200
G1 X121.509 Y60.401 E1.17638
G1 X121.442 Y60.28 E.00434
M73 P7 R6
G1 X121.12 Y59.89 E.01586
G1 X120.742 Y59.573 E.01547
G1 X120.319 Y59.328 E.01533
G1 X119.864 Y59.154 E.01527
G1 X120.146 Y58.97 E.01056
G1 X120.201 Y58.892 E.00299
G1 X120.28 Y58.604 E.00936
G1 X120.28 Y24.676 E1.06379
G1 X120.261 Y24.532 E.00455
G1 X120.146 Y24.31 E.00784
G1 X119.864 Y24.126 E.01056
G1 X120.232 Y23.991 E.01229
G1 X120.566 Y23.815 E.01184
G1 X121.047 Y23.461 E.01873
G1 X121.321 Y23.169 E.01256
G1 X121.476 Y22.933 E.00885
M204 P1000
G1 E-2.24 F4200
;WIPE_START
G1 F7200
G1 X121.509 Y22.882 E-.03366
G1 X121.509 Y24.554 E-.92634
;WIPE_END
G1 Z.4 F720
G1 X120.471 Y19.478 F9000
G1 Z.2 F720
G1 E3.2 F2400
M204 P600
;TYPE:External perimeter
;WIDTH:0.424552
G1 F1200
G1 X120.718 Y19.653 E.00961
;WIDTH:0.426747
G1 X120.982 Y19.969 E.01314
G1 X121.249 Y20.564 E.02081
;WIDTH:0.416245
G1 X121.403 Y21.282 E.0228
;WIDTH:0.454178
G1 X121.445 Y21.965 E.0234
;WIDTH:0.455452
G1 X121.425 Y22.151 E.00642
G1 X121.259 Y22.57 E.01546
;WIDTH:0.419999
G1 X121.041 Y22.916 E.01282
G1 X120.81 Y23.168 E.01072
G1 X120.382 Y23.485 E.0167
G1 X120.107 Y23.636 E.00984
G1 X119.737 Y23.766 E.0123
;WIDTH:0.460957
G1 X119.71 Y23.792 E.0013
;WIDTH:0.501915
G1 X119.684 Y23.818 E.0014
;WIDTH:0.542873
G1 X119.657 Y23.844 E.00156
;WIDTH:0.58383
G1 X119.63 Y23.87 E.00169
G1 X119.122 Y23.92 E.02296
;WIDTH:0.574449
G1 X118.795 Y23.906 E.01447
;WIDTH:0.572834
G1 X118.424 Y23.837 E.01663
;WIDTH:0.574803
G1 X117.835 Y23.592 E.02821
G1 X117.391 Y23.283 E.02392
;WIDTH:0.572481
G1 X117.041 Y22.908 E.02259
G1 X116.823 Y22.575 E.01753
;WIDTH:0.576872
G1 X116.605 Y22.009 E.02693
G1 X116.508 Y21.362 E.02905
;WIDTH:0.569794
G1 X116.549 Y21.25 E.00523
;WIDTH:0.519863
G1 X116.589 Y21.138 E.00472
;WIDTH:0.469931
G1 X116.63 Y21.026 E.00423
;WIDTH:0.419999
G1 X116.707 Y20.573 E.01441
G1 X116.915 Y20.104 E.01609
G1 X117.264 Y19.677 E.01729
G1 X117.442 Y19.525 E.00734
;WIDTH:0.448763
G1 X117.809 Y19.318 E.01422
G1 X118.116 Y19.237 E.01071
;WIDTH:0.413253
G1 X118.422 Y19.156 E.00975
;WIDTH:0.377742
G1 X118.668 Y19.121 E.00692
;WIDTH:0.350923
G1 X118.914 Y19.086 E.00636
;WIDTH:0.354821
G1 X119.65 Y19.132 E.01913
;WIDTH:0.384231
G1 X119.973 Y19.243 E.00969
;WIDTH:0.413641
G1 X120.297 Y19.354 E.01056
;WIDTH:0.424552
G1 X120.422 Y19.443 E.00487
M204 P1000
G1 E-2.24 F4200
;WIPE_START
G1 F7200
G1 X120.471 Y19.478 E-.03337
G1 X120.718 Y19.653 E-.16775
G1 X120.982 Y19.969 E-.22819
G1 X121.249 Y20.564 E-.36141
G1 X121.313 Y20.863 E-.16928
;WIPE_END
G1 Z.4 F720
G1 X116.259 Y62.345 F9000
G1 Z.2 F720
M73 P8 R6
G1 E3.2 F2400
M204 P600
;TYPE:Perimeter
;WIDTH:0.384887
G1 F1200
G1 X116.262 Y62.375 E.00086
;WIDTH:0.421408
G1 X116.317 Y62.664 E.00926
;WIDTH:0.457929
G1 X116.372 Y62.954 E.01019
G1 X116.595 Y63.411 E.01755
G1 X116.938 Y63.856 E.01939
G1 X116.299 Y63.845 E.02205
G1 X116.299 Y62.845 E.03451
G1 X116.279 Y62.595 E.00865
;WIDTH:0.41848
G1 X116.264 Y62.405 E.00595
M204 P1000
G1 E-2.24 F4200
;WIPE_START
G1 F7200
G1 X116.259 Y62.345 E-.03337
G1 X116.262 Y62.375 E-.01671
G1 X116.317 Y62.664 E-.16303
G1 X116.372 Y62.954 E-.16357
G1 X116.595 Y63.411 E-.2818
G1 X116.927 Y63.842 E-.30152
;WIPE_END
G1 Z.4 F720
G1 X120.977 Y60.304 F9000
G1 Z.2 F720
G1 E3.2 F2400
M204 P600
;TYPE:External perimeter
;WIDTH:0.419999
G1 F1200
G1 X121.112 Y60.464 E.00656
G1 X121.32 Y60.847 E.01367
;WIDTH:0.452271
G1 X121.447 Y61.313 E.01644
G1 X121.403 Y61.998 E.02336
;WIDTH:0.416245
G1 X121.258 Y62.684 E.02177
;WIDTH:0.417254
G1 X120.978 Y63.309 E.02132
;WIDTH:0.429385
G1 X120.687 Y63.659 E.01463
G1 X120.232 Y63.958 E.0175
;WIDTH:0.424301
G1 X119.975 Y64.046 E.00861
;WIDTH:0.3988
G1 X119.717 Y64.135 E.00808
;WIDTH:0.373298
G1 X119.271 Y64.195 E.01236
;WIDTH:0.357397
G1 X118.536 Y64.149 E.01926
;WIDTH:0.395589
G1 X118.262 Y64.081 E.00828
;WIDTH:0.433781
G1 X117.987 Y64.013 E.00921
;WIDTH:0.44363
G1 X117.778 Y63.947 E.0073
G1 X117.405 Y63.73 E.01438
;WIDTH:0.419999
G1 X117.146 Y63.492 E.01103
G1 X116.896 Y63.144 E.01343
G1 X116.719 Y62.752 E.01349
;WIDTH:0.462972
G1 X116.652 Y62.488 E.00951
;WIDTH:0.505945
G1 X116.585 Y62.225 E.01045
;WIDTH:0.548917
G1 X116.519 Y61.961 E.01145
;WIDTH:0.577246
G1 X116.608 Y61.257 E.03153
G1 X116.824 Y60.713 E.02601
;WIDTH:0.568542
G1 X117.089 Y60.311 E.02104
;WIDTH:0.574207
G1 X117.505 Y59.908 E.02559
G1 X118.014 Y59.593 E.02644
;WIDTH:0.570162
G1 X118.467 Y59.432 E.02108
G1 X118.898 Y59.364 E.01913
;WIDTH:0.569109
G1 X119.332 Y59.367 E.01899
;WIDTH:0.58383
G1 X119.63 Y59.41 E.01354
G1 X119.673 Y59.431 E.00215
;WIDTH:0.556713
G1 X119.716 Y59.452 E.00204
;WIDTH:0.529596
G1 X119.723 Y59.473 E.0009
;WIDTH:0.493064
G1 X119.73 Y59.494 E.00083
;WIDTH:0.456532
G1 X119.737 Y59.514 E.00073
;WIDTH:0.419999
G1 X120.136 Y59.658 E.0133
G1 X120.505 Y59.867 E.0133
G1 X120.834 Y60.136 E.01332
G1 X120.938 Y60.259 E.00505
M204 P1000
G1 E-2.24 F4200
;WIPE_START
G1 F7200
G1 X120.977 Y60.304 E-.033
G1 X121.112 Y60.464 E-.11601
G1 X121.32 Y60.847 E-.24153
G1 X121.447 Y61.313 E-.26766
G1 X121.412 Y61.856 E-.3018
;WIPE_END
G1 Z.4 F720
G1 X119.695 Y58.874 F9000
G1 Z.2 F720
G1 E3.2 F2400
M204 P600
;WIDTH:0.58383
G1 F1200
G1 X119.736 Y58.837 E.00248
;WIDTH:0.542873
G1 X119.777 Y58.8 E.0023
;WIDTH:0.501915
G1 X119.817 Y58.763 E.00208
;WIDTH:0.460957
G1 X119.858 Y58.726 E.00192
;WIDTH:0.419999
G1 X119.903 Y58.604 E.00408
G1 X119.897 Y24.628 E1.06529
;WIDTH:0.460957
G1 X119.846 Y24.573 E.00261
;WIDTH:0.501915
G1 X119.796 Y24.517 E.00287
;WIDTH:0.542873
G1 X119.745 Y24.462 E.00312
;WIDTH:0.58383
G1 X119.695 Y24.406 E.00338
G1 X119.395 Y24.435 E.01356
;WIDTH:0.569108
G1 X118.854 Y24.44 E.02367
;WIDTH:0.570482
G1 X118.339 Y24.36 E.02286
G1 X117.853 Y24.192 E.02256
;WIDTH:0.569375
G1 X117.401 Y23.947 E.02251
;WIDTH:0.569763
G1 X117.001 Y23.64 E.02209
;WIDTH:0.572481
G1 X116.623 Y23.231 E.02452
G1 X116.347 Y22.799 E.02257
;WIDTH:0.569345
G1 X116.14 Y22.311 E.0232
;WIDTH:0.572576
G1 X116.004 Y21.712 E.02705
G1 X115.979 Y21.526 E.00827
;WIDTH:0.534432
G1 X115.954 Y21.34 E.00767
;WIDTH:0.496288
G1 X115.928 Y21.154 E.00708
;WIDTH:0.458144
G1 X115.903 Y20.968 E.00648
;WIDTH:0.419999
G1 X115.903 Y19.047 E.06023
G1 X116.496 Y19.036 E.0186
G1 X117.143 Y18.998 E.02032
;WIDTH:0.448763
G1 X118.043 Y18.877 E.03064
;WIDTH:0.413253
G1 X118.371 Y18.829 E.01021
;WIDTH:0.377742
G1 X118.643 Y18.817 E.00758
;WIDTH:0.350923
G1 X118.915 Y18.804 E.00697
;WIDTH:0.354821
G1 X119.676 Y18.823 E.01974
;WIDTH:0.38614
G1 X119.914 Y18.857 E.00686
;WIDTH:0.417458
G1 X120.151 Y18.891 E.00746
;WIDTH:0.431178
G1 X120.625 Y19.101 E.01674
G1 X121.007 Y19.404 E.01574
;WIDTH:0.426747
G1 X121.324 Y19.794 E.01604
G1 X121.541 Y20.292 E.01734
;WIDTH:0.419991
G1 X121.579 Y20.545 E.00802
;WIDTH:0.387282
G1 X121.617 Y20.798 E.00733
;WIDTH:0.385409
G1 X121.693 Y21.003 E.00623
M73 P9 R6
;WIDTH:0.416245
G1 X121.769 Y21.209 E.00682
;WIDTH:0.427783
G1 X121.833 Y21.708 E.0161
;WIDTH:0.455452
G1 X121.886 Y22.748 E.03572
;WIDTH:0.419999
G1 X121.882 Y60.777 E1.19237
;WIDTH:0.452271
G1 X121.854 Y61.328 E.01878
G1 X121.773 Y62.043 E.02449
;WIDTH:0.416245
G1 X121.708 Y62.22 E.00585
;WIDTH:0.388312
G1 X121.643 Y62.398 E.00544
;WIDTH:0.37939
G1 X121.589 Y62.736 E.00958
;WIDTH:0.405401
G1 X121.531 Y62.963 E.00706
;WIDTH:0.431412
G1 X121.473 Y63.191 E.0076
G1 X121.306 Y63.489 E.01103
;WIDTH:0.427919
G1 X121.004 Y63.887 E.01599
;WIDTH:0.431248
G1 X120.626 Y64.182 E.01548
G1 X120.111 Y64.4 E.01806
;WIDTH:0.414793
G1 X119.894 Y64.431 E.00678
;WIDTH:0.386106
G1 X119.676 Y64.462 E.00628
;WIDTH:0.357419
G1 X118.867 Y64.477 E.02116
;WIDTH:0.352433
G1 X118.613 Y64.464 E.00655
;WIDTH:0.377655
G1 X118.36 Y64.451 E.00705
;WIDTH:0.410643
G1 X118.003 Y64.4 E.01103
;WIDTH:0.44363
G1 X116.931 Y64.252 E.03606
;WIDTH:0.419999
G1 X115.903 Y64.234 E.03224
G1 X115.903 Y62.345 E.05923
;WIDTH:0.457718
G1 X115.924 Y62.219 E.00441
;WIDTH:0.495437
G1 X115.944 Y62.093 E.0048
;WIDTH:0.533156
G1 X115.965 Y61.967 E.00521
;WIDTH:0.570875
G1 X115.986 Y61.841 E.00561
;WIDTH:0.577246
G1 X116.086 Y61.145 E.03124
G1 X116.257 Y60.674 E.02226
;WIDTH:0.57586
G1 X116.604 Y60.077 E.0306
;WIDTH:0.571614
G1 X116.931 Y59.705 E.02177
;WIDTH:0.569459
G1 X117.325 Y59.387 E.02217
;WIDTH:0.568412
G1 X117.773 Y59.126 E.02266
;WIDTH:0.569752
G1 X118.255 Y58.945 E.02255
;WIDTH:0.572835
G1 X118.702 Y58.853 E.02011
;WIDTH:0.57445
G1 X119.141 Y58.83 E.01943
;WIDTH:0.58383
G1 X119.635 Y58.869 E.02229
M204 P1000
G1 E-2.24 F4200
;WIPE_START
G1 F7200
G1 X119.695 Y58.874 E-.03337
G1 X119.736 Y58.837 E-.0306
G1 X119.777 Y58.8 E-.0306
G1 X119.817 Y58.763 E-.0302
G1 X119.858 Y58.726 E-.0306
G1 X119.903 Y58.604 E-.07206
G1 X119.903 Y57.282 E-.73257
;WIPE_END
G1 Z.4 F720
G1 X116.269 Y20.968 F9000
G1 Z.2 F720
G1 E3.2 F2400
M204 P600
;TYPE:Perimeter
;WIDTH:0.429723
G1 F1200
G1 X116.285 Y20.762 E.00665
;WIDTH:0.462264
G1 X116.301 Y20.556 E.0072
M204 P1000
G1 E-2.24 F4200
;WIPE_START
G1 F7200
G1 X116.285 Y20.762 E-.1145
G1 X116.269 Y20.968 E-.1145
;WIPE_END
G1 E-.731 F4200
G1 Z.4 F720
G1 X121.339 Y24.186 F9000
G1 Z.2 F720
G1 E3.2 F2400
M204 P600
;TYPE:Solid infill
;WIDTH:0.420666
G1 F1200
G1 X121.049 Y23.896 E.01288
G1 X120.947 Y23.978 E.00411
G1 X120.726 Y24.107 E.00804
G1 X121.17 Y24.551 E.01972
G1 X121.17 Y25.085 E.01677
G1 X120.6 Y24.515 E.02532
G1 X120.619 Y24.666 E.00478
G1 X120.619 Y25.069 E.01266
G1 X121.17 Y25.619 E.02445
G1 X121.17 Y26.153 E.01677
G1 X120.619 Y25.603 E.02445
G1 X120.619 Y26.137 E.01677
G1 X121.17 Y26.688 E.02448
G1 X121.17 Y27.222 E.01677
G1 X120.619 Y26.672 E.02445
G1 X120.619 Y27.206 E.01677
G1 X121.17 Y27.756 E.02445
M73 P10 R6
G1 X121.17 Y28.29 E.01677
G1 X120.619 Y27.74 E.02445
G1 X120.619 Y28.274 E.01677
G1 X121.17 Y28.824 E.02445
G1 X121.17 Y29.359 E.0168
G1 X120.619 Y28.808 E.02448
G1 X120.619 Y29.343 E.0168
G1 X121.17 Y29.893 E.02445
G1 X121.17 Y30.427 E.01677
G1 X120.619 Y29.877 E.02445
G1 X120.619 Y30.411 E.01677
G1 X121.17 Y30.961 E.02445
G1 X121.17 Y31.496 E.0168
G1 X120.619 Y30.945 E.02448
G1 X120.619 Y31.48 E.0168
G1 X121.17 Y32.03 E.02445
G1 X121.17 Y32.564 E.01677
G1 X120.619 Y32.014 E.02445
G1 X120.619 Y32.548 E.01677
G1 X121.17 Y33.098 E.02445
G1 X121.17 Y33.632 E.01677
G1 X120.619 Y33.082 E.02445
G1 X120.619 Y33.616 E.01677
G1 X121.17 Y34.167 E.02448
G1 X121.17 Y34.701 E.01677
G1 X120.619 Y34.151 E.02445
G1 X120.619 Y34.685 E.01677
G1 X121.17 Y35.235 E.02445
G1 X121.17 Y35.769 E.01677
G1 X120.619 Y35.219 E.02445
G1 X120.619 Y35.753 E.01677
G1 X121.17 Y36.303 E.02445
G1 X121.17 Y36.838 E.0168
G1 X120.619 Y36.287 E.02448
G1 X120.619 Y36.822 E.0168
G1 X121.17 Y37.372 E.02445
G1 X121.17 Y37.906 E.01677
G1 X120.619 Y37.356 E.02445
G1 X120.619 Y37.89 E.01677
G1 X121.17 Y38.44 E.02445
G1 X121.17 Y38.975 E.0168
G1 X120.619 Y38.424 E.02448
G1 X120.619 Y38.959 E.0168
G1 X121.17 Y39.509 E.02445
G1 X121.17 Y40.043 E.01677
G1 X120.619 Y39.493 E.02445
G1 X120.619 Y40.027 E.01677
G1 X121.17 Y40.577 E.02445
G1 X121.17 Y41.111 E.01677
G1 X120.619 Y40.561 E.02445
G1 X120.619 Y41.095 E.01677
G1 X121.17 Y41.646 E.02448
G1 X121.17 Y42.18 E.01677
G1 X120.619 Y41.63 E.02445
G1 X120.619 Y42.164 E.01677
G1 X121.17 Y42.714 E.02445
G1 X121.17 Y43.248 E.01677
G1 X120.619 Y42.698 E.02445
G1 X120.619 Y43.232 E.01677
G1 X121.17 Y43.782 E.02445
G1 X121.17 Y44.317 E.0168
G1 X120.619 Y43.766 E.02448
G1 X120.619 Y44.301 E.0168
G1 X121.17 Y44.851 E.02445
G1 X121.17 Y45.385 E.01677
G1 X120.619 Y44.835 E.02445
G1 X120.619 Y45.369 E.01677
G1 X121.17 Y45.919 E.02445
G1 X121.17 Y46.454 E.0168
G1 X120.619 Y45.903 E.02448
G1 X120.619 Y46.437 E.01677
G1 X121.17 Y46.988 E.02448
G1 X121.17 Y47.522 E.01677
G1 X120.619 Y46.972 E.02445
G1 X120.619 Y47.506 E.01677
G1 X121.17 Y48.056 E.02445
G1 X121.17 Y48.59 E.01677
G1 X120.619 Y48.04 E.02445
G1 X120.619 Y48.574 E.01677
G1 X121.17 Y49.125 E.02448
G1 X121.17 Y49.659 E.01677
G1 X120.619 Y49.109 E.02445
G1 X120.619 Y49.643 E.01677
G1 X121.17 Y50.193 E.02445
G1 X121.17 Y50.727 E.01677
G1 X120.619 Y50.177 E.02445
G1 X120.619 Y50.711 E.01677
G1 X121.17 Y51.261 E.02445
