; generated by PrusaSlicer 2.7.3+MacOS-arm64 on 2024-05-25 at 14:44:16 UTC


;
;

;
;

;
;
; 

; external perimeters extrusion width = 0.45mm
; perimeters extrusion width = 0.45mm
; infill extrusion width = 0.45mm
; solid infill extrusion width = 0.45mm
; top infill extrusion width = 0.40mm
; first layer extrusion width = 0.42mm

M73 P0 R48
M201 X2500 Y2500 Z400 E5000 ; sets maximum accelerations, mm/sec^2
M203 X180 Y180 Z12 E80 ; sets maximum feedrates, mm / sec
M204 P2000 R1250 T2500 ; sets acceleration (P, T) and retract acceleration (R), mm/sec^2
M205 X8.00 Y8.00 Z2.00 E10.00 ; sets the jerk limits, mm/sec
M205 S0 T0 ; sets the minimum extruding and travel feed rate, mm/sec

; printing object wing_L_v1.0.stl id:0 copy 0
; stop printing object wing_L_v1.0.stl id:0 copy 0

;TYPE:Custom
M862.3 P "MINI" ; printer model check
G90 ; use absolute coordinates
M83 ; extruder relative mode
M104 S170 ; set extruder temp for bed leveling
M140 S60 ; set bed temp
M109 R170 ; wait for bed leveling temp
M190 S60 ; wait for bed temp
M204 T1250 ; set travel acceleration
G28 ; home all without mesh bed level
G29 ; mesh bed leveling 
M204 T2500 ; restore travel acceleration
M104 S215 ; set extruder temp
G92 E0
G1 Y-2 X179 F2400
G1 Z3 F720
M109 S215 ; wait for extruder temp

; intro line
G1 X170 F1000
G1 Z0.2 F720
G1 X110 E8 F900
G1 X40 E10 F700
G92 E0

M221 S95 ; set flow
G21 ; set units to millimeters
G90 ; use absolute coordinates
M83 ; use relative distances for extrusion
M900 K0.2 ; Filament gcode LA 1.5
; ; Filament gcode LA 1.0

M107
;LAYER_CHANGE
;Z:0.2
;HEIGHT:0.2
G1 E-3.2 F4200
G1 Z.4 F720
G1 X23.159 Y20.959 F9000
G1 Z.2 F720
G1 E3.2 F2400
M204 P600
;TYPE:Skirt/Brim
;WIDTH:0.42
G1 F1200
G1 X24.096 Y20.058 E.04076
G1 X25.404 Y19.19 E.04922
G1 X39.98 Y11.244 E.52052
G1 X41.909 Y10.289 E.06749
G1 X43.127 Y9.852 E.04057
G1 X54.592 Y6.507 E.37446
G1 X55.836 Y6.225 E.03999
G1 X57.347 Y6.023 E.0478
G1 X65.945 Y5.616 E.26989
G1 X66.784 Y5.641 E.02632
G1 X67.586 Y5.695 E.0252
G1 X68.876 Y5.935 E.04114
G1 X80.783 Y9.327 E.38819
G1 X82.003 Y9.779 E.04079
G1 X83.529 Y10.497 E.05288
G1 X85.239 Y11.515 E.0624
G1 X95.149 Y18.078 E.37268
G1 X100.287 Y21.969 E.20208
G1 X101.154 Y22.846 E.03867
G1 X108.528 Y32.553 E.38222
G1 X109.257 Y33.667 E.04174
G1 X174.938 Y152.691 E4.26242
G1 X175.335 Y153.867 E.03892
G1 X175.469 Y155.024 E.03652
G1 X175.542 Y162.711 E.24103
G1 X175.435 Y163.903 E.03752
G1 X174.939 Y165.594 E.05525
G1 X173.64 Y168.252 E.09276
G1 X173.114 Y169.071 E.03052
G1 X172.402 Y169.901 E.03429
G1 X171.412 Y170.66 E.03911
G1 X170.238 Y171.195 E.04045
G1 X168.892 Y171.533 E.04351
G1 X157.434 Y173.351 E.36375
G1 X144.554 Y174.342 E.40504
M73 P1 R48
G1 X141.7 Y174.377 E.08949
G1 X124.282 Y174.073 E.54621
G1 X104.729 Y173.417 E.61342
G1 X103.322 Y173.29 E.04429
G1 X101.945 Y173.056 E.04379
G1 X84.177 Y167.917 E.57994
G1 X64.455 Y159.992 E.66643
G1 X13.923 Y136.285 E1.75009
G1 X12.863 Y135.539 E.04064
G1 X11.95 Y134.476 E.04394
G1 X11.641 Y133.938 E.01945
G1 X11.244 Y132.919 E.03429
G1 X4.581 Y107.76 E.81604
G1 X4.458 Y106.662 E.03464
G1 X4.498 Y88.815 E.55958
G1 X4.65 Y85.959 E.08967
G1 X5.335 Y79.897 E.19128
G1 X8.148 Y60.726 E.60753
G1 X9.085 Y55.501 E.16644
M73 P1 R47
G1 X10.335 Y50.296 E.16784
G1 X13.434 Y38.552 E.38083
G1 X14.312 Y35.556 E.09789
G1 X15.346 Y32.809 E.09203
G1 X16.612 Y30.311 E.08781
G1 X18.19 Y27.861 E.09137
G1 X22.404 Y21.89 E.22915
G1 X23.121 Y21.005 E.03571
M204 P1000
G1 E-2.24 F4200
;WIPE_START
G1 F7200
G1 X23.159 Y20.959 E-.03306
G1 X24.096 Y20.058 E-.72037
G1 X24.407 Y19.852 E-.20657
;WIPE_END
G1 Z.4 F720
; printing object wing_L_v1.0.stl id:0 copy 0
G1 X108.191 Y53.272 F9000
G1 Z.2 F720
G1 E3.2 F2400
M204 P600
;TYPE:Perimeter
;WIDTH:0.419999
G1 F1200
G1 X108.011 Y53.231 E.00579
G1 X107.504 Y53.233 E.0159
G1 X106.919 Y53.367 E.01882
G1 X106.344 Y53.717 E.02111
G1 X106.095 Y53.963 E.01097
G1 X105.575 Y54.714 E.02864
G1 X105.704 Y54.238 E.01546
G1 X105.765 Y53.676 E.01772
G1 X105.713 Y53.064 E.01926
G1 X105.535 Y52.506 E.01836
G1 X105.296 Y52.117 E.01431
;WIDTH:0.464518
G1 X105.249 Y52.019 E.00381
;WIDTH:0.509037
G1 X105.202 Y51.921 E.00421
;WIDTH:0.553556
G1 X105.156 Y51.823 E.0046
;WIDTH:0.598074
G1 X105.109 Y51.725 E.00502
G1 X105.183 Y51.764 E.00386
;WIDTH:0.561718
G1 X105.256 Y51.803 E.00357
;WIDTH:0.525361
G1 X105.33 Y51.842 E.00336
;WIDTH:0.489004
G1 X105.568 Y51.972 E.01006
;WIDTH:0.454502
G1 X105.806 Y52.102 E.00928
;WIDTH:0.419999
G1 X106.31 Y52.315 E.01716
G1 X106.855 Y52.442 E.01755
G1 X107.425 Y52.463 E.01788
G1 X107.702 Y52.424 E.00877
G1 X108.187 Y52.28 E.01586
G1 X108.523 Y52.113 E.01176
G1 X108.98 Y51.702 E.01927
G1 X109.245 Y51.229 E.017
G1 X109.341 Y50.623 E.01924
G1 X109.319 Y50.086 E.01685
G1 X109.367 Y49.424 E.02081
G1 X109.341 Y49.125 E.00941
G1 X109.223 Y48.655 E.01519
G1 X109.068 Y48.326 E.0114
G1 X108.753 Y47.899 E.01664
G1 X108.456 Y47.635 E.01246
G1 X108.825 Y47.429 E.01325
G1 X109.239 Y47.05 E.0176
G1 X109.54 Y46.604 E.01687
G1 X109.767 Y46.053 E.01868
G1 X109.858 Y45.563 E.01563
;WIDTH:0.456757
G1 X109.88 Y45.297 E.00918
;WIDTH:0.493514
G1 X109.902 Y45.032 E.00996
;WIDTH:0.530271
G1 X109.923 Y44.766 E.01081
;WIDTH:0.555325
G1 X109.918 Y44.672 E.00401
;WIDTH:0.580378
G1 X109.913 Y44.579 E.00416
G1 X109.767 Y44.062 E.02401
G1 X109.448 Y43.194 E.04133
G1 X110.147 Y43.984 E.04714
;WIDTH:0.581165
G1 X110.497 Y44.545 E.02959
;WIDTH:0.540874
G1 X110.567 Y44.667 E.00582
;WIDTH:0.500582
G1 X110.637 Y44.79 E.00539
;WIDTH:0.460291
G1 X110.707 Y44.912 E.00488
;WIDTH:0.419999
G1 X110.813 Y45.576 E.02108
G1 X110.812 Y46.371 E.02493
G1 X110.595 Y48.3 E.06086
G1 X110.275 Y50.178 E.05973
G1 X110.08 Y50.938 E.0246
G1 X109.843 Y51.592 E.02181
G1 X109.318 Y52.743 E.03967
G1 X109.168 Y53.217 E.01559
G1 X109.107 Y53.709 E.01554
G1 X108.477 Y53.338 E.02292
G1 X108.25 Y53.286 E.0073
M204 P1000
G1 E-2.24 F4200
;WIPE_START
G1 F7200
G1 X108.191 Y53.272 E-.0336
G1 X108.011 Y53.231 E-.1023
G1 X107.504 Y53.233 E-.28096
G1 X106.919 Y53.367 E-.33258
G1 X106.594 Y53.565 E-.21056
;WIPE_END
G1 Z.4 F720
G1 X101.261 Y54.456 F9000
G1 Z.2 F720
G1 E3.2 F2400
M204 P600
G1 F1200
G1 X101.413 Y54.886 E.0143
G1 X101.631 Y55.407 E.01771
G1 X101.948 Y55.857 E.01726
G1 X102.209 Y56.087 E.01091
G1 X102.524 Y56.28 E.01158
G1 X103.019 Y56.45 E.01641
G1 X103.525 Y56.485 E.0159
G1 X103.812 Y56.456 E.00904
G1 X104.306 Y56.328 E.016
G1 X104.604 Y56.191 E.01028
G1 X104.993 Y55.9 E.01523
G1 X104.944 Y56.112 E.00682
G1 X104.871 Y56.814 E.02213
G1 X104.697 Y56.996 E.00789
G1 X104.421 Y57.355 E.0142
G1 X104.219 Y57.848 E.0167
G1 X104.203 Y58.138 E.00911
G1 X104.266 Y58.654 E.0163
G1 X104.465 Y59.095 E.01517
G1 X104.724 Y59.566 E.01685
G1 X105.109 Y60.031 E.01893
;WIDTH:0.465601
G1 X105.312 Y60.204 E.00937
;WIDTH:0.511202
G1 X105.514 Y60.377 E.01036
G1 X105.344 Y60.372 E.00662
;WIDTH:0.471189
G1 X105.066 Y60.397 E.00994
;WIDTH:0.445594
G1 X104.788 Y60.423 E.00935
;WIDTH:0.419999
G1 X104.191 Y60.638 E.0199
G1 X103.803 Y60.959 E.01579
G1 X103.509 Y61.382 E.01615
G1 X103.169 Y62.146 E.02622
G1 X103.001 Y62.736 E.01923
;WIDTH:0.458084
G1 X102.953 Y63.248 E.01775
G1 X102.743 Y62.766 E.01815
;WIDTH:0.419999
G1 X102.337 Y62.303 E.01931
G1 X101.956 Y62.028 E.01473
G1 X101.497 Y61.843 E.01552
G1 X100.95 Y61.754 E.01738
G1 X100.291 Y61.781 E.02068
G1 X99.671 Y61.931 E.02
G1 X99.049 Y62.217 E.02147
G1 X98.212 Y62.827 E.03247
G1 X96.776 Y64.189 E.06206
G1 X93.126 Y67.356 E.15152
G1 X91.29 Y68.88 E.07481
G1 X89.585 Y70.094 E.06563
;WIDTH:0.464808
G1 X89.491 Y70.134 E.00358
;WIDTH:0.509616
G1 X89.396 Y70.174 E.004
;WIDTH:0.554425
G1 X89.302 Y70.213 E.00433
;WIDTH:0.599233
G1 X89.208 Y70.253 E.00473
G1 X88.859 Y70.517 E.02024
;WIDTH:0.574517
G1 X88.313 Y70.933 E.03034
;WIDTH:0.529344
G1 X87.767 Y71.35 E.02779
;WIDTH:0.48417
G1 X87.221 Y71.766 E.02518
;WIDTH:0.438996
G1 X87.055 Y71.905 E.00713
;WIDTH:0.431419
G1 X85.427 Y73.243 E.06807
;WIDTH:0.432547
G1 X85.206 Y73.422 E.00921
;WIDTH:0.463753
G1 X84.486 Y74.033 E.03304
;WIDTH:0.494958
G1 X83.766 Y74.644 E.03549
;WIDTH:0.504642
G1 X83.362 Y74.991 E.02045
G1 X82.384 Y75.735 E.04718
;WIDTH:0.478257
G1 X81.97 Y76.02 E.01819
;WIDTH:0.451831
G1 X81.424 Y76.399 E.0226
;WIDTH:0.408123
G1 X80.877 Y76.779 E.02023
;WIDTH:0.409254
G1 X80.809 Y76.797 E.00214
;WIDTH:0.454092
G1 X80.741 Y76.814 E.0024
;WIDTH:0.498931
G1 X80.673 Y76.831 E.00266
;WIDTH:0.543769
G1 X80.605 Y76.849 E.00293
;WIDTH:0.588608
G1 X80.537 Y76.866 E.00318
;WIDTH:0.633446
G1 X80.469 Y76.883 E.00344
G1 X80.505 Y76.823 E.00344
;WIDTH:0.588608
G1 X80.541 Y76.763 E.00317
;WIDTH:0.543769
G1 X80.577 Y76.703 E.00291
;WIDTH:0.498931
G1 X80.613 Y76.642 E.00269
;WIDTH:0.454092
G1 X80.649 Y76.582 E.00239
;WIDTH:0.409254
G1 X80.686 Y76.522 E.00215
;WIDTH:0.408123
G1 X81.206 Y76.107 E.0202
;WIDTH:0.451831
G1 X81.726 Y75.692 E.02262
;WIDTH:0.478257
G1 X82.117 Y75.392 E.01784
;WIDTH:0.504642
G1 X83.479 Y74.295 E.06714
;WIDTH:0.494958
G1 X84.219 Y73.708 E.0355
;WIDTH:0.463753
G1 X84.959 Y73.121 E.03305
;WIDTH:0.432547
G1 X85.18 Y72.948 E.00909
;WIDTH:0.431419
G1 X86.808 Y71.605 E.06818
;WIDTH:0.438996
G1 X86.971 Y71.46 E.00718
;WIDTH:0.48417
G1 X87.489 Y71.009 E.0252
;WIDTH:0.529344
G1 X88.006 Y70.557 E.02778
;WIDTH:0.574517
G1 X88.524 Y70.106 E.03036
;WIDTH:0.599233
G1 X88.861 Y69.82 E.02045
G1 X88.92 Y69.736 E.00475
;WIDTH:0.554425
G1 X88.979 Y69.653 E.00433
;WIDTH:0.509616
G1 X89.038 Y69.569 E.00398
;WIDTH:0.464808
G1 X89.098 Y69.486 E.00359
;WIDTH:0.419999
G1 X90.342 Y68.434 E.05108
G1 X92.519 Y66.741 E.08647
G1 X93.591 Y65.865 E.04341
G1 X94.58 Y64.962 E.04199
G1 X95.488 Y64.003 E.04141
G1 X96.223 Y63.126 E.03588
G1 X97.578 Y61.438 E.06787
G1 X98.735 Y60.054 E.05656
G1 X99.839 Y58.639 E.05627
G1 X100.517 Y57.552 E.04017
G1 X101.082 Y56.136 E.0478
G1 X101.22 Y55.498 E.02047
G1 X101.274 Y54.903 E.01873
G1 X101.263 Y54.516 E.01214
M204 P1000
G1 E-2.24 F4200
;WIPE_START
G1 F7200
G1 X101.261 Y54.456 E-.03327
G1 X101.413 Y54.886 E-.25274
G1 X101.631 Y55.407 E-.31298
G1 X101.948 Y55.857 E-.30504
G1 X102.024 Y55.924 E-.05597
;WIPE_END
G1 Z.4 F720
G1 X81.209 Y59.482 F9000
G1 Z.2 F720
G1 E3.2 F2400
M204 P600
;WIDTH:0.55085
G1 F1200
G1 X82.642 Y57.853 E.09163
;WIDTH:0.563771
G1 X83.58 Y57.023 E.05424
;WIDTH:0.531355
G1 X85.223 Y55.817 E.08277
G1 X83.91 Y57.377 E.08281
;WIDTH:0.551281
G1 X82.989 Y58.221 E.05281
;WIDTH:0.55085
G1 X82.527 Y58.583 E.02479
G1 X81.258 Y59.448 E.06486
M204 P1000
G1 E-2.24 F4200
;WIPE_START
G1 F7200
G1 X81.209 Y59.482 E-.03305
G1 X82.314 Y58.226 E-.92695
;WIPE_END
G1 Z.4 F720
G1 X60.199 Y52.079 F9000
G1 Z.2 F720
G1 E3.2 F2400
M204 P600
;WIDTH:0.609148
G1 F1200
G1 X60.254 Y52.002 E.00446
;WIDTH:0.564802
G1 X60.528 Y51.708 E.01744
;WIDTH:0.516535
G1 X60.801 Y51.414 E.0158
;WIDTH:0.468267
G1 X61.075 Y51.12 E.01421
;WIDTH:0.419999
G1 X61.965 Y50.055 E.04352
G1 X65.171 Y45.517 E.17421
G1 X66.902 Y42.805 E.10088
;WIDTH:0.459797
G1 X67.152 Y42.425 E.01577
;WIDTH:0.499594
G1 X67.401 Y42.044 E.01728
;WIDTH:0.540602
G1 X67.453 Y41.989 E.00313
;WIDTH:0.58161
G1 X67.504 Y41.935 E.00333
;WIDTH:0.622617
G1 X67.556 Y41.88 E.00365
G1 X67.563 Y41.96 E.00387
;WIDTH:0.58161
G1 X67.57 Y42.039 E.00355
;WIDTH:0.540602
G1 X67.577 Y42.119 E.00332
;WIDTH:0.499594
G1 X67.447 Y42.74 E.02409
;WIDTH:0.459797
G1 X67.317 Y43.361 E.02199
;WIDTH:0.419999
G1 X67.182 Y44.381 E.03226
G1 X67.168 Y45.506 E.03528
G1 X67.319 Y46.804 E.04097
G1 X67.566 Y47.782 E.03163
G1 X67.741 Y48.246 E.01555
G1 X68.052 Y48.991 E.02531
G1 X68.642 Y49.982 E.03616
G1 X69.104 Y50.502 E.02181
G1 X69.687 Y50.946 E.02298
G1 X70.379 Y51.25 E.0237
G1 X71.123 Y51.372 E.02364
G1 X71.861 Y51.32 E.0232
G1 X72.4 Y51.181 E.01745
G1 X72.814 Y51.006 E.01409
G1 X72.12 Y52.081 E.04012
G1 X71.44 Y53.408 E.04675
G1 X70.912 Y54.806 E.04686
G1 X70.637 Y55.952 E.03695
G1 X70.569 Y55.317 E.02002
G1 X70.381 Y54.524 E.02555
G1 X70.141 Y53.898 E.02102
G1 X69.677 Y53.074 E.02965
G1 X69.179 Y52.429 E.02555
G1 X68.598 Y51.839 E.02596
G1 X67.945 Y51.312 E.02631
G1 X67.231 Y50.863 E.02645
G1 X66.467 Y50.516 E.02631
G1 X65.835 Y50.33 E.02066
G1 X65.432 Y50.272 E.01277
G1 X64.875 Y50.228 E.01752
G1 X64.122 Y50.3 E.02372
G1 X63.396 Y50.492 E.02355
G1 X62.203 Y51.014 E.04083
G1 X61.365 Y51.505 E.03045
;WIDTH:0.468267
G1 X61.007 Y51.687 E.0142
;WIDTH:0.516535
G1 X60.649 Y51.869 E.01582
;WIDTH:0.564802
G1 X60.291 Y52.051 E.01743
;WIDTH:0.609148
G1 X60.257 Y52.061 E.00167
M204 P1000
G1 E-2.24 F4200
;WIPE_START
G1 F7200
G1 X60.199 Y52.079 E-.03365
G1 X60.254 Y52.002 E-.05244
G1 X60.528 Y51.708 E-.22271
G1 X60.801 Y51.414 E-.22233
G1 X61.075 Y51.12 E-.22271
G1 X61.314 Y50.834 E-.20616
;WIPE_END
G1 Z.4 F720
G1 X37.899 Y69.846 F9000
G1 Z.2 F720
G1 E3.2 F2400
M204 P600
;WIDTH:0.419999
G1 F1200
G1 X37.795 Y69.809 E.00346
G1 X37.339 Y69.542 E.01657
G1 X36.939 Y69.196 E.01658
G1 X36.609 Y68.782 E.0166
G1 X36.362 Y68.321 E.0164
G1 X36.189 Y67.786 E.01763
G1 X36.093 Y67.053 E.02318
G1 X36.109 Y66.415 E.02001
G1 X36.164 Y65.611 E.02527
;WIDTH:0.465063
G1 X36.15 Y65.51 E.00358
;WIDTH:0.510126
G1 X36.135 Y65.409 E.00397
;WIDTH:0.55519
G1 X36.12 Y65.308 E.00435
;WIDTH:0.600253
G1 X36.106 Y65.207 E.00473
G1 X36.158 Y64.641 E.02634
;WIDTH:0.586371
G1 X36.169 Y64.022 E.02798
;WIDTH:0.542218
G1 X36.178 Y63.43 E.02458
;WIDTH:0.498064
G1 X36.222 Y62.782 E.02458
;WIDTH:0.448393
G1 X36.266 Y62.135 E.02186
;WIDTH:0.398721
G1 X36.291 Y61.629 E.01499
;WIDTH:0.419999
G1 X36.553 Y60.347 E.04103
G1 X36.996 Y58.382 E.06316
G1 X37.226 Y56.718 E.05267
G1 X37.349 Y55.163 E.04891
G1 X37.497 Y53.704 E.04598
G1 X37.736 Y52.28 E.04527
G1 X38.016 Y50.769 E.04818
G1 X38.218 Y49.314 E.04606
G1 X38.433 Y46.261 E.09596
G1 X38.601 Y44.48 E.05609
G1 X39.003 Y40.971 E.11074
G1 X39.24 Y39.429 E.04892
G1 X39.788 Y36.595 E.0905
G1 X39.989 Y35.092 E.04754
G1 X40.316 Y31.795 E.10388
G1 X40.462 Y31.151 E.0207
G1 X40.657 Y30.504 E.02119
G1 X40.862 Y29.96 E.01823
G1 X41.242 Y29.242 E.02547
G1 X41.644 Y28.631 E.02293
G1 X41.914 Y28.258 E.01444
G1 X42.981 Y27.063 E.05023
G1 X44.136 Y25.969 E.04988
G1 X44.703 Y25.539 E.02231
G1 X45.278 Y25.139 E.02196
;WIDTH:0.414635
G1 X46.191 Y24.611 E.0326
;WIDTH:0.419999
G1 X46.961 Y24.366 E.02534
G1 X47.315 Y24.296 E.01131
G1 X48.038 Y24.251 E.02271
G1 X48.613 Y24.326 E.01818
G1 X49.121 Y24.418 E.01619
G1 X49.872 Y24.712 E.02529
G1 X50.357 Y24.966 E.01717
G1 X50.84 Y25.259 E.01771
G1 X51.578 Y25.843 E.02951
G1 X52.207 Y26.481 E.02809
G1 X52.736 Y27.174 E.02734
G1 X53.172 Y27.927 E.02728
G1 X53.525 Y28.739 E.02776
G1 X53.812 Y29.597 E.02837
G1 X54.205 Y31.306 E.05498
G1 X54.311 Y32.063 E.02397
G1 X54.381 Y32.914 E.02677
G1 X54.407 Y34.259 E.04218
G1 X54.397 Y35.642 E.04336
G1 X54.309 Y36.335 E.0219
G1 X54.248 Y36.615 E.00899
G1 X54.046 Y37.165 E.01837
G1 X53.478 Y38.109 E.03454
G1 X53.46 Y39.127 E.03192
G1 X53.418 Y40.012 E.02778
G1 X53.25 Y41.116 E.03501
G1 X52.989 Y42.157 E.03365
G1 X51.759 Y45.88 E.12294
G1 X50.855 Y49.069 E.10393
G1 X49.971 Y52.277 E.10433
G1 X49.545 Y53.905 E.05276
G1 X48.991 Y55.506 E.05312
M73 P2 R47
G1 X47.663 Y58.532 E.10361
G1 X47.049 Y60.169 E.05482
G1 X46.33 Y61.868 E.05784
G1 X45.575 Y63.197 E.04792
G1 X44.762 Y64.497 E.04808
G1 X43.979 Y65.873 E.04964
G1 X43.159 Y67.201 E.04894
G1 X42.256 Y68.264 E.04373
G1 X41.719 Y68.752 E.02275
G1 X41.106 Y69.271 E.02518
G1 X40.406 Y69.706 E.02584
G1 X39.849 Y69.936 E.01889
G1 X39.328 Y70.048 E.01671
G1 X38.81 Y70.065 E.01625
G1 X38.291 Y69.985 E.01647
G1 X37.955 Y69.866 E.01118
M204 P1000
G1 X37.955 Y69.866 F9000
G1 X38.03 Y69.497
M204 P600
G1 F1200
G1 X37.975 Y69.478 E.00182
G1 X37.577 Y69.25 E.01438
G1 X37.152 Y68.864 E.018
G1 X36.834 Y68.415 E.01725
G1 X36.59 Y67.844 E.01947
G1 X36.467 Y67.004 E.02662
G1 X36.486 Y66.433 E.01791
G1 X36.62 Y64.641 E.05634
G1 X36.589 Y63.163 E.04635
G1 X36.654 Y61.649 E.04751
G1 X37.368 Y58.449 E.1028
G1 X37.601 Y56.758 E.05352
G1 X37.819 Y54.247 E.07903
G1 X38.032 Y52.792 E.04611
G1 X38.389 Y50.829 E.06256
G1 X38.593 Y49.353 E.04672
G1 X38.809 Y46.297 E.09606
G1 X38.976 Y44.518 E.05602
G1 X39.378 Y41.014 E.11059
G1 X39.613 Y39.487 E.04844
G1 X40.16 Y36.656 E.09041
G1 X40.364 Y35.136 E.04809
G1 X40.692 Y31.827 E.10426
