; generated by PrusaSlicer 2.7.3+MacOS-arm64 on 2024-05-25 at 14:45:45 UTC


;
;

;
;

;
;
; 

; external perimeters extrusion width = 0.45mm
; perimeters extrusion width = 0.45mm
; infill extrusion width = 0.45mm
; solid infill extrusion width = 0.45mm
; top infill extrusion width = 0.40mm
; first layer extrusion width = 0.42mm

M73 P0 R48
M201 X2500 Y2500 Z400 E5000 ; sets maximum accelerations, mm/sec^2
M203 X180 Y180 Z12 E80 ; sets maximum feedrates, mm / sec
M204 P2000 R1250 T2500 ; sets acceleration (P, T) and retract acceleration (R), mm/sec^2
M205 X8.00 Y8.00 Z2.00 E10.00 ; sets the jerk limits, mm/sec
M205 S0 T0 ; sets the minimum extruding and travel feed rate, mm/sec

; printing object wing_R_v1.0.stl id:0 copy 0
; stop printing object wing_R_v1.0.stl id:0 copy 0

;TYPE:Custom
M862.3 P "MINI" ; printer model check
G90 ; use absolute coordinates
M83 ; extruder relative mode
M104 S170 ; set extruder temp for bed leveling
M140 S60 ; set bed temp
M109 R170 ; wait for bed leveling temp
M190 S60 ; wait for bed temp
M204 T1250 ; set travel acceleration
G28 ; home all without mesh bed level
G29 ; mesh bed leveling 
M204 T2500 ; restore travel acceleration
M104 S215 ; set extruder temp
G92 E0
G1 Y-2 X179 F2400
G1 Z3 F720
M109 S215 ; wait for extruder temp

; intro line
G1 X170 F1000
G1 Z0.2 F720
G1 X110 E8 F900
G1 X40 E10 F700
G92 E0

M221 S95 ; set flow
G21 ; set units to millimeters
G90 ; use absolute coordinates
M83 ; use relative distances for extrusion
M900 K0.2 ; Filament gcode LA 1.5
; ; Filament gcode LA 1.0

M107
;LAYER_CHANGE
;Z:0.2
;HEIGHT:0.2
G1 E-3.2 F4200
G1 Z.4 F720
G1 X19.922 Y42.87 F9000
G1 Z.2 F720
G1 E3.2 F2400
M204 P600
;TYPE:Skirt/Brim
;WIDTH:0.42
G1 F1200
G1 X62.729 Y22.977 E1.48003
G1 X65.601 Y21.7 E.09855
G1 X85.104 Y13.961 E.65789
G1 X86.445 Y13.535 E.04412
G1 X102.829 Y8.895 E.53391
G1 X104.439 Y8.615 E.05124
G1 X105.846 Y8.495 E.04428
G1 X125.402 Y7.927 E.61342
G1 X144.241 Y7.699 E.59073
G1 X147.312 Y7.847 E.0964
G1 X158.55 Y8.798 E.35362
G1 X170.001 Y10.668 E.36379
G1 X171.345 Y11.012 E.0435
G1 X172.517 Y11.551 E.04045
G1 X173.503 Y12.316 E.03913
G1 X174.211 Y13.148 E.03425
G1 X174.637 Y13.808 E.02463
G1 X176.021 Y16.634 E.09866
G1 X176.417 Y17.865 E.04055
G1 X176.61 Y19.519 E.05221
G1 X176.506 Y27.108 E.23797
G1 X176.442 Y27.943 E.02626
G1 X176.253 Y28.757 E.0262
G1 X175.811 Y29.861 E.03729
G1 X109.832 Y148.12 E4.24598
M73 P0 R47
G1 X109.01 Y149.374 E.04701
M73 P1 R47
G1 X101.593 Y159.048 E.38221
G1 X100.5 Y160.109 E.04776
G1 X95.566 Y163.789 E.19299
G1 X85.627 Y170.307 E.37267
G1 X83.913 Y171.317 E.06238
G1 X82.383 Y172.029 E.05291
G1 X81.162 Y172.475 E.04076
G1 X69.239 Y175.813 E.38821
G1 X67.948 Y176.047 E.04114
G1 X66.511 Y176.12 E.04511
G1 X57.71 Y175.673 E.2763
G1 X56.2 Y175.464 E.0478
G1 X54.958 Y175.177 E.03997
G1 X43.508 Y171.78 E.37447
G1 X42.292 Y171.338 E.04057
G1 X40.367 Y170.373 E.06752
G1 X25.827 Y162.362 E.52051
G1 X24.873 Y161.761 E.03535
G1 X23.808 Y160.817 E.04462
G1 X22.839 Y159.649 E.04758
G1 X18.653 Y153.659 E.22913
G1 X17.176 Y151.355 E.08581
G1 X15.831 Y148.698 E.09337
G1 X14.754 Y145.779 E.09755
G1 X13.945 Y142.947 E.09235
G1 X10.903 Y131.211 E.38013
G1 X9.672 Y125.978 E.16856
G1 X9.193 Y123.433 E.0812
G1 X8.333 Y117.85 E.17712
G1 X6.472 Y104.761 E.41452
G1 X5.646 Y98.404 E.20099
G1 X5.367 Y95.393 E.09481
G1 X5.232 Y92.524 E.09006
G1 X5.276 Y74.797 E.55582
G1 X5.386 Y73.795 E.03161
G1 X12.179 Y48.57 E.81909
G1 X12.581 Y47.553 E.03429
G1 X13.371 Y46.396 E.04393
G1 X13.811 Y45.958 E.01947
G1 X14.874 Y45.216 E.04065
G1 X19.868 Y42.896 E.17265
M204 P1000
G1 E-2.24 F4200
;WIPE_START
G1 F7200
G1 X19.922 Y42.87 E-.03321
G1 X21.439 Y42.165 E-.92679
;WIPE_END
G1 Z.4 F720
; printing object wing_R_v1.0.stl id:0 copy 0
G1 X111.164 Y27.84 F9000
G1 Z.2 F720
G1 E3.2 F2400
M204 P600
;TYPE:Perimeter
;WIDTH:0.419999
G1 F1200
G1 X111.078 Y27.793 E.00307
G1 X110.679 Y27.462 E.01625
G1 X110.294 Y27.028 E.01819
G1 X108.942 Y25.275 E.06941
G1 X108.493 Y24.466 E.02901
G1 X108.303 Y23.885 E.01917
G1 X108.225 Y23.325 E.01773
G1 X108.245 Y22.749 E.01807
G1 X108.403 Y22.086 E.02137
G1 X108.62 Y21.631 E.01581
G1 X108.982 Y21.143 E.01905
G1 X109.438 Y20.745 E.01898
G1 X109.881 Y20.49 E.01603
G1 X110.154 Y20.371 E.00934
G1 X110.961 Y20.153 E.02621
G1 X111.844 Y20.07 E.02781
G1 X112.614 Y20.059 E.02415
G1 X115.131 Y20.072 E.07892
G1 X115.653 Y20.132 E.01647
G1 X116.201 Y20.221 E.01741
G1 X116.948 Y20.468 E.02467
G1 X117.414 Y20.715 E.01654
G1 X117.89 Y21.083 E.01886
G1 X118.258 Y21.509 E.01765
G1 X118.537 Y22.006 E.01787
G1 X118.712 Y22.543 E.01771
G1 X118.788 Y23.095 E.01747
G1 X118.724 Y24.057 E.03023
G1 X118.487 Y24.965 E.02942
G1 X118.146 Y25.753 E.02692
G1 X117.658 Y26.496 E.02787
G1 X117.22 Y26.963 E.02007
G1 X116.869 Y27.304 E.01534
G1 X116.148 Y27.839 E.02815
G1 X115.568 Y28.137 E.02045
;WIDTH:0.422906
G1 X115.038 Y28.368 E.01827
;WIDTH:0.464568
G1 X114.948 Y28.411 E.0035
;WIDTH:0.506229
G1 X114.858 Y28.453 E.00383
;WIDTH:0.54789
G1 X114.768 Y28.496 E.00419
;WIDTH:0.589551
G1 X114.678 Y28.538 E.00451
G1 X114.146 Y28.569 E.02422
;WIDTH:0.563681
G1 X113.996 Y28.53 E.00671
;WIDTH:0.515787
G1 X113.846 Y28.491 E.00609
;WIDTH:0.467893
G1 X113.695 Y28.452 E.00551
;WIDTH:0.419999
G1 X112.17 Y28.24 E.04828
G1 X111.602 Y28.077 E.01853
G1 X111.217 Y27.868 E.01374
M204 P1000
G1 X111.217 Y27.868 F9000
G1 X111.347 Y27.512
M204 P600
G1 F1200
G1 X111.295 Y27.484 E.00185
G1 X110.866 Y27.109 E.01787
G1 X110.447 Y26.61 E.02043
G1 X109.237 Y25.04 E.06215
G1 X108.825 Y24.288 E.02689
G1 X108.665 Y23.78 E.0167
G1 X108.6 Y23.282 E.01575
G1 X108.622 Y22.772 E.01601
G1 X108.757 Y22.215 E.01797
G1 X109.001 Y21.725 E.01716
G1 X109.318 Y21.332 E.01583
G1 X109.705 Y21.016 E.01567
G1 X110.158 Y20.77 E.01616
G1 X111.055 Y20.518 E.02921
G1 X111.872 Y20.446 E.02572
G1 X115.129 Y20.449 E.10212
G1 X115.978 Y20.555 E.02683
G1 X116.825 Y20.824 E.02786
G1 X117.274 Y21.07 E.01605
G1 X117.694 Y21.414 E.01702
G1 X118.024 Y21.835 E.01677
G1 X118.278 Y22.403 E.01951
G1 X118.39 Y22.923 E.01668
G1 X118.415 Y23.25 E.01028
G1 X118.348 Y24.024 E.02436
G1 X118.124 Y24.864 E.02726
G1 X117.802 Y25.598 E.02513
G1 X117.346 Y26.284 E.02583
G1 X116.644 Y27.001 E.03146
G1 X115.923 Y27.536 E.02815
G1 X114.951 Y28 E.03377
G1 X114.474 Y28.102 E.01529
G1 X113.962 Y28.109 E.01605
G1 X112.222 Y27.866 E.05509
G1 X111.707 Y27.71 E.01687
G1 X111.4 Y27.541 E.01099
M204 P1000
G1 X111.4 Y27.541 F9000
G1 X111.531 Y27.19
M204 P600
;TYPE:External perimeter
G1 F1200
G1 X111.142 Y26.852 E.01616
G1 X110.746 Y26.379 E.01934
G1 X109.538 Y24.813 E.06201
G1 X109.157 Y24.109 E.0251
G1 X109.022 Y23.646 E.01512
G1 X108.973 Y23.205 E.01391
G1 X109.004 Y22.76 E.01399
G1 X109.111 Y22.345 E.01344
G1 X109.319 Y21.929 E.01458
G1 X109.599 Y21.586 E.01388
G1 X109.943 Y21.311 E.01381
G1 X110.351 Y21.099 E.01442
G1 X111.154 Y20.882 E.02608
G1 X111.901 Y20.822 E.0235
G1 X115.127 Y20.826 E.10115
G1 X115.929 Y20.929 E.02535
G1 X116.707 Y21.182 E.02565
G1 X117.112 Y21.415 E.01465
G1 X117.432 Y21.687 E.01317
G1 X117.692 Y22.015 E.01312
G1 X117.916 Y22.509 E.01701
G1 X118.015 Y22.966 E.01466
G1 X118.04 Y23.217 E.00791
G1 X117.972 Y23.992 E.02439
G1 X117.761 Y24.763 E.02506
G1 X117.458 Y25.444 E.02337
G1 X117.034 Y26.072 E.02376
G1 X116.419 Y26.699 E.02754
G1 X115.698 Y27.234 E.02815
G1 X114.865 Y27.633 E.02896
G1 X114.454 Y27.726 E.01321
G1 X114.014 Y27.735 E.0138
G1 X112.275 Y27.493 E.05505
G1 X111.881 Y27.376 E.01289
G1 X111.584 Y27.218 E.01055
M204 P1000
G1 E-2.24 F4200
;WIPE_START
G1 F7200
G1 X111.531 Y27.19 E-.03322
G1 X111.142 Y26.852 E-.28558
G1 X110.746 Y26.379 E-.34186
G1 X110.416 Y25.951 E-.29934
;WIPE_END
G1 Z.4 F720
G1 X112.625 Y30.452 F9000
G1 Z.2 F720
G1 E3.2 F2400
M204 P600
;TYPE:Perimeter
G1 F1200
G1 X112.679 Y30.334 E.00407
G1 X112.928 Y29.976 E.01367
G1 X113.168 Y29.739 E.01058
G1 X113.776 Y29.369 E.02232
;WIDTH:0.469861
G1 X114.061 Y29.25 E.01096
;WIDTH:0.512954
G1 X114.139 Y29.211 E.00341
;WIDTH:0.556047
G1 X114.218 Y29.173 E.00374
;WIDTH:0.59914
G1 X114.296 Y29.134 E.00403
G1 X114.742 Y29.077 E.0208
;WIDTH:0.589551
G1 X114.83 Y29.105 E.0042
;WIDTH:0.54789
G1 X114.919 Y29.132 E.00391
;WIDTH:0.506229
G1 X115.008 Y29.16 E.00359
;WIDTH:0.464568
G1 X115.097 Y29.188 E.00327
;WIDTH:0.422906
G1 X115.771 Y29.247 E.02138
;WIDTH:0.419999
G1 X117.477 Y29.651 E.05497
G1 X118.243 Y29.74 E.02418
G1 X120.142 Y29.853 E.05965
G1 X120.848 Y29.963 E.0224
G1 X122.204 Y30.239 E.04339
G1 X124.059 Y30.537 E.05891
G1 X124.593 Y30.673 E.01728
G1 X125.312 Y30.92 E.02384
G1 X125.781 Y31.181 E.01683
G1 X126.056 Y31.37 E.01046
G1 X126.479 Y31.768 E.01821
G1 X126.811 Y32.248 E.0183
G1 X127.038 Y32.798 E.01866
G1 X127.13 Y33.152 E.01147
G1 X127.171 Y33.674 E.01642
G1 X127.077 Y34.368 E.02196
G1 X126.874 Y34.935 E.01888
G1 X126.666 Y35.332 E.01405
G1 X126.355 Y35.787 E.01728
G1 X125.994 Y36.173 E.01657
G1 X125.543 Y36.526 E.01796
G1 X125.301 Y36.686 E.0091
G1 X124.839 Y36.913 E.01614
G1 X124.356 Y37.067 E.0159
G1 X123.985 Y37.151 E.01193
G1 X122.963 Y37.215 E.03211
G1 X122.794 Y37.211 E.0053
G1 X121.72 Y37.085 E.03391
G1 X119.43 Y36.638 E.07316
G1 X117.311 Y36.151 E.06817
G1 X116.061 Y35.685 E.04183
G1 X114.989 Y35.087 E.03849
G1 X114.104 Y34.417 E.0348
G1 X113.24 Y33.524 E.03896
G1 X112.847 Y32.957 E.02163
G1 X112.583 Y32.395 E.01947
G1 X112.443 Y31.847 E.01773
G1 X112.401 Y31.292 E.01745
G1 X112.539 Y30.64 E.0209
G1 X112.6 Y30.507 E.00459
M204 P1000
G1 X112.6 Y30.507 F9000
G1 X112.981 Y30.565
M204 P600
G1 F1200
G1 X113.237 Y30.192 E.01418
G1 X113.746 Y29.799 E.02016
G1 X114.185 Y29.632 E.01473
G1 X114.744 Y29.539 E.01777
G1 X115.365 Y29.591 E.01954
G1 X116.051 Y29.692 E.02174
G1 X117.41 Y30.023 E.04386
G1 X118.21 Y30.116 E.02525
G1 X120.12 Y30.23 E.05999
G1 X120.788 Y30.335 E.0212
G1 X122.135 Y30.61 E.04311
G1 X123.994 Y30.909 E.05904
G1 X124.47 Y31.029 E.01539
G1 X125.189 Y31.277 E.02385
G1 X125.712 Y31.581 E.01897
G1 X126.148 Y31.968 E.01828
G1 X126.499 Y32.459 E.01892
G1 X126.723 Y33.039 E.01949
G1 X126.793 Y33.671 E.01994
G1 X126.705 Y34.307 E.02013
G1 X126.524 Y34.795 E.01632
G1 X126.24 Y35.298 E.01811
G1 X126.042 Y35.57 E.01055
G1 X125.686 Y35.947 E.01626
G1 X125.223 Y36.294 E.01814
G1 X124.673 Y36.574 E.01935
G1 X124.096 Y36.749 E.01891
G1 X123.962 Y36.774 E.00427
G1 X122.939 Y36.839 E.03214
G1 X121.764 Y36.71 E.03706
G1 X119.514 Y36.271 E.07188
G1 X117.395 Y35.784 E.06817
G1 X116.242 Y35.354 E.03858
G1 X115.217 Y34.786 E.03674
G1 X114.331 Y34.117 E.03481
G1 X113.514 Y33.265 E.03701
G1 X113.162 Y32.749 E.01958
G1 X112.928 Y32.242 E.01751
G1 X112.787 Y31.644 E.01926
G1 X112.796 Y31.16 E.01518
G1 X112.951 Y30.616 E.01774
M204 P1000
G1 X112.951 Y30.616 F9000
G1 X113.298 Y30.765
M204 P600
;TYPE:External perimeter
G1 F1200
G1 X113.594 Y30.361 E.0157
G1 X114.008 Y30.086 E.01558
G1 X114.301 Y29.991 E.00966
G1 X114.762 Y29.917 E.01464
G1 X115.705 Y29.999 E.02968
G1 X117.344 Y30.395 E.05287
G1 X118.177 Y30.492 E.02629
G1 X120.097 Y30.606 E.06031
G1 X120.727 Y30.707 E.02001
G1 X122.067 Y30.98 E.04288
G1 X123.929 Y31.28 E.05913
G1 X124.56 Y31.459 E.02057
G1 X125.067 Y31.633 E.01681
G1 X125.515 Y31.902 E.01638
G1 X125.893 Y32.246 E.01603
G1 X126.187 Y32.671 E.0162
G1 X126.368 Y33.165 E.0165
G1 X126.417 Y33.701 E.01688
G1 X126.333 Y34.245 E.01726
G1 X126.129 Y34.768 E.0176
G1 X125.826 Y35.245 E.01772
G1 X125.443 Y35.658 E.01766
G1 X124.998 Y35.991 E.01743
G1 X124.507 Y36.236 E.01721
G1 X123.938 Y36.398 E.01855
G1 X122.881 Y36.462 E.0332
G1 X121.808 Y36.336 E.03387
G1 X119.604 Y35.905 E.07041
G1 X117.48 Y35.416 E.06834
G1 X116.423 Y35.023 E.03536
G1 X115.444 Y34.486 E.03501
G1 X114.559 Y33.816 E.0348
G1 X113.788 Y33.006 E.03506
G1 X113.476 Y32.541 E.01756
G1 X113.26 Y32.06 E.01653
G1 X113.157 Y31.57 E.0157
G1 X113.182 Y31.17 E.01257
G1 X113.281 Y30.823 E.01131
M204 P1000
G1 E-2.24 F4200
;WIPE_START
G1 F7200
G1 X113.298 Y30.765 E-.03349
G1 X113.594 Y30.361 E-.27754
G1 X114.008 Y30.086 E-.27543
G1 X114.301 Y29.991 E-.17069
G1 X114.663 Y29.933 E-.20285
;WIPE_END
G1 Z.4 F720
G1 X94.196 Y20.303 F9000
G1 Z.2 F720
G1 E3.2 F2400
M204 P600
;TYPE:Perimeter
G1 F1200
G1 X94.135 Y20.193 E.00394
G1 X94.026 Y19.872 E.01063
G1 X94.001 Y19.336 E.01682
G1 X94.124 Y18.817 E.01672
G1 X94.343 Y18.381 E.0153
G1 X94.86 Y17.742 E.02577
G1 X95.594 Y17.113 E.03031
G1 X96.166 Y16.74 E.02141
G1 X96.823 Y16.403 E.02315
G1 X97.372 Y16.191 E.01845
G1 X98.684 Y15.861 E.04242
G1 X99.754 Y15.735 E.03378
G1 X100.473 Y15.725 E.02255
G1 X101.228 Y15.792 E.02377
G1 X102.019 Y15.955 E.02532
G1 X102.701 Y16.19 E.02262
G1 X103.5 Y16.61 E.0283
G1 X103.951 Y16.985 E.01839
G1 X104.291 Y17.464 E.01842
G1 X104.46 Y17.917 E.01516
G1 X104.473 Y18.486 E.01785
G1 X104.396 Y18.853 E.01176
G1 X104.11 Y19.389 E.01905
G1 X103.68 Y19.806 E.01878
G1 X103.375 Y20.054 E.01233
G1 X102.797 Y20.388 E.02093
G1 X101.339 Y20.962 E.04913
G1 X99.88 Y21.321 E.04711
G1 X98.359 Y21.505 E.04804
G1 X96.727 Y21.506 E.05117
G1 X95.887 Y21.394 E.02657
G1 X95.125 Y21.146 E.02513
G1 X94.667 Y20.874 E.0167
G1 X94.297 Y20.483 E.01688
G1 X94.226 Y20.356 E.00456
M204 P1000
G1 X94.226 Y20.356 F9000
G1 X94.524 Y20.091
M204 P600
G1 F1200
G1 X94.39 Y19.776 E.01073
G1 X94.378 Y19.328 E.01405
G1 X94.528 Y18.826 E.01643
G1 X94.789 Y18.41 E.0154
G1 X95.148 Y17.985 E.01744
G1 X95.603 Y17.59 E.01889
G1 X96.372 Y17.056 E.02935
G1 X96.993 Y16.74 E.02185
G1 X97.505 Y16.543 E.0172
G1 X98.728 Y16.236 E.03954
G1 X99.798 Y16.11 E.03378
G1 X100.475 Y16.102 E.02123
G1 X101.192 Y16.167 E.02257
G1 X101.94 Y16.323 E.02396
G1 X102.574 Y16.545 E.02106
G1 X103.313 Y16.937 E.02623
G1 X103.704 Y17.276 E.01623
G1 X103.959 Y17.647 E.01412
G1 X104.096 Y18.034 E.01287
G1 X104.086 Y18.582 E.01718
G1 X103.848 Y19.097 E.01779
G1 X103.726 Y19.256 E.00628
G1 X103.284 Y19.657 E.01871
G1 X102.529 Y20.1 E.02745
G1 X101.203 Y20.61 E.04454
G1 X99.726 Y20.966 E.04764
G1 X98.315 Y21.131 E.04454
G1 X96.729 Y21.129 E.04973
G1 X95.94 Y21.021 E.02497
G1 X95.25 Y20.79 E.02281
G1 X94.881 Y20.564 E.01357
G1 X94.588 Y20.244 E.0136
G1 X94.547 Y20.146 E.00333
M204 P1000
G1 X94.547 Y20.146 F9000
G1 X94.847 Y19.946
M204 P600
;TYPE:External perimeter
G1 F1200
G1 X94.749 Y19.627 E.01046
G1 X94.763 Y19.3 E.01026
G1 X94.859 Y19.008 E.00964
G1 X95.077 Y18.653 E.01306
G1 X95.436 Y18.228 E.01744
G1 X95.846 Y17.878 E.0169
G1 X96.578 Y17.372 E.0279
G1 X97.162 Y17.077 E.02051
G1 X97.639 Y16.896 E.016
G1 X98.773 Y16.61 E.03667
G1 X99.842 Y16.484 E.03375
G1 X100.477 Y16.479 E.01991
G1 X101.156 Y16.543 E.02138
G1 X101.861 Y16.692 E.02259
G1 X102.447 Y16.9 E.0195
G1 X103.126 Y17.265 E.02417
G1 X103.407 Y17.509 E.01167
G1 X103.613 Y17.796 E.01108
G1 X103.721 Y18.088 E.00976
G1 X103.698 Y18.566 E.015
G1 X103.472 Y18.977 E.01471
G1 X103.031 Y19.378 E.01869
G1 X102.393 Y19.748 E.02312
G1 X101.068 Y20.258 E.04452
G1 X99.682 Y20.591 E.04469
G1 X98.272 Y20.756 E.04451
G1 X96.73 Y20.752 E.04835
G1 X95.994 Y20.647 E.02331
M73 P2 R47
G1 X95.375 Y20.434 E.02053
G1 X95.055 Y20.217 E.01212
G1 X94.883 Y19.993 E.00886
M204 P1000
G1 E-2.24 F4200
;WIPE_START
G1 F7200
G1 X94.847 Y19.946 E-.03281
G1 X94.749 Y19.627 E-.18493
G1 X94.763 Y19.3 E-.18138
G1 X94.859 Y19.008 E-.17034
G1 X95.077 Y18.653 E-.23086
G1 X95.263 Y18.433 E-.15968
;WIPE_END
G1 Z.4 F720
G1 X133.646 Y16.276 F9000
G1 Z.2 F720
G1 E3.2 F2400
M204 P600
;TYPE:Perimeter
G1 F1200
G1 X133.684 Y16.375 E.00332
G1 X133.754 Y16.696 E.0103
G1 X133.736 Y17.102 E.01274
G1 X133.578 Y17.699 E.01936
G1 X133.252 Y18.176 E.01812
G1 X133.034 Y18.412 E.01007
G1 X132.542 Y18.792 E.01949
G1 X131.855 Y19.137 E.0241
G1 X132.789 Y19.53 E.03177
G1 X133.598 Y19.994 E.02924
G1 X134.115 Y20.345 E.01959
G1 X134.746 Y20.868 E.0257
G1 X135.487 Y21.679 E.03444
G1 X135.851 Y22.209 E.02016
G1 X136.148 Y22.796 E.02063
G1 X136.371 Y23.469 E.02223
G1 X136.494 Y24.204 E.02337
G1 X136.5 Y24.97 E.02402
G1 X136.373 Y25.736 E.02435
G1 X136.095 Y26.473 E.0247
G1 X135.658 Y27.136 E.0249
G1 X135.098 Y27.674 E.02435
G1 X134.49 Y28.081 E.02294
G1 X132.283 Y29.153 E.07693
G1 X131.126 Y29.53 E.03815
G1 X130.466 Y29.612 E.02085
G1 X129.778 Y29.589 E.02158
G1 X127.807 Y29.295 E.06248
G1 X126.693 Y29.178 E.03512
